/* XPM */
static const char *scaled_on[] = {
/* columns rows colors chars-per-pixel */
"32 21 149 2 ",
"   c #253415",
".  c #2F3F15",
"X  c #353F19",
"o  c #323F24",
"O  c #333F27",
"+  c #68371A",
"@  c #344516",
"#  c #3A4710",
"$  c #384314",
"%  c #3B4B12",
"&  c #3A4B14",
"*  c #394C16",
"=  c #31401D",
"-  c #36441D",
";  c #34461D",
":  c #38431C",
">  c #38461C",
",  c #3F501C",
"<  c #334221",
"1  c #374321",
"2  c #374223",
"3  c #3B4D2A",
"4  c #3F5021",
"5  c #454E13",
"6  c #4C5616",
"7  c #415219",
"8  c #41521A",
"9  c #44541A",
"0  c #4D541E",
"q  c #48591F",
"w  c #545A19",
"e  c #535D1E",
"r  c #56621E",
"t  c #5C6118",
"y  c #5C601F",
"u  c #606617",
"i  c #60691F",
"p  c #72701A",
"a  c #464D24",
"s  c #424A29",
"d  c #4D5626",
"f  c #46542C",
"g  c #4F5C29",
"h  c #49592D",
"j  c #525A2F",
"k  c #474135",
"l  c #4C4334",
"z  c #48443A",
"x  c #524D3D",
"c  c #4D5830",
"v  c #774025",
"b  c #5B642A",
"n  c #56653D",
"m  c #686928",
"M  c #6A6A2A",
"N  c #727525",
"B  c #787824",
"V  c #787924",
"C  c #7C7A2E",
"Z  c #666F35",
"A  c #5B5A51",
"S  c #585A52",
"D  c #5E5D53",
"F  c #6E6E44",
"G  c #687648",
"H  c #707944",
"J  c #66725D",
"K  c #656762",
"L  c #696A61",
"P  c #6C6D64",
"I  c #6F7169",
"U  c #777771",
"Y  c #767A74",
"T  c #80786A",
"R  c #80796B",
"E  c #827C6F",
"W  c #79803D",
"Q  c #768046",
"!  c #7E874D",
"~  c #798455",
"^  c #808235",
"/  c #9F9C4B",
"(  c #828C67",
")  c #828C6F",
"_  c #968B63",
"`  c #889166",
"'  c #949D78",
"]  c #AAA862",
"[  c #928E84",
"{  c #919B80",
"}  c #92928C",
"|  c #969F8C",
" . c #969C91",
".. c #98A289",
"X. c #9FA79C",
"o. c #A2AB89",
"O. c #A2A19B",
"+. c #A8AF98",
"@. c #B0B69B",
"#. c #B8BD99",
"$. c #ACAAA6",
"%. c #B0AFAC",
"&. c #CDC19D",
"*. c #D2D1A3",
"=. c #C1C7B4",
"-. c #C4C9B3",
";. c #C6CBB8",
":. c #CFD2B7",
">. c #CBD0BE",
",. c #D2D6BF",
"<. c #CED2C7",
"1. c #D1D5C8",
"2. c #D7DBCE",
"3. c #D9DDCE",
"4. c #DBDECF",
"5. c #D6D6D4",
"6. c #D5D9D3",
"7. c #DBDED1",
"8. c #DFDFDE",
"9. c #DDE0DA",
"0. c #E1E4DC",
"q. c #E9E5DB",
"w. c #E7E9E2",
"e. c #E8EAE3",
"r. c #ECEDE3",
"t. c #E9EBE4",
"y. c #E8EAE5",
"u. c #F1F1F0",
"i. c #F3F3F2",
"p. c #F5F5F3",
"a. c #F5F5F4",
"s. c #F5F5F5",
"d. c #F5F6F4",
"f. c #F6F6F4",
"g. c #F7F7F4",
"h. c #F6F6F5",
"j. c #F6F7F5",
"k. c #F7F7F7",
"l. c #F7F8F6",
"z. c #F8F8F6",
"x. c #F8F8F7",
"c. c #F9F9F9",
"v. c #F9FAF9",
"b. c #FAFAF9",
"n. c #FAFBFA",
"m. c #FAFBFB",
"M. c #FBFBFB",
"N. c #FBFCFB",
"B. c #FBFCFC",
/* pixels */
"B.B.B.N.M.M.M.M.M.M.N.M.M.M.M.g.M.M.M.M.M.M.M.M.N.N.N.N.N.N.N.N.",
"B.B.B.N.M.M.M.M.M.M.M.N.M.M.M.&.q.M.M.M.M.M.M.M.M.M.M.B.M.B.N.N.",
"N.N.M.M.M.M.M.M.N.N.N.B.N.N.M.@.y.M.M.M.M.M.M.M.M.M.M.M.M.N.N.N.",
"B.N.M.M.M.M.M.M.M.M.N.N.M.M.g.G #.x.M.M.M.M.M.M.M.M.M.M.M.M.N.M.",
"B.N.M.M.M.M.N.M.M.M.M.M.M.p.o.h ^ 4.M.M.M.M.M.M.M.M.M.M.M.M.M.M.",
"B.B.M.M.M.M.M.M.M.M.M.M.M.4.! > B ' w.M.M.M.M.M.M.M.M.M.M.M.M.M.",
"B.B.M.N.M.M.M.M.M.M.M.M.M.*.r u # n e.M.M.M.M.M.M.M.M.M.M.M.M.M.",
"B.B.N.N.N.N.M.N.N.M.M.M.>.W 2 b t * ~ l.M.M.M.M.M.M.M.M.M.M.M.M.",
"B.M.N.M.N.M.B.M.N.M.N.x.-.H _ - m p ] ;.M.M.M.M.M.M.M.M.M.M.M.M.",
"B.M.M.N.M.N.N.M.N.M.M.r./ 7 F . 9 < j ,.M.M.M.M.M.M.M.M.M.M.M.M.",
"N.M.M.M.M.M.M.M.M.M.M.7.g C o c o v X ) g.M.M.M.N.N.N.M.M.M.M.M.",
"B.N.N.N.M.N.M.M.M.M.M.{ 3 6 i $ @ + : Z :.M.M.N.N.M.M.M.M.M.M.M.",
"B.B.M.M.M.M.N.M.M.M.1.Q d a s f 0 2 m y ` l.M.M.M.M.M.M.M.N.M.M.",
"B.N.N.M.M.M.M.M.M.M.g.( & V 7 5 N % w , =.M.M.M.M.M.M.M.M.M.B.N.",
"B.B.M.M.M.M.M.M.M.M.2...J - = q   e 4 | +.g.M.M.M.M.M.M.M.M.M.M.",
"B.B.M.M.M.M.M.M.M.M.M.M.0.9.X.x  .6.<.y.M.M.M.M.M.M.M.M.M.M.M.N.",
"B.M.M.M.M.M.M.M.M.M.M.M.M.} z l k S g.M.M.M.M.M.M.M.M.M.M.M.M.M.",
"B.M.M.M.M.M.N.M.M.M.M.M.M.O.S I L K M.M.M.M.M.M.M.M.M.M.M.N.M.M.",
"N.N.M.M.M.M.B.M.N.M.M.M.g.%.D Y P U i.M.M.B.M.M.M.M.M.M.M.M.M.M.",
"B.N.N.N.N.M.M.M.M.M.M.g.8.$.T T E [ 5.i.M.M.M.M.M.M.M.M.M.M.M.M.",
"B.B.N.N.N.N.M.M.M.N.N.N.M.M.M.M.M.M.M.M.N.M.M.M.N.N.N.N.M.M.M.M."
};
