/* XPM */
static const char *scaled_off[] = {
/* columns rows colors chars-per-pixel */
"32 21 149 2 ",
"   c #2B3D16",
".  c #2C3F15",
"X  c #273819",
"o  c #663D20",
"O  c #374717",
"+  c #3A4B17",
"@  c #304018",
"#  c #344619",
"$  c #38421E",
"%  c #374A1B",
"&  c #394A1B",
"*  c #3A4E1D",
"=  c #3F511C",
"-  c #354223",
";  c #344323",
":  c #374620",
">  c #344127",
",  c #394720",
"<  c #3C4721",
"1  c #384823",
"2  c #3C4E21",
"3  c #3C4D24",
"4  c #3E4C24",
"5  c #374329",
"6  c #36432A",
"7  c #3B4629",
"8  c #3B4928",
"9  c #3E502E",
"0  c #43521C",
"q  c #43531E",
"w  c #49531D",
"e  c #414927",
"r  c #405121",
"t  c #405321",
"y  c #465722",
"u  c #465627",
"i  c #4B5324",
"p  c #4C5C24",
"a  c #48572E",
"s  c #4A4436",
"d  c #4F4636",
"f  c #4B473C",
"g  c #455334",
"h  c #495734",
"j  c #4A5B31",
"k  c #4B5832",
"l  c #4D5C33",
"z  c #77462C",
"x  c #516125",
"c  c #536228",
"v  c #5F632D",
"b  c #5D6130",
"n  c #56633B",
"m  c #616523",
"M  c #696F2C",
"N  c #6E722C",
"B  c #6E722E",
"V  c #6F7034",
"C  c #70773B",
"Z  c #565342",
"A  c #5A5B53",
"S  c #5D5C53",
"D  c #605F54",
"F  c #586740",
"G  c #5F6E4C",
"H  c #6E6F46",
"J  c #6B7A4D",
"K  c #6D7B4F",
"L  c #737E47",
"P  c #656761",
"I  c #6A6B61",
"U  c #6E6E64",
"Y  c #6C7964",
"T  c #717269",
"R  c #777770",
"E  c #787B74",
"W  c #80796B",
"Q  c #817B6C",
"!  c #837D70",
"~  c #748256",
"^  c #79845B",
"/  c #878B57",
"(  c #838E6C",
")  c #858F6E",
"_  c #958B66",
"`  c #999D6A",
"'  c #848F73",
"]  c #96A07D",
"[  c #908C83",
"{  c #96958F",
"}  c #989D93",
"|  c #97A086",
" . c #98A18F",
".. c #9FA88F",
"X. c #A7AF90",
"o. c #A4AA9F",
"O. c #ACB39C",
"+. c #B4B99D",
"@. c #A7A6A0",
"#. c #ACABA6",
"$. c #B4BAA1",
"%. c #B2B2AE",
"&. c #CDC1A3",
"*. c #CBCDAC",
"=. c #C1C7B5",
"-. c #C5CBB6",
";. c #CBCEB9",
":. c #C8CDBB",
">. c #CED2C3",
",. c #D0D5C3",
"<. c #D1D5CB",
"1. c #D5D9CC",
"2. c #D9DCCF",
"3. c #D3D4D2",
"4. c #DBDED2",
"5. c #D8DBD5",
"6. c #DFDFDE",
"7. c #DDE0D2",
"8. c #DDE0D6",
"9. c #DFE2DB",
"0. c #E4E6DF",
"q. c #E9E5DC",
"w. c #E8EAE3",
"e. c #E9EBE4",
"r. c #E9EBE6",
"t. c #EAECE5",
"y. c #ECEDE5",
"u. c #F0F0EF",
"i. c #F3F3F3",
"p. c #F5F5F4",
"a. c #F6F7F4",
"s. c #F7F7F4",
"d. c #F6F6F5",
"f. c #F7F7F5",
"g. c #F6F6F6",
"h. c #F8F7F5",
"j. c #F8F8F6",
"k. c #F8F8F7",
"l. c #F8F9F7",
"z. c #F9F9F8",
"x. c #F9FAF9",
"c. c #FAFAF9",
"v. c #FAFAFA",
"b. c #FAFBFA",
"n. c #FBFBFA",
"m. c #FBFBFB",
"M. c #FCFCFB",
"N. c #FBFDFC",
"B. c #FCFCFC",
/* pixels */
"N.B.B.B.B.B.B.B.B.B.B.B.B.M.M.h.B.B.B.B.B.B.B.B.B.B.B.B.B.B.B.B.",
"B.B.B.B.B.B.B.B.B.B.B.B.M.B.M.&.q.B.B.B.B.B.B.B.B.B.B.B.B.B.B.B.",
"B.B.B.B.B.B.B.B.B.B.B.B.B.M.B.$.t.B.B.B.B.B.B.B.B.B.B.M.B.B.B.B.",
"B.B.B.B.B.B.B.B.B.B.B.B.B.B.f.K +.j.B.B.B.B.B.M.M.B.B.B.B.B.B.B.",
"B.B.B.B.B.B.B.B.M.B.B.B.B.f.X.j C 2.B.B.B.M.B.M.B.B.B.B.B.B.B.B.",
"B.B.B.B.B.B.B.B.B.B.M.B.B.7.~ $ N ] w.B.B.B.B.B.B.B.B.B.B.B.B.B.",
"B.B.B.B.B.B.B.B.B.B.B.B.n.*.c = O F r.n.B.B.B.B.B.B.B.B.B.M.B.B.",
"B.B.B.B.B.B.B.B.B.B.B.B.,.L 7 a # * ^ j.B.B.B.B.B.B.B.B.B.B.B.B.",
"B.B.B.B.B.B.B.B.B.B.B.n.-.G _ , b m ` :.B.B.B.B.B.B.B.B.B.B.B.B.",
"B.B.B.B.B.B.B.B.B.B.B.y./ t H @ 0 - g >.n.B.B.B.B.B.B.B.B.B.B.B.",
"B.B.B.B.B.B.M.B.B.B.B.8.l V > h 5 z $ ' f.B.B.B.B.B.B.B.B.B.B.B.",
"B.B.B.B.B.B.B.B.B.B.B.| 9 0 x   % o < n :.B.B.B.B.B.B.B.B.B.B.B.",
"B.B.B.B.B.B.B.B.B.B.1.J 8 e 5 j i - v 3 ( j.B.B.B.B.B.M.B.B.B.B.",
"B.B.B.B.B.B.B.B.B.B.j.) & N y . M & w t =.B.B.B.B.B.B.B.B.B.B.B.",
"B.B.B.B.B.B.B.B.B.B.4...Y 3 1 p X 2 u  .O.f.B.B.B.M.B.B.B.M.B.B.",
"B.B.M.B.B.B.B.B.B.B.B.M.0.9.o.Z } 5.<.r.M.B.M.M.B.B.B.B.B.M.B.B.",
"B.B.B.B.B.B.B.B.B.B.B.B.M.{ f d s S f.B.B.B.B.M.B.B.B.B.B.B.B.B.",
"B.B.B.B.B.B.B.B.B.B.B.B.B.@.A T I P B.B.B.B.M.M.M.M.B.B.B.B.B.B.",
"B.B.B.B.M.B.B.B.B.B.B.n.f.%.D E U R i.n.B.B.B.B.B.B.B.B.B.B.B.B.",
"B.B.B.M.M.B.B.B.B.B.B.f.6.#.W Q ! [ 3.u.n.B.B.B.B.B.B.B.B.B.B.B.",
"N.B.B.B.B.B.B.B.B.B.B.B.B.B.n.n.n.M.B.B.B.B.B.B.B.N.B.N.B.B.N.B."
};
