/* XPM */
static char *_78aed051e664d42fff95c9e70e1e00clgiUgTHqbZu5ebzu[] = {
/* columns rows colors chars-per-pixel */
"64 64 4 1 ",
"  c #F6E18E",
". c #F1DA86",
"X c #F4DE8B",
"o c #E9D37E",
/* pixels */
".X.XX.X.X .X.X .X.X .X.XX.X.X .X.X .X.X .X.XX.X.X .X.X .X.X .X.X",
".o.X Xo.  Xo.  Xo. X.o.XX.o.  Xo.  Xo. X.o.X .o.  Xo.  Xo. X.o.X",
".ooX .o.  .o.  .o.X .ooX .o.  .o.  .o.X .ooX .o.  .o.  .o.X .ooX",
"...X .X.XX...X ...X ...X .X.XX...X ...X ...X .X.XX...X ...X ....",
"...X ...X ...X ...X ...X ...X ...X ...X .... ...X ...X ...X ...X",
"X XX X X  X X  XXXX X X  X X  X X  XXX  X XX X X  X X  XXX  . X ",
"X XX X X  X X  X XX X XX X X  X X  X XX X XX X X  X X  X XX X XX",
". .X . .XX. .X . .X . .X . .XX. .X . .X . .X . .XX. .X . .X . .X",
". X..X X..X X..X X... X..X X..X X..X X... X..X X..X X..X X..X X.",
"X  oo   ooXX oo   ooX  oo   ooXX oo   ooX  oo   ooXX oo   ooX  o",
". X... X... X... X... X... X... X... X... X... X... X... X... X.",
". .... .... .... .... .... .... .... .... .... .... .... .... ..",
". X.XX XX.X X..X X... X.XX XX.X X..X X... X.XX XX.X X..X X... X.",
"X XX X XX X XX X X  X XX X XX X XX X X  X XX X XX X XX X X  X XX",
". XX . .XX. .XX. .X . XX . .XX. .XX. .X . XX . .XX. .XX. .X . XX",
"...X .X.XX...X ...X ...X .X.XX...X ...X ...X .X.XX...X ...X ...X",
"Xo.XXXo.  Xo.  Xo.  Xo.XXXo. XXo.  Xo.  Xo.XXXo.  Xo.  Xo.  Xo.X",
".o.X .o.  .o. X.ooX .o.  .o.  .o. X.ooX .o.X .o.  .o. X.oo  .o. ",
".X.X ...X .X.X ...X .X.X ...X .X.X ...X .X.X ...X .X.X .X.X .X.X",
"...X ...XX...XX...X ...X ...XX...XX...X ...X ...XX...XX...X ...X",
"X X  XXXX XXXX X X  X X  XXXX XXXX X X  X X  XXXX .XXX X X  X X ",
". X  X XX . .X . XXX. XX X XX . XX . X X. X  X XX . .X . XXX. XX",
". .X . .XX. ..X. .X . .X . .XX. ..X. .X . .X . .XX. ..X. .X . .X",
"X  .oX X..X X.oX X.oX  ..X X..X X.oX X.oX  .oX X..X X.oX X.oX X.",
"X  ooX  ooX  ooX  ooX  ooX  ooX  ooX  ooX  ooX  ooX  ooX  ooX  o",
". .... X... X... X... .... X... X... X... .... X... X... X... ..",
". .... X... .... .... .... X... .... .... .... X... .... .... ..",
"XXXXXX  XXX  XXX X.XX XXXX  XXX  XXX X.XXXXXXX  X.X XXXX X.XXX .",
"X X  X X  X X  X XX X X  X X  X X  X XX X X  X X  X X  X XX X XX",
".X.XX. .XX. .X . .X .X.X . .XX. .X . .X .X.X . .XX. .X . .X .X.X",
"...X ...XX...X ...  ...X ...XX...X ...X ...X ...XX...X ...  ...X",
"Xo.  .o.  Xo.  Xo.  .o.  .o.  Xo.  Xo.  .o.  .o.  Xo.  Xo.  .o. ",
".o.X .o.  .o.  .o.X .o.X .o.  .o.  .o.X .o.X .o.  .o.  .o.X .o.X",
"...X ...X ...XX.X.XX...X ...X ...X .X.XX...X ...X ...XX.X.XX...X",
"...X ...X ...XX...  ...X ...X ...XX...  ...X ...X ...XX...  ...X",
"X X XX XX X X  XXX  X X XX XX X X  XXX  X X XX XX X X  XXX  X X ",
". XX . X  X X  X XX . XX . XX . X  X XX . XXX. XX X X  X XX . XX",
"o ..X. .XX. ..X. ..X. ..X. .XX. ..X. ..X. ..X. ..X. ..X. ..X. ..",
". XooX X.oX  .oXXXooX XooX X.oX  .oX XooX XooX X.oX  .oX XooX X.",
".XXooX  ooX  ooX  oo. XooX  ooX  ooX  ooX XooX  ooX  ooX  ooX Xo",
". .... X... X... X... .... X... X.X. X... .... X... X.X. X... X.",
". .... .... X... .... .... .... X... .... .... .... X... .... ..",
"X XXXX XXXX XXXX  XXX X.XX XXXX XXXX  XXX XXXX XXXX XXXX  XXX X.",
"X X  X XX X X  X XX X X  X XX X X  X X  X X  X XX X X  X XX X XX",
". .X . .X . .X . XX . .X . .X . .X . XX . .X . .X . .X . XX . .X",
"...  ...X ...X ... X...  ...X ...X ... X...  ...X ...X ...XX...X",
"Xo.  Xo.  Xo.  Xo.  Xo.  Xo.  Xo.  Xo.  Xo.  Xo.  Xo.  Xo.  Xo. ",
"...  .o.  .o.X .o.X .o.  .o.  .o.X .o.X ...  .o.  .o.X .o.X ... ",
"o..X .X.X ...X ...XX...X .X.X ...X ...XX...X .X.X ...X ...XX...X",
"X..X ...XX...X ...  ...X ...X ...X ...  ...X ...XX...X ...  ...X",
"X X  X XXXXXXX XXX  X X  X XXXXXXX X X  X X  X XXXXXXXXXXX  X X ",
". .XX. XXX. XX . XX X .XX. XXX. XX . XX X .X . XXX. XX . XX X .X",
". ..X. .XX. ..X. ..X. ..X. .XX. ..X. ..X. .... .XX. ..X. ..X. ..",
"X X.oXXX.oX  .oX Xoo  X.oXXX.oX  .oX X.o  X.oXXX.oX  .oX Xoo  X.",
"X XooXX ooX XooX XooX XooX  ooX XooX XooX XooX  ooX XooX XooX Xo",
". .... .... .... .... .... .... .... .... .... .... .... .... ..",
". X... .... .... .... X... .... .... .... X... .... .... X... X.",
"X XX X  XX. XXXX  XXX XX X  XXX XXXX XXXX XX X  XX. XXXX  XXX XX",
"X X  X XX . XX X X  X X  X XX . XX X X  X X  X XX . XX X X  X XX",
". .X . .X . .X . .X . .X . .X . .X . .X . .X . .X . .X . .X . .X",
"...X ...  ...X ...XX...X ...X ...X ...XX...X ...X ...X ...XX...X",
"Xo.  Xo.  .o.  Xo.  .o.  Xo.  .o.  Xo.  Xo.  Xo.  .o.  Xo.  .o. ",
".o.  ...  ...X ...X ..o  ...  ...X ...  .o.  ...  ...X ...  ..o ",
"...X ...XX...X ...XX...X ...XX...X ...X ...X ...XX...X ...XX...X"
};
