/* XPM */
static char *_f340a6e30e54d71c5e459c6d9b3a37ewsD4vhyGNjtcSzSQ[] = {
/* columns rows colors chars-per-pixel */
"720 720 27 1 ",
"  c #9A9343",
". c #9B9444",
"X c #9E9747",
"o c #9E9748",
"O c #9F9848",
"+ c #9F9849",
"@ c #A29B4B",
"# c #A29B4C",
"$ c #A39C4C",
"% c #A49D4D",
"& c #A69F50",
"* c #A7A050",
"= c #A8A151",
"- c #AAA354",
"; c #ABA454",
": c #ADA656",
"> c #AEA758",
", c #AFA858",
"< c #B2AB5B",
"1 c #B3AB5B",
"2 c #B2AB5C",
"3 c #B3AC5C",
"4 c #B4AD5D",
"5 c #B6AF5F",
"6 c #B6AF60",
"7 c #B7B060",
"8 c #B8B161",
/* pixels */
"@@@@@%=;=%%*;<3<:=%%==%##@%==*%=:<43,;;:::=;,4444443:=;<3<=%%==%@@%:244<<;:<<<<<<;%%%%%%*;;*%@%=:;===**==:44<:*=:<<=%@%*=%$@%*;,3<;*:<3<:=%%%%%=:4:%@@%*===*%%==:<333,%$%:34<=*%%%*=<:;;:%+@$@@@*:<<<<==,343,%%=:;*%*=:*$@@$%==%%:<:*%%=;:;%%%%#@@$%%%%=:::=%%;<4:=%==%$$%%;=**==:<;%*:344,=;==*==%%*=%$$%%=:<3:***=,<33:;=<3443,;=%%=*===*$@@%:<:=%%%**;<3<:=:<44,=%@@%=*%@%=<34<:=:44<;=%%%==;<;%+X$=:=****==:<4<<<:%$=,<3:=%*;<4<:=%%%@%%%@*==%%==:<44,=%;<3;==%==*%$$@%=;=;<3:=%*=:::==%%$@@@@%*========<<<===:%%$$$%:====:<<*%=<443::,;:,4;$@$%%@&;:;:<:=%**=;<<<<*$%:344<,;=**===;=*%@%;3,:=**===:<4<:=:<4<:==%%=:=**;<443:=<44<:====::<<<=%%%=::=======:<44<,=;<3<<<<<<<:=@@@@@@@@%%%%*:4443<,:,===;;;;=:<3<<=**%%@@@@$*==%%=:<<,=%=;=%@+",
"@++@@$%===%%=,33<;%%%=%##$%=*%%*:<43<:;;==*=:<<<3443:==;:;%@$%%$@@*:233<,=:<3333,=%%%%%%*;;*%@$=::===**==:<4<:=;<3<;%@$%%%@@$%;<3<:=;,<<:*%%%%%=:4:%++%==*%%%%=:,<<,:=$$=,33<=%*;;;:<,::=%@$@@@$=<<33<==<443<=%*==*%%==*$@$$%==%%:<:%%*=::=%%%%%%%%%%$$=;:;=%%=:<:*%==%$$%%;;=**=::=%=<443,=:::::=%%**@@%===:3<:*=*=:<33,;=:<333<:=*%&***=%$++%:<:=%%%%%=,3,-=:<44<:%@@@%$@@*:333<:=;<<,=%%%%%*=<;%XX$;:=%*%*=;:<<<,:=%%=<<<:=%*=,4<:==*%@%%%@*=:==;=:<44<:%=,<;==*==*%$%@%==*=<3:*%*=:,;=%%%$@@@%%%%=====*=:<<===:%$$$$*:-===:,:%%:344<;:<<<34:%@@%%@%;,:,<<:=:===,<<<=%%=:<<<,:=**===::=%@%:4,;=%&&&=:<4<:=<343,;%%%*=*%%:<44<,=:<4<:====;;:<<=%$%=::=====;;,343<:=;,<<<<<<<<<:%@@@@@@%%*===:443<:;==%%%*=**;,<4<,==%%%@@@@%**%%=:<<<:=%=;=$@+",
"@+o@@@%===*%=:34<>*%%=%$@$%=%%**:<44<<:=*%%%=::::<44<;====%@@@$@@$=<333<,=;<3333<;*%%%%%*=;*$@@=::==*%%*=:,3<:=:<4<:*$@$$@@@@=:<<<:==:,,;*$%%%%=:4:%+@*:=*%%%%=;::==*%@%=<33<*%=,,::::;=*$@$@@@%:<344<==<443<=%%==*%%%*%@@$%%;=**:,;%%=;===%%%%*===*%%%*=;===%*:<;**==%@$$%===%%===*%:<443,=:<<<,=@%%%@@%::::33,=;===<3<,:==::,,,:=*%%%%*==%++%:<:*%%%%%=:<;==:<<33<=$@@@@@@=<43<:===:,:=%%%%%*=<:%X+%::*%%%%*;:::;=*$%=:<<<===;:<4<:;:=%@%%%@%;<:,,=:<44<,%=;,;==%==*$$%$%==%=,<;%%*=::=%%%%%%%%%%%%=;:;=**;:,=*=:%$$$$%;==**;:=%=<444<;:<4444:%@@$%$%=:::<,::<===,<<<;%$%===;::=*%**=;:=%@%:4,:=%%&*=;,<:;;<<34<:%%%%%%%*:34<<:=;:<,:======:<<=%@%;,:===;;::<<<<:==:<<<<<<<<<<<;%$@@$%%%=;===<33<=*%%@@@%%%%:<34<:=*%%%$@@@%**%*;<<<,=%%=;=@@@",
"@@+@@@$=;;=%%=<43,====%$@@%=====:<4444:%@@@@$%$$*<44<:=:=*%$@@@%%=:<444<<==:3343<:===*%%*=:%@@@*::=%*%%%=;:<:=*:<33<:%@@+++@@;<3<::;===:=*%%%%*;<4,%+%:<-%%%%%*=%%@@@@+%:333<**=<<:;=*%%@@@@@@%*:3344<==<4433:=$%**%$#@@@+@%*;===<:=%*=:==***========%%%**=:=%=:<=%=;=%@@@$%*%%%%=$$*<3444,=:<44<:$$$%%@%:,,<<3<<3:==,3<<:==**=====%%%%%%::=@@*<<:=%%%**=;;*%====<43:%@@@@@%:<4<-&%=====%%%%%*=:<,=X$:<:%@@@$%=%%$$$@@%:33<,==:4<<4<,:<;%@%%$$*:444<;:<444<=**==*%%==*$@$$%=;%=::=%*=;:=*%%%=;;====*%%=::;=%=;:=%*:*%$$$%*%%%*==%%;44444::<4444<=$$%%%#$%*==::<3===<<33<=@@$$@$%==%%**==,:=$=:4<:;**====::==;;:<43:*%%$@$%=<43:=====::;==**==:<3;%@=:<:=*=;::,<<:;===:<<<<33<<<<<<:;=*=%@%=:=%%:<<:%$$%@@@@@@*,333<:=%%*=%@@@%%*==:<3<:=%%=:=@@@",
"@++@@$*=;==*%*:43:=*==%%@@$*=%%==,443<*%%=;=%$@$%:<<=%*::=$$%*;:,<<4443<<;==::,,<,::=%%%%=<=$X@=<,=%%%%%%=;:==*==::<:*%@@@@@%:<<=%%====*%%%%%*=:<4:==::-**%@@%%==*%===%%=:<3<=**;=*%*===$@@@@@@=,433<:==::,<3<=@%**#$%$@@@@%*;=;<3:*%=;:=*%*===::;;-==%%%%=;==*=<:==;=%@@@@%%%%**%@$=34444,=:<444,&##%%@@%=;;:,<33:==<333<=%%**%%**%@$%%%*=;=%=<<<:=*%%%%*=;:=*%%*:<;*$@@@@@=::%%%*-::*%$%%*==:<3,=%;:;=%%%%%===%%%==%%=<33<==,43<,:;;;*%@%$@@;<444<=:<4444:%$%=%%%%*%@@$$*;;%=::=*=====*%*=========***=:==%*;:===:=%@@@@@$$%**%@=,443<<;;,4774<=@@@@$@#====%==:==;<<<<;*%=::**===%%%*===::==:33<:====**==::==*=,<:*%%%%%*;,,:====::==**====;,33:**:<,==*=*====%%*==:<<<<<<<<<<<,:<<<<:%@%*=$@$%:<:$@$%%*==%$%=<33>-=%%%%$@@@%====;<<,=%%=:,:*@+",
"@X+@@%==;:;=%%;<3,====%$$@$%=%%==:44<;%%=<<:=%@@%:::%$%=;=$%*:<<<<<<443<<:=**===;;==*%%%%=,:=@@=3<:=%%%%%%====**%%=::=%@@@@@%;:;%$%==;=*%%@$%=;:<,===;==-;=**==::==:,::===,<<:=%*%%%=;::=%@@@$%;<3,,:;**==;:<<;@%=*@$%$@@@@%===;<<;*%=::=%%*=*%===;===%%%%====*=<,:===%$@$$$%%%==%@%;443<<:=;<444<*##$$@@$==;=;:::==:<43<:=%===%=;;=*%*======*=:<<:=*%$%%*;::=*%%$=;=%$@@@@@==*@@%%=:>=%$$%%*=:<<:==;====;;;:::::==;:;==:<<<;=;,,:;===*%@$$@@@:<444,=:<3<44<%@$**%%%%$@@$$=;==;<:=%===**=*===;=;;===*%%*;;=%%=,:==:=%@@@@@$$$*=%@=<4<,::==:<3343:$$$$$$*:::=%%%===:<<<:==;,<,==:,:;==;::==;==;,<,:;*%%%*=:::==*%=::%%%%$%*::;**===:::=%%===;:<4<:=;,,:-=====;=*%****:<33<<<<<<<:;;:,<3:%@%%$@$$@=,:%@%**=,<:*$%:<<:==%%*%@@@@%====:<<;*%=;:::=%@",
"+++@%*==:::=%%=,3<;===%%%%%%==%==;<3:%%=<44<;=%@%==%$%%@*=%%=<44<:=:<4<<<<:%%%%%%%%%%%%%%%;,:*%;33<:==%%@$%=::==%@@%==$@X@+@$;=%@%%==;:=%$@@$*=::=%%%%=;,<<,,,<<<:=:<3<:=%:<<<:=%%%=;:<<:=@$$%*:<<;===%%====,<:%==*@$%$$$@@%==*=::=%%=::****%%@%===*****%%*=;**=:<:===%$$%%%%%*===$%:4<,:::==,344<=%$$$$$$;::==**===,<3<:==:,,;=:<<<:::,<:=**%%=:::=%@@%%=<:===*%@$%;%@@@@@@*%@@%%%%;<:=%$$$%=::-**====:<<<<3333<:=:<<:=%:<4,=*=*=====*$@@@@@@:<443:=;:,,<4<*@%==%%%%%$$$$=;==:<:*%====*=====::::===*%%*=:;*%=,<:=;=%@@@@@$$$*=*@=<4,:==**=:::34<=%%%$*:4<<:=%%*=:<3<:==:<3<,*:<4<<<,<<<;=*%%*=;:;=%$$%=:<:;;==%%==%%%%$%*:=*%====:,,=*%===:<34<;=:::;::::,<<,==;;=%=:<33333<<:=**%=,3:%$%@@$%%@%:,=%*;=:34<:%%=,<:=*%*=%$$$$%;===<<:=%*=;;;=*%$",
"$$%%%%%%;::;*%*:<3;===%%%%%*=====;<,=%=<443:=:=**;=$%=*@$%%%=:4<:**=:<<<<,=%*==%*=::=*%*==*=::==:<<,==%%$%=,:=**%$+@%=$@@@@@%;*@$%%%%=::=%$@@%*=*%%%%=,<<<<<<<<3,;=,<3<<:*=:<<<,:===;;:<<;$$@%=<<:==*%%*=;==:;=%==%$%%$$$@@%==*=::=%%;::=*&%%%%=;:=*%%=*%%*=:=*=,<:===%$$%%%%=*===%=,4,;===%=:<<43:=%$$%*:<33<;*%=:<343,==,34<;;,43433<<<<<:=%%&&==*$@@%=;<:==**%%$%:%@@@@@%=*@%%%%%=::=%$$@@%*=%%%%*:<<<,<<333<:==:<<<:%=,43<:=%=:<3<:=%@@@%*:<43<:=*===:<<=$%==%%%%%%%$$==*=:<:=*====*===**====%%===**=:;%%=:<;*==%@@$$@%%%===%;,<:=====*==-<44:%%%$;<4<,:===:<344<:=,<33<,*=:<<<<,,<<<,;%%=====%%%%==:<:===*%%==%%%%%%%:=%%====:<<;=%%%*=:::;===;:<3<<34444:=:<<:==:33333<<=*%*%=:3:;;=%@$$@@$=<<<,,=:<44<;%%;:=**===%@@$$%;=*=<,:*%*=;;=%%%%",
"%***%%$%=;:;=%%;<<=*==%$$$%*;==%*=:;*%:<44<:=:::::*@%*%@@%;=;:4<:=;==:<<,;==:>;%;,<<<,::::;===%%=;:=*%$%%%=<:=%*%%@#&;%@@@@@*;*@%%%**;,;=%%%%%::::==%=:,:===;:<<:;-<<<<<,==:<<<<:===;==:<:*$$%=<<,===%%*:::==%%%==%$%%%$@@@%==%=::=%%=::=***%%%====*%%=*%%*=,=*=::;%==*$$%%%%*%*==%=:<:;::=%*=;:<3<;%$$%=<<<<<:==:<<34<;=:344<:=:333<:===::;**=:::;=%%%*==,:==*%%%$%:*$@@@%=:*@%%%*%*:;=%%%%%=;:;=*%=;::====,<4<:;:<<<<,==:333<:=;<<<<<:*@@$*:<<,:;=**=;=:,<=%===%*%%$%%$%==*=:<===::==**==&*;;;=%%*=***=::=%=::=*==%$$$$$%%%===%=;:=:::=%%===,43:%$$*,<<;=;;==:3444<:=<3333<=::<<:;==;:,:;*=:,:::=**===:<:===**%=:=%%%%%=:=%%====;:<:=%%%*==;;;===:<<<,:<3443:=,<<<:==<<334<:**=::::<::;*$@%$@@%:<33<<=:<44<:*%===%%%==%@@$%*;*%=<:=%*=;===%%%%",
"====*%%%&====*%=:<=*=;*$$@$%==*%%==%%=<344<:=:<33:=@$%%@@*::::4<<,<:=:<<:=;<4<:*:<4443<<<<,:=%%%****%$$%%*;<:=%*&%@$=:*$@@+@=:*@%%%%=::=%%%%%=:<33<:==;=%$@%%=:<:::<<,<<<;=:<<<<:===:=*=,<:%%==:<<;:;$$%;::=%@$*==*%%*%$@@@%==*=::=%%=;=***=**%***%%*==*%%*=:=**::;%==%$%%%%*=%%*=**=,::<,;*%*==,<3;%@$*:3<:,3,::<3334<==<433<<::<<,;*$@%=====:<<<:;*%%**=::==*%%%@%:=%++@%::*@$%&%%%===%*%%*:,<<::=====$@@%=<4<,,<<<<<<;=:<343<;:<<,,3<=#@$*,3<;=*%%*;:;;:<=&==*%==%$$$$%==%=:,===::=**===*===;=*%%*%%*=::=%=::=%==%@$$$%*%%*==%%%==:,:=%%:::<3<==%%:<<:==;:==,3434,;=<3<<<<,,<<:=%%%%*;;;=:<343<=======::====*%=::%%%%=:,=%**====:,:===*==::::;==::::==;,24<::<333<:=:<334<:**;<,:::;==%@@$@@@=,3443,=:<443<=%%**%$%%%$@@$%=;**;<:=%=;:==*%%**",
":=====*%%%%===%=:<=*=;*%%@@$%&%%**%@%;<3343:=:344<;%@%%$$*;::,<4444:=;<,*;<43<:*=,33<,==-:<,;%$%=====%%%*==,=*%=*%$%=<;%+XX$,,*@%%%==;:=%%%%%&;<444<,;=%@@@$$%=,<<<<:::<,==,<<<<:===<:==:<<;::=:<4<<:$%%==;=$@%====*===$@@@%=;=;<,=%%*===**===%%%%%%=::=%%*=;===:<:=;=%$%%%*==*==:*%%:;:,:;=%=:::<<=%$$=<3;;:4<:;<3333,%:<4<<34<<3,=%$@@@@%=:,<443<=*%%***:=*=***%@%,=%XXX%::*@%%%%%*==*%=%%%;<443<:==%@++$%=:33343<::<<:=:<<3<:=:<<;=<<:#@@%,<<===%%=:<:;;;%%==%%*=*$$$$%==%=:,===:;=%%=:==****=*%%%%%*===%%=::=%==%@@@@%=%%==;=%$%=;::=%%,<<<<:=:;=<2<==:<;==,2333,;=<<,;,3443,=%%%$$$*-:,<334<:=======:;=====%=::%$$$=:<=%**====;;======:<444<:===**%%*-,3<,<33333:=:<333<:==;,:=**%%%@@@@@@@=<4443:=:<<344:*@%*&$$$@@@@@%=;==:<;*%=::==***==",
",;=:===%%%%===%=:<:==:=%$@@$%%%%**%@%:3344<:=:3443:%@$%$@$%==;::,<,==:<:*:<33<,;=:<3,;%$%*==*%=:<<<:=*%%%%=:=**=*%$$=:=%XXX@==%@%%%%*=:;*%@$%*;<333<<<:=$@@@@%=<<<<<:==:;*;<<<<<,;==::==:<<<<<=;,443:$*=;==*@@%===*%%==%@@@%=;;,<,=%%===***%**=::======%%%%=:=*=:<<=;=%$%%%==*%*=;*%%==;;:;=%;<<<<,;==%:<<=:<3:;;<3333,*:<3::<4333:=$$@+@%;,<<3443<=*%%%==:=*=%%*%@$=%@+++@%%%@%%%&&==:=%%%$$=<333<<,:;%@@@$=:33343,;;::==:333<<;:<<:=:<,%$%=:<,;<;%%===--=*%*==*%*==$@@$%===:,:**=:=*%==:;=%%**=%*=%%*=*==%%=:<;===%@@@$===*==;=%$$===;==%<344<:=<<<<3<=;:,==;,2333<:*;:==,3<3<<;%%%$$%:<<<<<<4<:==*%==;:======%%==%$$$%==%%*=====::=======<4443<<,;*%$%*=:<33<3<<<3:==<333<,=*==*%%==;=%@@@@@$:<3<<,=*=:::<4:*@*=%@$%$@@@$%=;=:<<=%*;:;*****==",
":==:===*%%==;-%=:<:;=;=%$$%%$%%%==%@=<4<<<::=:<444:%$$$$@$%=;;===;==;<<:*<<<<<<<:,<<;%$@@@%==;,<33<:*%%%%%=:==**%%%$%=%@+o+@%%%%*%%%%=::=%$$%=:<333333<:*$@$%=:<<<<<,=**==:<<<<<<:======,<334<:;:344,%*;::=*@@%===%$%=;*$@@%=;:<3<=%==;=***%**=,::::=**%%%%=:=*=:<,=;=*$$%&==*%*=;=&%%=::::;%:344<::,,;<3<=;:,:;:<3223<==::=:<4333,;&%@@%;<<333443<=*%%*=:<:==***%$@$@++@@@@@@$%%%=*=::=*%%$%;<333<<<<,=%@$%;<34433<;===*=,4443<;=:,:=:3<:=;:=<<,3:**;;====%%*==*%%==%@@@%===:<:**=:==%========;;=*******==%%=,4,;==%@@@%;=*%*;;=%$@===::=*<474,::34444<===;==:<3444<:====;<3<<<<:=*%%%=<<3<<<<4<:==**==::;=====%%%%%$$$%%%%%=====:,<:=*====<4444443,=%$%*=:<4444,:,<:==<333<<:=**%%*;:,,=%@$$%*,<<::;=%*===:3:=$==%@%%$$$$$*===:<<=%*::;*%***%%",
":==;*%**%%====*=:<:;=;=%$%%%$%%%==*$=<4,:;===;<444,=%$$$@%=:,::=%*=;,3<;*<3<:<<333<:*%$@+@%:,<<333<:%%%$%=:<;=**%%%$@$@++@@@@@$%*%%=%=,:=*%%%=:<343333<<:=%%=:<<<<<<<:=%*=<33<<33:;=%*=;<33443,=:<43:%*;<<:=@@%===%%%=:=$@@%=;::<<=*==;=*****=;<:=,:=%%%%%*=:=*=:,:===*$@$=;;=*====*%%=:<<,;*:344<::<4<44<-====;<33<<4<=**=%;<333<<,:=%*;<<<333333<;=**==:<:;==*%=%@@XX@@@@X+@%%%%==;,<;=*%%%:<333<<<3<,;*&=<333333<:=**=:<44433:=====:34<<<,=,334:==::;:=%@%===*%%===@@@%*==:<:=*=:=*%==**=;<::<=*%==*%*==*%=<4<:==%@@$*:=%@%=;=%@@*;:<:==<474::,44444<:*%*=:<344443<;**=,<<<<<<<,:==;<33<<<<34<:==*==;:,;=;===%%%%%%$#@@%%&===:;:<3:=*===:<44444443:=%%*=:<4444:=;,;=:<333<<<:=*%*=:,<3:*@$$%;<<:==*%%=====<:=%==%$%%$$$$$*==%=,:=%*::;=***%%@",
"::;;*%%%%%*=::=*=<:==;=%$%%%%*=%===%;<<:=;=*%=:,<3<:=%$$%=<333<;==:<33<:&,<,=:<333<,=%$@@%:<<<<333<:=%%%%=:3:;==*%%%$$@@@$@@+@%=*%%==:<,=*%%%=:<343333<<<,:,<<<<<<<<<<:==:<33<,,<<,:==:,<33444<;;,3<:*%;34<=@@%====%%=:*@+@%=====:;*%=;=%****==:==::=%%%%%*=;*%*::=%==*$@@%;:=%=;==*%%=<44,==:474<;<34444<:===;,4443333<;==;,<333<<<<,:,<<<<33333<<===*=;:<;*%%%%=*%@+@@@$%@@$%%%%%*;,<:=%===:<3333<<3<<<<<<<3333333<:;;:<444444<:;==;,34443<=,34<:==:<<<;%$%====*=;;=@@@%*=*=::=*=:;=%*%%*;:<=:<:=**%%%===*%=<<:===%@+$=:=%$%===%@@;<33:=*<44<::<444443<:==:<<<<<343<:*=:<3<<<<<<<<<<<433<<<<33<:-====:,<:=;====*%%%%%%%%%%*=====:<4:;====:<44444444<>:;:,<34444<=%**=<<333<<<<,:=====:<<=$@@%:<<:===%%=::====*%=*%$%%$$$$$*==*=::=*=;:==%%%%%*",
"====**===%%=::=*=<:==;=%%%%%%==%*==%=,,::,:=%*=;;<3<=%$%*:4<<<3:=;<333<:*====:<333<<:=***=,<3<33<<<,=&%**;,3:===*%%%%$@$%@$@@$%*%%%==;<<;****=:<343333333<<<<<<<<<<<<,;===:<<:==:<<<,,<<<<24433:=:<:=%%=<4<=@@%====%%==%@@@%*==*=:;=%===%%%%*%*=::>;=%%%%%===**=,=**==%$$$%=;=%====*%%=,44:==:343,;<444443,:::,<43<,<<3<:==:<<<33<<33<<<<<<<33333<<=====:,<;***%%%%%$%%%@%%%%%%*=*%%=,<,;====:<<<33333<<<33333333333<,::<34<<<<33<:;::<44444<::<43:==:<4<;%%%====%==;=@@@%*=*=;,=**;;=%%%%%=:,=;::=***%*===%*;,:====%@+@*:=%$%===%@@;343;**:<4:;:44444443<<,<3<:=;,<<:=&=:<33<<3333444443333<343<:=====:<<:=;====****%%**%%*======:<4,:=;=;:<444444443<<<<<344444<:===:<3333<<<<<:======:<:*$%*;<<:=;=$%=::;=%%%*==%$**$$@@@*==%=::=%*====%%%%*=",
"**%%%=;;*%%=::=*=<:;=;=%%%%%*==%===%=;:::<:=%%===<<<=%%%=,<::<4:;:<3333<=**==<3333<<<,:::,<33<33<<<,=====:,<:=%*==%%%%%%%@%%%%%%%%*=%=,<:=;===:<34443333333<<<<<<<<<<:===*=::*%=:<<33<<3<<24433:;=,:=%%=<4<=@@%====%%*=%@@$%%====::=%*==*%%%%%%=,<<;*%%%%*===%*;,=*=;=%$%%%==*%====*%&=:43:**:<4<::<4444443<,<344<:=:<<,;==:<<<33<333333<<<<<<<333<==;::,<<:===*%%%%**%%@%**%%&*===*;<<<:::;=,<<<<3333<<<<<<2333333<<:;;:<<,::,344<:,<4444443::,43:=*:<4<=%%*====%*==%@@@%*==*;,;=*===&*%%%=:<::;===****===%=::=*=;*%@+@%;=%$====%@@;34<=%*=<<::<7774444444344<:===::=**=;<33<344444444433<<<344<,==:::,3<:=====%*===%%=======::;=:<4<::::::<334444444443433444443<,:,<333<<<<<<<:==;:==;<<:*===<<<::=$%=::;*$$%*==*%==%@$@@%==*:<:=%%====*%*===",
"==*%*=:=%%%=;:=%=<<:=;=%%%%%===*===%%==;:;;=*%:<:<<:=%%%:<,=:<4:=:<3333<<;=;<<33333333<<<3333333<<<,=*=;;:<<:=*;;=*%%%**%%*==%%$$*===;<<<<3,::<<34443333433<<<<<<<<<<:=::=**%%=:<<3333333334444<:=:;=%%=,3,=@@%====%%%=%@@$%%=;;=:,;%%=;==**%%=,<33:=%%*====*$%;<:=;;*%%%%%========%%%*:4<:*%=:4,:,44444444444444<:=*=:=*%**:<3333333333<<<<<<<333<;=:<<333,;===*==**=*%$%%====*==::,<<<34<<<<<3333333<<<<<<<333333,;=%%*===*=:34444444444774<::3<;%%;<4:=%%%====%*==$$$%%=;;=;<:=%=====%%%=:<<<;%*=**%%===*=::===:*$@@@%==%$====%@@=<3,=%%=:,=:3777447477444443:=%=**=::=:<44444444444433<<<<443<:,<<<<44,;=====*=:==%*==;::;;::;:<44<<<<,,<3344444444444444444443<<<343<:::,,<<:==:<:==<<<,<:=:<44<;$%====*@$%===*%===%$@@%=;;,<:=%**====*%=*%",
",:::====%%%=;:=%=<<,=;=*%%%*==%%===*%%=;;=:;*%>3<<,::;==<<:=:<<==:33333<<,:,<<33333344333<<<3333<<<<:::<<<3<:;=:==*===*%%$*==*%*%*=;:,<<<<3<<<<<343333<<333<<<<<<<<<,;=:,:=%%=:<33333333<<<34443,==;=*%=:<,=@@%*===%%%=%@@$$%=;;;:,:%%=;=*%%%==<334,=%%%%*==*%=:<:=;;*$$%%%***====*%$%*:4<:*%=:3::<444444444444443<:=*%%====;:<3333333<<<<<<<<<333<<<<33333<<:===:==*=*%%%%**==**=,<<<<<343<<<<<3333333<<<<<<33333<:=====%%*;:<34444444444474<::<:=%%=<4:=%$*=====%==%$$%%*=:=:<:*%=====*%%=,443,=%%***=:=%%=::==;:%@@@@%*%%%====%@$=<<:*%%;::=<4777444444444444<:=*==:,:;:<44444444444433<<<34443<<<<<<34<,:======:=*%**=;::;=:<<<3443<333<<33444444444444444444<,:;;:<<:===:,<<,===:;==<<<3<,=:<44<:$=;:==%@%*===%@%==%@@@%=;:<<:=%======*%%=;",
",::<;=%*%%%=;;**=<<:===%$$%=;=%%====%%*;::,:=*,443,;<,,:<<:=;::==,<<<<<<,::::<33333344333<<<33333<<<<<<33333<,::======%%%%*==**=**=:<<<<<<<<<333343333<<33<<<<<<<<33,;=;:<;=%;<333333333<<<33<<<,;==;=**;<<=$@$*===*%%=%$@$$%=;;;:<,=**==*%%*==<334<;%%%%%==**:<<:=;=%$$%%==*%====*%$%=:3,;=*;,<:,44444444444444443<:%%*;:===:<33<<3<<<<333<<<<<<33<33333333<<===:=****===&%%=;==;<<3<<<34333<<<3333333<<<<<<<<333<:==::;%%*:<3334444444444744:;::=%*=,4:=%%*=====%*=%$$%%%=:=:<:=%*====*%*;<4442;=%%%==:=%*:,,;;;=%@@@$%=%%*====%@%;<<;*%=;:::<44774444444444444<;*=:<:;=:<44444444444433333333333<<<<<344<:==;===========;::;:<44444333444333444444444444444444<:====;;====:<<<<;=====:<3343<:;,44<:%=:<:=%+%*==*%@%=;%@@@%==:<<:=%=;==***%%=:",
";==,:=%%%%%===**=<:=*==%%@%=:;======%%%:<<<:==,473,;<3444<:;====:,:=;:<:=*%%=:<33333443<<3333333333333444333333,;=====%*==********=,<<<<<<<<<<<3333333<<33<<<<33<<<<<:==;<:==,<33333333<<<<<<,:::;====**=<<=%@$%====%*==%$$@$%===:<<:*%*==%%*==,<3<:=*******==,3<;=;=%$$%%==*%====%%$%=:2:;==:<;:<444444444444444443,*%=,:=%=:333<<<<<<<<<<<<<<<<<33333333333<;=;:=*%%=;;==%%=:=;:<<<<<<343333333333332<<<<<<<<<3<<:*%:<,=%=<33334444444446444<;=::===:4:=%$%====*$*==%$$$%=:=:<<:%%====%%=:<444<:==%%===**=<<,:;=*$@@@$==%%=:;=*$$%:<,=**=;=;,<<<4444444444444443,=;<<;*=:<43444334444333<<<33<<<<<<<<<3443<=======;:::===::::,<44444434444433444444444444444443:;;::=%%=;,<<<<<<,;=%%=<<3444<:;:<4<:%=,4<:*+$*==*%$=;;%@@@%===:,,=%=;-=*%%%%=:",
";=;::=%%%%%===*==,====*%$$%=:=*%====%%%;<4<:==,47<:;344443<:==;:<<:=%===%===*:<3333333333433333333333344443333<<::::=%*=====%%=;;=:<<<<<<<<<<<<3333443<<33<<<<33<<<<<<::,<:==:<333333<<<,<<<:===**%%*%%%*<<:%@@%=====*=:=*$@@$==;:<3<;*%;-*%*==:<3<;=*****%%*:<3:;=;%$@$*=;=*%*===%$%==:2:=*=::;><<34444444444444443<=%:<<:=:<33<<<<<<<<<<<<<<<<<<333333333333,:,,:=**=;;;==:<<<<<33<<<<34333333333333<<<<<<<<<<33<:==,<<==;<33444444444447443<:=::===:<:=%$%*===*%*=;%$@@%*:=:<3:=%*==%%*==:<44<===**===**:33,:;=%@@@@%==%%====%@$*:<,=**==%*==-;:<443<344444444<:=:<2,::<443444334444333<<<33<<<<<<<<<<343<::::;==;:::;=:<<<<<344444444444444444444444444444443:==:,,=%=:<<<<<<<<<:::,<<<344<,;;<<:=%=:44,=@%%===%@*==%@@@%==*=;,=%%==*%**%%==",
"::>,=%%%%%*===%=;,=*==*%$$%%==%%====%%%-<4<:==,37<::444443<,::,<<<,:=%%%=;;=*;<33333333334333333444334444433333<<,<<:=======*=:<,,<<<<<<<<<<<<<3333443<<333<<<33<<::<<<,<<,;=:<3<:::<<<<::<:=*====%%%%%%%:,:=$@%*======:;=%%@@%=;:,<<:=%===%*===<<:==*%%%%%%=:<<:;==%$%*=;;=***===$$%=;:<:*%=====:::,<44<<<344433343<=*:<<<:,<<<<<<<<<<<<<<33<<<<<<<<<33333333<<<<<::==;;===,<3<<<33<<<333<<3333343333<<<<<<<<<<<<<<::<3<==:<33334443<,3464<::::==;;==;<:;*%%%====%*=:=*%@$%:=:,4<:***=%%**=:<33,==*%===%&=<4<:;=*$@@@%=;=%====*$@%=,<:***%%%%=====:33,>3444<<<34<:=:<3<,<2<,,3444444444443<<33<<<33<<<<<3443<<<<:;=::::;:<<3333444444444443444444744474444444444<:=:<<=*=<<322<<<33<<<<<<<3443<;=:<:*%*:44,*@%%===*@%==$@@@%==**=,;*%===%%*%%*=",
"<<<<=%%%%*===*%=:<====%%%%%%==%%===*%%%=,4<:==:<4::,4444333<<<33<<<<:%%%:,;**;<33334433333333333444334444433<3343223<:;;=====:<3333<<<<<<<<<<<<<<33333<<333<<<<<<,==:,,:,<<;=:<<:*%*:<<<;;:;==:<<:=*%%%%%=::=%%$%*====*;===%%@$%===;;:;%%*****==:,=**%%%%%%*=:,,:;=%$%*;;;======*%$$%*;:,=%%=*%%==;==:3<,;,344<,:<<<,==:<<<<<:::<<<<<<<<<<3<<<<<<3<<<<3333333<<<<33<<:======<333<<3<<<<<33<<333333333333<<<<333<<:,<<<333;=:<<,:,<343,=:34<;=====*=====::;=%%%*===**=;:;*%@%==::33,=*==%*====:<<:==*%==*%=:<3<:==%@@$%=;=%*====%@$%=<,;%%%%%=-:::;=;,<::444<===,3<:=:<<:,<<:;:<4444444444433333333333<<<<3444333<<,:::::::344444444444444443444444444777444444443<,:<43:==<3333<<33333433<<3444<:==:=%%%;<4:*@$%===*$%**$$$$%=:===::=%*==*%%&%*=",
"<33<:=%%*====%%=:<;=;=%%%%%%==*====*%$%=:4<;%%=<4::<444433333333<<<<,*%=,<:**:<33334433333333333444333444433<<3443343<:;===;,<33333<<<<<33<<<<<<<33333<<333<<<<<<,;=====;<<:=:,:%@@@;<<<:====:4444<:=%%%$*:,=*%@%%*===%==%=;=%@$%=%%%::=%%%%%*==;;=*%%%%%%%=:=====%@%=;;;-=====*%%@%**;:;%%%%%%*:<<,==<<:=<444:*%=:,,==,<,::;=*=:<<<<<<<<<3<<<<<<3<<<<3333333<<<<33<<:=====;<333<<3<<<<<33<<333333333333<<<<333<;%==:,<23:;:<:=%%=<44<=;,<===::=%%%**%*;::=*$$**=====::::=%$%=;;<<,===***====;<:-======*%:,,:::=%@@%%**==%*===%%@%*;<:=%%%%=:<444<:=;:=:443:$@$=<<:=:<<==;===:<44444444444333333333<<<<<<344433<<<<,::::::3444444444444444444444447777774444443<<<34443,==<44444333<<<4433344443<:=:;*%%;<<:%@$%====%%%*$$$$%*::;:,:=%*=:=*%%%=;",
"<333:=%%%%==*%%:<<;=:=%$%$%==%%===**%$%=:4,;**:<<::34444<<3333333<<<<=*=<3<,:<<<<<3443<3333333<<333<<<344433<<<333333<;====:<<<<<<<<<<<<332<<<<<<33333<<333333<<<<:;=====:,:=;=%@@@*,<<<;===:<3<34<<:=%%%%=::=%$$%*===**%%===@$$%%%**==%%%%%%**==*****%%%%%*=*%*=%%@*-:========%%@%%==::=%%*%=;<<444:::,:;<444,*@$%=:==,,:=====-:<<<<<<<<<<<<<<<<33<<<<<33333<<<<<<32:=%=*==<333<<<<<<<<333333333<<332<<<<<<333<:===**;<4:;;;*%@%;344<=;::=:<3<<:=*%*%%*::==%$%%*=====:;;:=%@*==*==:=%%%&%**==::==***%%%=::=%*=*$$$==%%*=%====%$@%=:<=%%%*=:<44744<:===:444<=$@$=:;=:<:==;;;:<3433444444444334444333<<<<<3343<<<<<<<:;;=;:444444344444443444444444444444444444<;==:,<33<==<<<,,,<33,::34444444443:=;;=*%=,3:*@@%====%%%=%%$%%%=;::<<:*%===%%&*=:",
"<33<:=%%%%==*%=,<:;=;=%$$%%==%%====%%$==:4:===:,::<44444<<<<<3<<<<<<<;=;<3<<,::::<3333<<333<<3<<333<<<344444<<<43333<<==*==:<<<<<<<<<<<<333<<33<<333<<<<<<<333<<<,:======;:;==*%@@%=:<,:====:<<:<33<<:==*%=;:;=%$$%*===%%%*=*@@@@$%*==%%%%%%%**=*%%%**%%%%%%==*%%%$@%=;***====%%$$%*=::;=**==:<44444<::,:;,<44<=@@%%===,:======;><<<<<<<<<<<3<<<<33<<<<<<<233<<3<<<32:%$%%%=<3333<<<<<<<33<<33333<<2332<<3<<333<:====%=:3:==*%@@%:343<=:::;<44443,=**&%*::;=*%@%%*=======:=%@%*=%%==*%%%%%*=**====*%%%%%===%%%%%%$%==&%%*%==**%$$*;,:=%%*-:3444434<:=;=:343<=%@$*===::====;=;,<333344444444334443333333<<3333<<<<3<,===*=:333343344444443444444444444444444444<=*===;<3<;;<>;===:<3,;:<4443343<<<:;====*=:3:*$@%====%%*;=%%%$%=;;:<<,=%*==*%&==;",
"<3<<;=%%***=*==<3:==;%%$$%==*%%====%%%*;,3:===::;<444444<<:,<<<<<<<<<;=:<<<:;=*%;<333333<<<<<33322<<<3444444<<344444<<=%%%*;<<<<<<<<<<<<333<<333333<<<3<<<<33<<<,:=****===;=%%==%$%==;;==;:==::=:23333,;**%*::;%$@@%*==%%%%*%$@@@@$%==*%%%%******%%%%%%%%%%%*==%$@@@%*=*%%===%$@$%*==::==*%*:<4443<<<,:<,=;:<<,=%$%%%%=:===;;===:<<3<<<<333<<<<<<3<<<<<<<<233<<<<<<<<=%@%@$*<3333<<<333333<<<<333<<233333<<<<<<<:=;::==;<;=%$#@%=:<<,:=::::<<<4444<=&*==;::==%@@%%===*%*=:=%@$%%==*%%%%%%*==*%%*=*%%%%%%%%==*%$%%%$==%%%%****%%$%=:<=**=;,34444:;:,;=:-=:::;=$$*=%%*;:=====**=:<3334444444443333<33333333343333333<:=%%%*;333333334444444444444444444444444444<:-;=**:<<;;:=%@@%:<<,;;<4443<<,:=::=====*=:<:=%@%====***;;=%$@%=;;:,3<;*%===***==",
"<<<:=*=*%**%%=,43;===%$%%=;=*%&===*$$%*;:<=*=;;;;::::<44,;=,<<:====:<:=:<,=****=:<334433<33333332<<<<3444444<<334444<,*%$$%=<<<<<<<<<<<<332<<3333333<33<<<<33<<<,;=**&&%%%=*%===%%%%%%%%%=,;=*%%:<3333<:=%%%=::=%@@$%%%%%**%$%$@@@@$$*===***%%%***%%$$$%====*%%@@@@%%%%%%%=%$@@@%===::=*%*=,<3444<:,<,:<<=**===*%%*=*%*=====**==:,<3<<<<333<<<<<<<<<<<<<<<23<<<<<<<<<:=%%%%:<<<<3<<<333333<<<<333<3333333<<<<<<;=====;==:=%%*%%%%*==*%=:<:::,:34444<;=**=::;=*%@@$%*==%%==*%@@@$*==%%%%%%%==*%%*==*%%%%%%*==%$@$$@$%=%$%%**%%$%%=::;**=:<34444<;===;:<=%%====%%*:=*%**%***====:<333333444433333<<33333333344444433<<;%%%=,333333344444444444444444444444444444<;-;;;=:,<;==%@@@=,4<:=;<4433<:==*==*%*==*=-<:=*%%%===**==::=%@@%=;::<<<=%%===**==",
",<,;=*%*%%***=<<<;==%%%*=::==*===*%@$%=:,:=**==*==;;=:<3:==<<<:*$$%=::=:<:=%===*:<444333333<<3333<<333444444<<3344443<:*%%=:<<<<<<<<<<3333<<<<333443<33<<<3<<<<<<:===**%%%%%%=%%$%*=====*=:,:===:23444<,=***%=;:=%@@@$%%%*=%%%$$%*%%@%*=====%%%***%%%$%====%%$$%%$@%%%%%%%%@@@@$%==::=*%%=:<44343,=::::<:=%====*%%%**%%*%%%%%*==;,<<<<<<333<<<<<<<<<<<<<<<<<<<<<<<<<<<:=%=:<<<<<33<33333333333333<<3333333<<<<<===*&%=%%=%%%*%%%%===*%*:<::::=<44443<:*%%=::;=%$@@@%%=%%**%%%@@@%%**====%%&=**====%%%%*====%$@$$$$$%%=%%%%%%$$%=::;**==:<444443:===:<:=**=;;;*%%===%%%%%**====,<333333444433<33333333333334444444443,=%=:<44333334444444444444444444444444443<:====;=::,=**$@@%=:<:;=:<433<<===;:;=*%*=*%=<:;=%%%*======:::=%$$==;::,<:=%=======",
":::=*%%%%%%%=::::;=%$%=;;:;======%%@%*=::;*%**%%==::==:<==:<<<<*@@@%===:<======*;<3433333<<<<3333<<<33334444<<<3433333<:*=:<<<<<<<<<<<333<<<<<33344333333<<<<<<<<,;==*%%%%$%%%@@@@*:,:::===<<,:,<33334<<:::=**=::=%%@@@#%%=%%%$%*==*%$%%*=;=%%%%%%&%%%%=;=%%@$%*=%%$$%%%%$@++@$%==::;*%%%;<444333,===:,:===::,:*@@%%&%%%%%%%%=;=:<<<<<<<<33<<<3<<<<<<<<<<<<<<<<<<<<<<<<:*;<3<<<<33333333333333<<<<<2333333<33<<;=;=%%%%%%%%%%%%%=;::;=%;:,;===<444444<=@$*=::;=%$@+@$%%%*%%%%$$%$$%*===;=%%***==*%%%*==;:=%$$%%%%%%%%=**%%$@@%=::;=%==;,3444444<::,<<==;:,<<:%@@$*=%%%%**==;;:<3333333444443<<3334433333333333333444<:=:<444433333444444444444444444434444433:=========;*%%%$$%==:=*=:<333<:*=:<<<,;=%**%%:::=*%%%*=====;;::=%@%=====;:=%%%***==",
"====%%%%%%%%=:%%*;*%$=;:;;=====*&%@$%==::%%%*%%=:<44<:;,===,<3<;%@+@$*=:,====***=:<433333<<<<333<<<<3<<34444<<<44333333:=;<<<<<33<<<<<3333<<<<<3344333333<<<<<<<<<:==%%%*%$$%$$$@@%;<<<<:=*:<44333333434443<:===;::;*@+@@@%%%%%%%=;=%*%$$=::*%%%%%&%%%=;=%@@%=;;=%%%%%%%@XXX@%*=:<:=*%%=:<3444334<:==:,===:<44:%@@%%%%%@$%%%*==;,33<<<<<<33<<<3<<<<<<<<<<<<<<<<<<<<<<<<:=:<<<<<<33333333333333<<<<<2233332<33<<:=-=*%%%%%%%%%$@@%:34<:==;,:=*;<444444<:%%*==:::=%$@XX@%*=%%%%%*=*%$$*=::-=%%**==%$%%=::;*%$%===*%%%%==%%$@@@%=::;**=::<<444444444442>=;,444<;%@@$%*%$%==*%=;:<33333333444443<33334443333333333333344<:=:<444433333444444444444444444433444333,:;;%%*%%%%%*==%%$$%%%%=:<333<:=,44444<:*%==*=::==%$%%*=======:;*@$%==%%%;=*%%%%%*=",
"*****%%%%%$%*=****%$%=;;=======%%$@%*=:::**%%=;,34443:::;=*=::;=%@$%%%%==%%*%%*==:<43333<<<333333<<<4<<34443<<<44333443:=;<<<<<<3<<<<<3343<<<<<2343<<33<<<<<<<<<<<,==%%%%%@$%=;:;%%=<<<3,=%:<443333<<<,:>:<<<<:=====%$@@@@@@$$%%%*==%=*%@%=:=%%%$%%%%*==%$$%%====%%$@@@@XXXX@%==::==*==::<34443333<,<<:==:<443=%%==;=%$@$%%$%*=:<3<<<<<<<33<<<<<<<<<<<<<<<<<<<<<<<<<33<:=:<<<<<<<<<34333<<<333<<<<<2333332<3333<:=*%%*%%$%%=:;=%%;344<:==:,::<34444443<:==*%=;::;=%+XX+@%%%%%%==;=%%%%=-:=%%%***%%%=;:=%%%%*;;=%%%%%%%@@@@%*=::;=;:<<<<4444444444473:=:<443,**=::;=%$%==**==:333344334444443<<33344443333343<3<<<344<:=:<444444333444444444433444477444444444<:::=&%%%%%%%%%$$%===*%%=:<33<:=<3<<343<:=====:::=*%$%%=====**;=*$$%%%**==*%%%%%%*=",
"*%%%*%%%%%%%%===%%$$%*==%%*===%%$$%*==::==**=:<3443<<,:::=%%%*%%%$%**%%%%%%%$%*==:<33<33<<3333333<<<3<<34443<<<43333443>=;<<<<<<<<<<<<3333<<<<<2343<<33<<<<<<<<<<<<==*%%%$@@%;:,<:=*:,<<:=%:<43332<,:;=*=*;,33<:=*%%%@@@@$%%$@@$$%%%%**%%%%==*%$$%%%%==%%$%%%%**%%$$@@@@@@@+@$%*====;:;;;::<4433344443:==,344<=%=:,<:*@@$%%%%*=,<<<<<<<<<32<<<<<<<<<<<<<<<<<<<<<<<33<3<:=:<33<<<<<<44333<<<33<<<<<<2333<<233333<:=%%%*%%@%=:<<,=%=<344:==:<3343444443<<::;=**=;;;=%+XXX@$%%%%%*=;===%%%*=;=%%%%%%%*=:=%%%===;=*%**%%$@@+++%=:;=;:<34<,:,,<<<44444473:=,34<<:%;<<<:=%$%**====:433433334444443<<33344443433343<3<<<344<:=,34444343344444444444334444474444444444<:;=%%*%%%%%%$@@%:::;=*%=,33<:-,<;,<444<:;====:::=*$@$%*==*%%==%$@$%%%==*%%%%%==*=",
"==*%%%%%%%*%%==*$@@$%%==%%%==%$@@%===;:;=*%=:<4444<:<,:::=%%%%%%$$$%**%%%$$%$%==:<33<<<<<<3333<333333<<44443<<<33334444<::<<<<<<<<<<<<<<3333<<<<3443333<<<<<<<<<<<<;===*%@@@%==:,<:=:;;<:=*:<33332<;%@@@@@%=<333:*@@@@@@%===%$@@@$%%%%%%=*%%**%%%%%%%=%%%%%%$$$$@@@@@$%%%%%@@@@@%=:<<,=%@$*:<334444443:==,<43<==::,,:=%@@$%%**=:<<<<<<<<<32<<<<<<<<<<<<<<<<<<<<33333<3<:=:<33<<<<<3443<<<<<33<<<<<<333<<<233333<:****%%@@%=<344<=;<<3<:==:<444333444<;=*;><:;=*%%%@++@@@%$@@$%**==*==%$%=;;=%%%%%%=;=%$%======***%%$@$$@@@$%**=:<443:*%%%=::<4444773:=,<<:::;<4<::=%$$%*=;;:,3344<2334444444333334443343<333<3333444<:;<34444333344444444444444444444444444444<:*%%%=*%$$%=%$@%:<<<:=%=:33<:=:;%;<44444,;**==::;=%@@@%*=%%%=*%%@@$%%%==*%%%*%***",
"==*%%$%%=====*%$@$@$*%**%%*=%@@@$%==;:==%%=:<44443,;<:::;=%=;:,=%@@$%%%%%%%%@%*=,<33<<<<<<3333<<33333<<34443<<<33333444,;=<<<<<<<<<<<,:,<<33<<<<3433333<<<<<<<<<<<<,:===%$$@$*===:<<<;=;===:<33333<=%@@@@@@%:<3,=%$***%%*====*%@@@$%%%%%***%%%%%%%%%%%%*=%%$$@@+X@$%==;==*%%**%$$*:<<=%@@@@%=,34444443:==;::<4,::::;=%@@@$%*==:<<<<<<<<<<33<<<<<<<<<<<<<,;=;:<<33333<3<:=:<333<<<<3<<:,<<<<33<<<<<<<3<<<2333<<33<:===%%@@$%=:<34,<<<::===:<4443333<:=%@@%=,<<:*@@@@@@$%&==%%@@@$%%%%%*==*===**%%%*=*%%**&%%%=*%$%%*%%%%%@@@$@$=<443:=$@$@@$=<7444773:=::::,3<<<;==*%%%%*=;:,<33<<<<33444333433333444432<::<3<3333444<,:<344443332<,:,3444444444444444443444444<:*=*%=%$@%;<,;%@=:<<<:*=:33<,===%;<44334<:*%%==::;*$@@@$%****%%%$$$%%$$%====*%%%%",
"****%%$*=;=*%$$%&%%%%%%**%%%@@@@%==::;=%%%:<44334<:====:===:<<<=%%*===%%%%%%%%*;<333<<33<<3333<<33334<<33<,::,<33333444<::<3<<<<<<<<:;==;,3<<<<<34<<<3<<<33<<<>:<<<<<::=%$%%$%==*:<3<:=**=;<<3333<:%@@@@$$@$=::=%%%;:::;-;;====%@@@@$%%%%%**%%$%%%%%%%%**%%$@@@++@%========:::=%@@;::%@@$@@@$=<4333344<;===:34<,:;==*$@$$%%=:,<<<<;:,<<<<333<<<<<<<<<<3,:===;<<<<233<3<:;,<33333<<<,:==:,<<33<<<<33<<<<<343<,:<3<<::;=%@@@%==:<4333<:=**=<3444333<:%@@@@@%;<<:%$%**%%%%====*%@@@@$$%%*===%******%%%%%==*%%%%%%@@%%====*%%%==*%*:<3<=$@@@@@@%:4444444<====:<44<:===%%%%%=:,<333<,:<<444433333333344444<:;==:<344444444<:<44443332<,;==:<4444443334444433334<<<4<,;-==%%$@%=:<<:%=::<<:*=:<<<<,:;;<<443333,======;:;=%@@@@%%**%%%%%%=*%$%%==;=%%%%",
"%%%*%%%=;=*%@@%=-=%%%%%*%%@++@#%*=::;=*%%=,344334<:=%*====:<3<:%%=:<,;%$$%%%%%=:<33<<344<<33<<<<<<344333<:===:<33333444<,:<3<<<<<<<<;*%%*:<<<<<<33<<<3<<333<<,:=:<<<<<<:*$%%%%*=%:<32<:*==:<<<333<=$@$@@%%%$%=*$@$*=:<<,>::;==;=%@@@@**%%%%=%%$%%%$@%%%%%%%$@@@@@%*=**===::<<:=%@X%==$$%%@@+@=:43333444:===<443<:===%%$%%%=;<<43<:*=:<<<<333<<<<<<<<<<3:=====:<<<23333<::<333333<<<:=**=:<<<<<<<<33<33<<344<:=:<3<<<,:*%%$%===:3444<:=*=:<3334433,=@+@@@@@%>:*@%=:::========*$@+@@$%%%===%%%&%=**%%%*==%%%%%%@@$*=;======:::;%$%:,:$@@$$@@@$=<444444<;=*=<444<;===%%%%%:<44443,:=,3444444433<34444443:====;,344444444<:<4444333<<:====,4443333333444434444,:,44<,:;=%%#@%*=:<<;;;=::;*=:<<<33<<<44443333<,,:;===:::=%@@+@$%*%%%%%=:==%$$%=::=%%%",
"%%%%%%=:=%$@$==::=%%%%%$+XXXX@*;:::=*%%=:<44443343<,:::==:<<<<=%=<<<:;%$@@%%%=;,<<<:<3443<<3<<<<<<344<<3:=%**=:<3333444<::<<<<<<<<<<===;==:<<<<<33<<33<<333<<:=%=:<<<<<:=%%%$$%%=:<32<<,:,<<<<333<:=$@@#%=*%@@@@@@@@=<433<<<<<<,:=$@@%==*%%=%$$$$@@@@%%%$%@@@@@$%*==;:,<<<3<:%@@+X@@$%*%%@@@$=:43333444<<,<4443,=%%*%%%%%&=:<34<:=%=:<<<<33<<<<<<<<<<<<==:,:::<3333333<::<333333<<<:;:;==,<<<<<<<<<<33<<<3<,=*=,3333<:=*%%%%;==,3443<<:,<43<<33<<=%@+@%%%%$=%@X@%=:<<::-==****%@@$%%%%**==%%$%**%%%=**%%%%%%@@$*==;==;::<<<;*%@@$%%@%**%$@@@=<4444444<<<34444<:==*%%%%%:34443,=*=:<444444433<3443<<3<;=::=;:334444443,:<3444433<:;:::=;<443333333444444444:==<343<,:=%$@$%==:<<<,;=**%=,<3333444444444332233<<:=*=;::%@XXX@$$%%%%====%=%@@=:=*%%",
"%%%%%*==%%$%%*===*%%$#@@+++++@%=======;;::,<344343<<<<:==:<,<<;=:<,:=*$@$$%==:,<<<:=,<333<333<<<<<<34<<<;==:==:<3223334<::<3<<3<<<<<==;,;=::::,<33<<33<<3333<:=%%=,<<<<;*%%$@@%*=:,3<<<<<<<<<<3443<:=@@@$%%$@@@@@@+@%;34433<<23<<<=%@%*==*%%%#@@@@@@@%%$@$$@@@%=;::,<<<333<;%@+@@@@@@%%%@@@%=,<4433344443334443,=%%%%%$%%%*:<34<;%%=:<<<<33333<<<<<:;::=;:,;;:<<3333<3<:,<333333<<<:;:,;=::::<3<<<<<3<<<<3<:=%&:<33<,==*%%%%===:<43333<<343<<333<:=%@@@%*%$$@@X+@@%:<<<<>::===*%@@$%%%%%**%#$%%%%%%*%%%*=*%$@%=:::::,<<<<<:%@@@@@@$$*=%%@@%=<4444444444444444<;=*%%%%**;<444<;*%=:<4444444333344<::::;:,:=:<334444444<:<4444444<,;::,=;:<<<333333344444444:=*:<443<:;*%%%%===:<<<,==*=:<333<33334432<,::;;;:<<<:;==**%@@@@@%$$%%%%*==%=%%$%=;=%%",
"%%%$%%=%%%%%%%%%%%$$$$$$$$$@@@$%%*=;:::==*=:<33443344<:%*=::,<:,<<:=*%$$%%=::<<3<:=*:<33<<333<<<<<<3<<<,==;,==:<3223334<,:<3333<<<<<:;:,:=====:<33<<33<<3333<:*$$*:<3<,;==%$@@%==;:<<<<<3<<3<<34444<:%$@@@@$@@@%%@++@*,33<,::<3433,=@%%===*%$@@@@@$$%%$@@%%$@%;,,<<<<<<333,%@@@@@@++@$$@+@%=<34443334444444444<:=**%%%%%%%%=<34:=%%*;<<<<33333<<<<:=*==*=::::<<<<233<3<:,<333333<<<:::<:=:===,<<<<<<<<<<<<<:*%%=:44<:==*%%%%===;<3334433333<<3333<:=$@@@%%@+@@@@@@@*:<<<<<<,:::=*$@$%%%%%%%@$%%$%%%*%%*==*%#%=,<<<<<<<<3<,=@@@@@@@@$%%%$@%=<44444444444774444,;-*%%%*==;,444<=%%*;<4444444333343:=====:<,:,<444444443<:344444443<:::,==;:::<<333334444444<=%%=,444<:=*%%%%==*=<<<<:;=:<<343<<333443<:=*%%%%=,33<:=%$$$@@@%%*%%@$$%%*%%*%%%%%==%%",
"%%%%%%%$%=%%%$$@@+@@%=====*%$$@@@%:<4<=%@@@%;:<443344<=$%%%=:<33<:===%%%**=,3333,=%%=,33<<<<<<<3333<::::==::==:<33334443,;<3333333<<<<,:=%%%%%=,33<<<<<<433<<:&@@%=<<<:;;;*%%%*===:<<<<<<<<3<<<3444<<,=%$@@@@+@%%@XX+%=<<:%%*;<<<,,:%%*=%**%$$@@@@%%%%@@%=*$@=<<<<<<::::<<:$@@@%%%+++X+++@=<334433334443344433<;%****%%%%%%=<33;%@@%;<<<<<223<<<<,;**%%%%=:<<2<<<233<<<::<333333<<333<:==*%%%;<3<<<<<<<<<<<:%$@%;33<:===%***=;;=<33344333<<33444444<=%@@@@+++@%%@@@%=<<<<333<233<=@@%%%%%%%%%%$$%%%%*====%%%:<443<<,,<<3<=$@@@%%@@@@@@@$%=,444444444444744443:;:==**=:,;:344:%$%%;<444444433333<;*=%%*=:<<3444444444<:;<444444433<::;*%%*%%;<333334434443,=%%*:<44<;**%$%%%**=<<33<<<<<344333334443<*@@@@@@%=<<3<;%@@%%%%=;;==%@@@$%%%%%%==%%**%",
"%%%%%%%%==%%$$$@++@%=;;;=**===;=%$%:<:%@@@@@%=<443344<:=*%%:<<33,=%%*%%%%*=;<333:*%%=,33<<333<3334<:%%%%%%=:::<<3334443,;=:<333333<<3<:=%%$%=;;<33<<<<<34333<:%@@$=<<<;::,;==%%*==;<<<<<<<<3<<<<343<<<,:;***%$$$$@+++$=<,=%%%%;::*==%%=::=%%%%%@@@%*%%$%=:=%%;::,<,=*%%%;:=@@@@@@@@@@%%%%=,4433433334443444433,;%%%%*%%%====,3<=%@@%;<<<<3333<<<<<:::=**==;<222<<233<,;==:<<3333<<33<:=%%%*==;<3<<<<3<<<<<<:%@@%=33,;;:;%=====;=<3433333333344444443<=$@@@@@@@%%$@@@*,<:;;:<<<333:%@*==%$%==%%%%%%%%*====%%=<333<:=*==<<:%@@@@%%@@@$@@%*:<444444444444444444<:======;:<::<43:%@@%:<444444443333<:::=%&*=:<444444443<:==;<343333333,:==%%==;=<344334334443,*%$%=,4<:===*%%%*===:<<<<<<<<34433333443<;%@@@@$@@%:<,=%%=:;-========*%@@$%%%%%****%%%",
"%%%%%%%%*&%$$$@@@@%*======-::::=%@@=;=$@$%@@@%:<43333<<<:=;,<333:*%%%%%%%**=<<3<=%$%=:33<<34333344<:%*%%%%==><<<<<3444<;=%=,3333<<334<;==*%=:,:<33<<<<<33333<:%@@$=<<:=:<<,::===:=;,<<<33<<<<<<<333333<<<:=*%%%$@@+++@%::=%*==;;=%%%%@%:,;%%%%%@@@*%%$%=:,*%%==*=::*%%%%==%@@@@+@@%%%%==:,<433333<<34333344433<;%%%**==*::;*:<<=$@$*:<<<<3333<<<<<<<,:==::;,<33<<343<:=**;,<3333<<33<;==*%=:::<<<<<<3<<<<<<:%@+$=<<:;:<,=;;==;;=,3433344433444333343<:=*=%$%%$$@@@@@%::=%%==:<<:::=@*;:=%%==*%%%%%%%*==;;*%=:::<:=%%%%:,;@@@@@$%$$%%*==:<3444444444444444444<:;:=;::,<4:::4<:$@@*:<44444444433<<,:<;=*==-<444444443<:===:343333344<:::==:<<:<44433333444<,*$@@=:4<:====%*====-:<<<<<<<344433333443<=%@@@$%$@%=:=%$%=::,,:;======*%@@@%*%%%%%=%%%",
"%%%$@%=%%%%$$$@@@%*====;:,<<<:=%@++%%%%%%%@@@%;<43333334<<<<333<:==*%%%%*=*=:<<,*$@%=:33<<33333333<:::=%*===><3<<<<344:=%%=:333<<<333,=;:;=:<,:<<3333<<333333:=@+@=<<:=:<<<<,::,<::,<<<<<<<<<<3<<3333333<,=%@==*@@+X@@%==**==::;=%%%%@%=,:=$$%%%@@*%$@%:,:%%%%$$%==*%*=*=*$@++@+@%:;%%=:<2333333<<<33333344444<:%*====:::,:*:<<*@@%=:<<<33333<<<<<<:,:=:<<:,<3333444<:=%*;,33333<<33,=:;=*:<<<<<<<<<<<<<<3<:%@+$=<<:;<33<::;::::,<433444433444333333<<<,:=%==%@++@@+@==%$%%%=:;%*==%%:<:%$%==%@%%%%%*=:,;%%=%%*:;=**%%;:=@@@@@@@%%%%;,<444444444444444444444<<<<:,<<344<::<<:@@$=,<4444444333<<<::<:;=::;<444444443<:=*=:344444444<:<<:;<33<344433433444<,*@@@*:4,;=,:=*=======,<<<<<3344434433444<=%@@@%**%%%%%@@$%%:<3<<<:::::;=$@@%=**%%&=%$$",
"%%%$@$%%%$$$$@@$%==:::<<<333:%@+Xo@@@@**%@@@%=,343333334<<<<333<:===*=*=*;==;<<:%@@$=,33<<<33333333<<<:=;,<=:<33<<<344:=%%;<3333<<333<::,:=;===:<33333<333333<:%+@*<<:=,<<:::<<<<<<<<<<<<<<<<<3<33333333<=%@@=::$@+@$%%%%%%%**==;;=*%@@%==*%$$%%$$%@@$*==%%%%#$%===**%%%%%@@++@%*:<:%@@%:<333333<<<333333444442,:===:::::,,=:<<=@+$=:<<<333333<<<:=====:<<:<333334443:=%%;,333333333<::::;::=:<<<<<<<<<<<3<:%@+$=3,::<33<<<<<<<<<333444443344433333<<33<=$@=:;@@@XXX@%*%%==*==%@%%*%%=<,=%%==*$%%%%$%;,<=%$%%%=::::;==*%%@@@@@@$;=%@*:<4444444444444444444444444444<<34<:;<<:@@%:<3444444433<<<:====;:<,:<344444444<:=%=,334444444,,<<:;<,::<44433443444<,*@@@%:4:=;<<:===*====,<<<<<33343344334443<=%@@%%%%%@@@@@@@@=:443333<<<<:=%@%*==*%%%%$$",
"@@%%@$%%$$%%$@%;::,<<<<3343<%@@+@@@@@@%%@@@%:<34433333343333<<4<:===*=**=,:==<<:%@@@=,443<33333333<,::;=:<<;,<33334444:=%%=:<<33<<<33<<<<:%***=:<333333<<<333<<;%%=<,;:,>-===:,<<<<<<<<<<<<3<<<<3333333<:%@@@%;<*%%%%=====%%==%%*====%%$%==*%@@$%%@@@%*=*$%*%%*==*%%*=*%%%%%%$%*;<<;%$@$*:<33344<<<333334444443<;=;;====:,<::,3=%@*:<<<<<333432<<:===*%;<<<33<,::<34<=%@$*;,<3<<<<33<<<,:=====:<<<<<<<<<<33<=#X$;3:::3<:;=:,343333<<343343334444333<<<:=%@@=,<;*$@+@@%%%%%%*===**%%*%%=;=%%%**%%%%$%%=;;%$$%==;:==*&%**%%@$$@+@=,=$@$=:34444444444444444444444444<:==:<<:=<<:@*:<3444444444<<<<:===*=-<<<333<<<<33<:=%%%:<3<<,,<<3<<<<:=;===:<44334334443<=$++%:3:-:<<<,,:=;;=:<<<<<<<33333444444443,=$@@@$$@@@@%$@+@%;344<<<<333<<;%$%===*%%$$$",
"@@$%%%$$$%=%$$=,<<<<<,,<<3<:@@@@$%@@@@@@@@%-<344433333343333<<4,;======;:<<;=,<:%@@$=<443<333333<<:====*:<<:<<3<,,<344:%@$%=:<<<::,<<222<;%*===;<3333<<<<<<223<<==;<:=:::%%%%=:<<<<<<<<<<<<3<<<<23333<3<=$$$@%=<=**===:,,:%=;:*%%*====%@%===*$+@$$@@%;==*$===*===%%====%==;=*%%=;<,=%%$@$;<33344<<<33<<34444443<::::=%%%=:<:::<-*%:,<<<<<333333<,;=;==%=:344<,;==:<<,%$@@$%;<<,:::<<<33,=%*===:<<<<<<<<<<333:*+%:3::,<:=%%=:333333<333<344334444443<<,=@@@#%,<:=%$$%%%%%%%%*=====*%=%%%===%%%%%%%@$%===%%%%=;;:=*%%%%%==*%%%%@%;<*@@@%=<3334444444444444444444444:=%%*;<:=,<>%:<44444444444<<<<:;;;=*=<<33<<:::,<<:=%%$%;<3,:==:<3<<3<;*==*%=<443343344433:%@@=,<;;,<<<,:::,:::<<<<<3333433344444444<:=%$@@@@@@@%%@+@@*,3<:;=:,333<:=@%===*%%$$$",
"$$$%=%$@%=:*%%:<33<<:=*=;<,=@@@@%%@@@@@++@=:3334433333343<<<334:===;;:<<34<:=:<<%++%:<332<3443<<<<=%%%%%=,<<<<<;**;<3<=%@@@%*:,:**=:<<<<:=%::,=;<4333<<<3<<<<333:;;,:=::=%%%*:<<<<<<<<<3<<<<<<3333343<2>%$%%$$*;=**==;<33,*;,<=*==%%=;=%*==::%+X@@+*:<,;=%:::=&%%%*:,:=*:,<;=%%%%;:=%%%$@=,33333<<<<3<<<3444444<,::;*%%%%;<,::<;=:<<<<<<<343333<,:;,<:==:334<=====:<:%$@@@@*::=%%=:<<44:=%=::=:<<<<<<<<<<3444<&=:3;:<,=%%%%;<33333333<<34444444444444,=@#$%%:<==***=::=%%;;=%%%=;==:=%%====%%%%%@+$*;;=%%=;;;=%%%=:=*=:<::==*%=;:%@%%$%,<333444444444344444444443:*%%%*,,=,<<-<444444444444333<::,<:==,<33<:*%%=,:=%%$$$=:3;***=:<334:=%=::==<444444444444<;$@;<<=;<<:===:<<333<<<<<33334433343334333<<:=%@$$@@@%%@+++$=<:*@@%=<<<;:=%*=;%%%%%$$",
"@@%=*%@%=::%%*===:,:%%%%%:;%@@@@@@@%%$%==;,<333443333334<<<<334<<,<<<<::,<<,=:<<%@@;<<33<<3333<33,==:;=%*:<<<,=**==:,:%$@@@@$=====*=:<3<:==,<<=:<4333<<<<<<<<,,<:;=:;=:=%%%*;,<<<<<<<<<3<<<<<<33333443<:%%%%$@%=*=:<;==<<<==:<==;,=%$%%$%=:<<:%XX+%:<<3:=*;;=%*=:==:,;*=:,:===:====%%*%%@*:33333<<<33<<<33444443<<,::=*%%=::;;:==::::<<<<344333<<::,<,:=:<4<:=:,<::;*%$@@@@%=;=;;==:<4<:==<<:;:<<<<<<<<<<,;:,<:;:<;:,=%$%*;<<<<3333333<33444444444333:%@%%%%=;**==%=:<:==;::=%*===:<:=*=:<<=%@$@@$=:;;=%=::====%=:<-==<<,====**==$$%%%%;<433444444444344444474444<:*%%%;:;:,:-,<,<<44444443<<33::<4<:=:<33:==;==:=%@$$$$%=:;:,:==,34<:=:<3<;;<4444444444444<:%;<<;:<:=&%%=:<333<<<<<3334443334333433333<<:==*%%%$@@++@$=,:=%*=*::=%*&%%=::=%%%%%",
"@@%=%%$%:,;%%*%%%=;=%%%%%=*@@@@++@%==%%=:<<<333333<<<333<<<<<3333<<<<:===:<,=:<3=%=<<333<<<33<<3<,==<<:==:<<<:*=;:=;==%@@@@@@===::=%=,3<=**:<<:,<433<<<<<<<<:==;===:=======;,<<<<<<<<<<<<<<<3333333444<:%%%%@@%*=:<3:==:<<==-,;=;<:*%%%@%*:33<;@X@=<<<3:=%==%%=::==::==;::=*=:<:=*%$@%%%@*:33333<<333<<<333444443<<<,:;====;==:**==*=,<33344333<<,,<,::==:3<:=:<<<;*%$@@@@@$=::<,:*:<4,=*=<<,:,<<<<<<<<<<:%%==;==:;;:=%%=:,<3<<<333343<34444333444333;%@*%%@*=*=::==;,,:==::===:===::;=;<33:%@@+@=,<:;*%===%=::=;:<;=:3<:==::==*%@@**%%=<4444444444444444447444644<:======::;=;;==,44444443<<44<<<<:=*=:<<:=:<,::=%@$#@%%*=:<3<;=:<3,=;,<4<::<44334444443<<<,=;:,;:,=%%%*=><3<<<<<<3333343333433443333433<:=%%==%@+++@@%;==*===:;=%%%$@=:,=%$%%%",
"@@%*$@$=::*%%%$$%%==*===**%@@++@@%;,;%$*:333333333<<<2333<<<<333333<,=%%%=:,=:,<;;,43<<33<<33<<<<,;:33<,=;:3<:*:<<,=%@@@@@@@@*;:<<:*=:<:=%%=:<<<<433<<<<<<<<=%%%%%%==%*=:,:<<<<<<<<<<<<<<<<<3333344444<:%%%%@$%*=:33,=*=,<:==:;==<:===%@@%:<3<,%+@,<<<<:*%%%$%;,;=;:===:,:**;,<:=*%@@%%$@*:33333<<333<<<333444443333<<<:::=====%$$@@%:<33333333<<<<<:;=**=<<:=,33<=%@@@@@@$$=,333,=:<3:*%=:,<<<<<<<<3<<<<:$@@$%%*;=====::<<44<<<<33333<34443333333333=%@*%$@%==:<<;==;,:==;::=;<:*%====:<44<=@XX%<33<:*%%%%%:<,=:,,==:<:=*:<<:=*%@@&*%$=<44444444444444444774446444<<<<:=====%%%$%:34444443<34433<:=*%*:<<;;<33<:=%%$@@%%%%:<44:==<<:==:,<<<<34433444443<::::==::;;:%%%%=:<<3<<<<<<3333333334433443333433<:%@@=;*@++@@@$%***==;::=*%%$@%;:=%@$%%",
"@%%%@@%==%@%%%%*====*%%%%%%$@@@%=:<<=$@#%:<3333333<<<2333<<<<333333<,=%%%%=::::<;:,,::<<<<333<<<<<,,3<::=*=<<:*,<<<;%+@@XX@@@*:<<<,==::====%=:<<<433<<<<<<<:%$$$@@%*%%=,34<33<<<<<<<<<<<<<<<3333344444<:%%%$@$%%=;:<<,;=;:=====*%::;=:=%$%=<<3<%@%,<<<,=%$%==*:,===;**=::=*=:,:==*%%@@@@@=,33333334443<<33443344334433<33<,=**%$@@@@%:<<3344344<<<<:==;===:::=<44<=%@@@@@@$$=:333,=:,<=====:<<<<<<<<<<<<;%@@@@@@$*%%=,<<3<3443<<<33333<<3443333333333;%@%$@@%==:<<:=*=<<:*=:,==<,=%====:<343:%X@=34<:=%@%===:,:=:,:=;<<;**:<3<=*%@@$%@@=<434444444444344447744464444444<=%*%$@@$$%=:4444444<34433<==;;==::;:<33<:=*=%@+$$$%:<44:==<:=%***;<334443344444<:=%%%%*=;==*==-::<<<3<<<<<<233333334443344333343<:%$@@=::%@@%%%%=*%%%%%%==;;=%$%%===%$$%",
"@%$@@%===%@*=**==*%*===*%===*%%%=:<,=$$@$=,<3344433333333<<<33333333<:=*%%*=;=;:======<<<<33<<<<<<<<<:===%*::;*,33<=%@@@++@@@%:3<<<==;:=;:,==:<<<4433<<<<<:*%$@@@@@%%*:<33<<<<<<<<<<<<<<<<<<3333333333<:%$@@@%%====:,,;======**%%;;=*::*%%=:<<;$@%=,<<:%$%=;=*-:=**=%%*====:::====*%@@@@@=<33334<34433<<<34333344444<<<443<=*%$@@@@@%==:<344343333<:;:<::;;;;=<44<;%@%%@@@$$=:333<=;::::::;;,<<<<<<<<<<=%@@@@@@@@%$%;<334<<343<<333333<334433333<<333:%@$@@@%===::<:=*:::%*=:*=:<=*;=**=,<43,=@%:44<:=%$=;;=:,;%=;===::==;,,::=%%$@@%@$=<4344433444443444444444744444443:*%$@@@@$%%=,444443<3444<<;,<<:==;=:333<:=*=%@@$%$%;<44:==::=;::-;:<34443343344<:%$@$@%%=%*=:>,,<<<<3<<<<<2333333334433444443333,=$$@@=::*%%**=:::=%===%%*====*%%===*$@@",
"@@@@%;::=*%;:==***%%=::=%;::==*=*=,:=%%$@%:<33443<<333333<<3333333333<:;===*====%$%%%*,<<<<<<<<<<<<<:=======;=*,34<=%@@@@@@@@%:333<====:,<<;=:<<<44433<<<:=$$@@@@$$#%=,<3<::;:,<<<<<<<<<<<3333333333333,*@@@$%=::;==::;=============%::=%%%=<:*@@@%:<<=%$%=;=&==**===***%*=::====:=%$@+@$:<33344<<333<<<<343333443<<:::<<3<:*$@$%$@@%%%=<343333333<:;:<<<,:===,344:=$%%%$@@$=,433,===;,<<<::,<<<<<<<<<,=$@@@@@@@@@$=,<3<<::<<<<334443<<344433333<<333:%@@@@%*=====,:;*===***=%*;:==:=*%*:<43:=@%:34<=*%%:::=::=%*========:::====%%@@@@%:<433333334444344444444444<,,<444<=%@@%$@$%%*;<4444334444<<:<33<:===;<33<:=%%%%$%%%%:<44:===::<<<:;:<3444333333<:=%@@@@@$%%=:<23<<<<<3<<3<<333333333443333344333<:%$%%@%=:=*===:,3<:=;::*%***=;;*%===;*$+",
"X+@@:<3<;==::;%%*;==:,:==,<:====%%==*%*%$@;<44443<<3333333333333333333<<<<:=%%*%@@@$%%:<<<<<333333<,;;:33<:====,343;%@@$%%@@@%:333,=%%=,<<,==:<<<44433<<<:=$$@@@%*%#&:<<<<=%%*=:<<<33<<3<<3333433333333<=$@$%%=<<:=======;;::::;===*%::==%%%::%@@@$=::*%%%==%%%===::::==%%==*%=;:<=%%$@@=,33344433333333334433343<:==%*:<<<,=%@%*%@@$%%=<343333333<:==::<<<;*%:<44<:%%$%%%%%:<44<:**=:<3<<::<<<<<<<<<<<:*@@@@$%%@@%;<<3<:%%=;,<334443<<343333<<333333<=@@@@%=;:;===;=========**=;==<;=%%=<4<=$@$*<<:&%%%::;=:============:====::=%$@+@%<333333334444434443344444<:=%:<44<:*$%=*%@$%*:344444444444<;::<<,;=*=<<3<:*$%%%%%$%;<444:**;,444<:=:4444433333<=%%%@@@@@@$%=<3444<<22333333333344444444333344333<=$$%*$%*=%*=:==:2<:=;:<==;:=%*;=%==:<,=@",
".X@=<33<:====%%=::=;::===,:===:,==*%%$*&%@=<44443<<33333333433333333333333<:&%%@@@$$%%%=:<<<33<<33<<;=:<<<<:=%%:343,=$@@@@@@@=,3<<:%$*:<<:==:<<<<3343<<<<<:=%@@@%*%$*:,:==%%$$%;<<<<<<<3<<3333433333334<:=**%%;<,:;:;==;::=*=<<<:;==%=====*$==*$@@$=:;%%====%%=;:,<<;==:;==**==;:<=%%%%*;<3334443333333<<34333334<=%%%%%==:,=%$%%%@@$%;<3333<33<<33<;==:,<<:*%=<3<3<:%$$@$%=,<<<,:%%;<3<,==:<<<<<<<<<<<<;%@@@@**%$%;<:;=%@@$%;<333333<<343333<<33<<<3<;@@%%%=:<:;=%====;:::::::==*=:;==%=:4:=$@$*:,;%&*=::=*====;::==========;:<;*%%@$=<44333<<<334443444444443,=%%%*;::<,*%%=%%$$%=<4444444444444:;;,3<,=%*:,<<<;%@%$@@%=<<33<=%%:344<:=;:4444443344<=%$%@@$%$@%*:332<:::<<<<<333333343333443333344444<=@%%%@%*==:<<==;<<,==:<==;<;%%%%%%=:<<:%",
"XX%:<<<<:***%%%:,;=;,===::;*=:<<:=*%@@&%%@=<4444333<<<<33334333333343<<<343<=*$@$%%@$%$%;<3333<<33<<:==;,33<;%%:<3<<:=@@@@@@%;>,:;=@@=,<<,;:,<<<,,<34<<<<<<=%$$$%%%$*;;*%%$$@@%=<<<<<<<3<<<3334333443343<,:=%*;<:==::=%:<<%%=<<<:==;===*::=$%=*@@@$=;=%*====*===;,<<=%%,,:=*====;<;*%*=::<3333343333333<<33333333,=$$$$$$%=:=%@$$@@@$%:<4433<<<,:<<<,:::<<<:*%=:,:,<:%$@@@%=:,:;;=%%;<3<,;:<3<<<<<<<<334:%@@@@%%%$*;:%%$@@@@$=<433333<<333343<<33<<<3<:==**%=,<:==*=;::::=:<<<,:===:;=====<:=$$%*:;=%===:;=*=;:,<,:*=::;=*====:<:*%=*=:<444433<3434443444444444,%$$$%%*=:,=%%=%%%%%;34444444<<<3443,,<43<=%%=;:::;%@@@@@%;<<,<:=%%,444<;=:<3333444334<:*$$@@$=%@%=:<,:;%%=;:<<<33333<333<<3333333333444<=@%%%@%%*=:<3:==:<<==;,;==<:=%*%$%=:<3<;",
"X@*<<<<<=%%%%%*::==;:==:<:=%=:<<:;*%@@%%$@=<44433333<<<3333333333333<:::<33<:=%@%*%@$$@*:<33333<<<<<<;*%:<33:*$=:<:,,:%@+++@*;:=*%%$$=:<<<<<<<<:;;<343<<<<,=%$%@$$$%*=*%@@@@@@%=<<<<<<<3<<<<33333344333333,=%*=:====:=$;<<%%*:::=@=::=**::=%%%*@++$==%%*==**=:=%%:<<=%%,<:**=;=%=,;=%*:<<<3333333333322<33333343<,=@@@@@@@%==%@@@@@$%%:<44433<<:=;:<<<<<<<<=====:====%$@@@%====***%%=<33<,<<3<<,<<<<<<33:%@@@@@@$%===@@@@@@@%;<443<3333333333<343<<<3<<,:;=%;::===;;:,<<:%=<43,:::;===;;==,:=$@%=;=*%::=====;:>33<:%%:<:=*;;=*=,,=%=:,<<33344444444444444444444<*$$$%%%%=:=%$%%%%%%;34444444<:=:<4444443:=%%****==%$@@@@%=:;;:;*%%:<44<,:<<<<<<34433333;%$@@@*%$%=::=*%@@#%=:<<<<<<<<<3<<<<3<3333<<<344<=@%%$@%%%=:<4,===:,=*=:===<:===*$%=:<3<:",
"@@&,<<<:*$%====::====%*=:===:<:====*%@@@@@:<44433333<<33333333333<<:=%%*;,<<:=$@**%@@$%;<33333<<<<<<<<::<33<=%%%=:====@@+++@%*=**%%===;<<<<<::=**:<343<<<3<;%$@@@%*==*%$@@$$@@$=<<<<<<<3<<<<33333333333<<3,=%%=:====;=%=:<*%%=%%%@*:<:==::=*%**@@@===%%=-*%=::=@$%=:=%%::=%======:=*%%:<<<333333<<33322<<33333433<=@@@@@@@$%***%@@@%%=:<444333<:=%*=:<<<<<,==,:==*==*%$@@%%*=*%%*=:;=:<3<<<<:=*=,<<<<<33<:=%@@@%*==*%@@@@@@@$;<443<3333443333<3433333333,;*%;::===:;;:<<;%=<4<=%=::===;;*%;;=@@%===%%::=*=::;==<<<:%%:<;%*=====;:=*=:<<<3334444444444444333444<:%@$%%%%%*=;==%$$$%=:344444443:===:<34443:=;:==***%%$$@@@%*=====::=;,4443<<:===:333<<44<;%$@@@%@@%==*$$%@@@$=:<33<<<<<<3<<<<<<<<333<<334<=$%$@@%**==:,<,;==;====*%=::==:=%%%=<3<:",
"+@%=<<<=%$%====;=***%%**=**=::=====%%$@@@%,33333334333333<<333333<:=%$@%%==;:=$@%%%@@@%:<3<<<3<<:==;:<<<33<:==;====**%@@@@@#%**%%*=::;;<<<<:==%%=,<333<<<3<<:==%*=:,=%%@@@%%@@%=<<<<<<<3<<<344333333333333,;%%=:;=====&%:<=$@$@@%%*=:,:======%*$@$==*%*==*=:,:*$%$$%%%=:=*%======:=%%*:<<<<<<333<<3333<<<33334443<=%$$$@@@@%%=:=*%$%;,<<444443<<:*%==:,<<<,;;<<:=%%**%%$%%*%=*%&=:3,::<33<::=%%=<<<<<<333<,:=*=;::=%@@++@@@@%:<443<333344333333433333344<;%%=:;===:;==,,;%=::=%%=,<:==:;=*=;;*$%===*=::==:,<=%&:;;=$*:<=*======;:=*=:<<<33<4444444444443<<<444<:%$@%%%@%%=:,,;===:,<444444444<:===;:<443::<<:==*=*%%%$@$%*=***:<<=;<444<::=%%=:333<344<:*%@@@$@$%=*%@@$@@@@=:<<<<<<<<<33<<<<<<<443<<<33<:%@@@@%=:;==;::;=======**=====:;*%%*:<:=",
"++@%:<>%%%%;=%*==========%*===*==::%%%@@$=<33333334333333<<<33333<:%@@@$%%%*:=%@@$$@@@%;<<<<<3<<:%%%=:<<33<:==<,;*%%%%@@@@$%%%%%*=:<,::<<<:=%%%=:<33<<<<<<33<,:;:<3<=%$@@%*%@@%:<<<<<<<3<<<344<<3344443344<;**=::;=====*;<:%+++@$=%%=::;===:=%%$$%=*%*==**;::=%%%@@@@%=:=%%==;===:=%%*:<33<<<<33333343<<<333344443:%@%%$@@@$%=,,:=%=:<<34444433<<;**==:,<<<::<3<:%%%%%%%%*=%%%%=:<4<<<33<:==%%=:<<<<<344442<,:,<<,*$@@++$@@@=:3433<<333443332<3333333334<;%%=:;==;:==%::;%%%%%%%*:<<;=;;====:=%%=====::==,<<=%&*%%%$=<:=*=====;;====:<<<33<3333333444443<<<3443<=%@%*%@$%%;<4<<,,<444444444444<;====:344<,34<:=******%%%%**%%=<3<;:<44<:;=*%*:<3333444<,;*@@@%%*=*%@@@@@@@@=:<<<<<<<<<33<<3<<<<443<<<333:%@@#$%:<:;==;;======;:=====**:;*%%%=,:%",
"@@@%::;%%**;=%%=;:,<<::;;==**%*=:<,*%%%$%:<4443333444334433333333<:&@@@@%%$%==%$$$@@@%=:<<<<34<<<:*%==;:<33<==,3,=$%%%%%%$==%%%%*:<<<<<<<:*%%%=:<333<<<<<,<<<::<344,=@@$%*%$@@=<3<<<<<<3333343<<3344443344<:=*==:::;;=**;<<*+XXX@%@@@$%===;:*%%%%%%%%==*%%;=$@@%@@@@@%;:=%%*=::;==*%*=,3333<<<343333433<<333444444:%@$%%%%@$%=,<<:==:<<3444444444,=%===;,<<33344<%$@@%%===*$$$%=:<43333<,=%%%*:<<<<<334443<<<333<,*$@@%%$@@@=,343<<<33334333<<<333333333<:%%==:==::==*=;;%$$$@%===:3:;==;=*===%%*%=:;;=;<<<====$@@@$=<:=*===;;:;=*==,<333444333333344443<<<34444;%@%==*%%%=:474<,,<4<<444444444<;==%=,4444433:=%%%*:==**%%%%=,33<<344<:=-==%:<4444444444<:%@%;::=%@@++@$$@$=,333<<<<<<3<<<33334443333333<=%%%%=:4<:;:==;;::=;:<<,:;==*:;==*%%:=%",
"@@@%;:=%*=*==&==;:<<,=*=,::=*===;:<=%%==:<34443334444334433433333<:%@@$@@@@@%%====%@%;<<<<<<33<<<<;%%==;:<4<::<<<:%%$$%%%%==$@@$*:<<<<<<,;%%%%;,<<33<<<<:;;:;==;,<,:*@@%==%$@%:<3<<<<<<3333343<<<333344344<:=***=========;:=$+@@@@@@@@@%*==:=*%===%%*==*%%%$@@@@++++@%===%%%*=;==*%%*=<4333<<<333333443<<333334443,=%%%*=%@$%*=::;==;;::,34444433<:*%%%=:<34434<:%@@@@%==*%@@@$=,344444<:%%%%=,<<<<<<<<<>:::::<3<<=@@$**%@@%:<443<<3<<<333333<3333333333<:%%%=;;::;=**=:,%$@@@$%%%%::=========%%%%=::;==;==%%*%@@@+%:<;==========*=;<<333333333443444443<<344444:%$%=;;*%%*;:<<:=;::::,444444443:==*=:<444443:=$@@%====%%$$$*,3434443:;==%*=<3444433<<<<<=$%=<<,=%@@@@@@@@$;<<<<<<<<<<333333344443<<<<33<::==%=:<:==:;==:<:%%=<<<:=;=*===:=%%===",
"X+@%==%%==**==;==;,<<*%=<<:*==;==:<;*%=:<<34443344444333334444433<,*@@$$@+@@@%=,<:=%*:<<<<<333<<33:=%*===,<3<<<33,%@@@@%===%@@@@*:<3333<:=*%%%:<<<33<<<,========;;;;=%@%==%@$=:<<<<<<<<33<<3333<<<33344444<,==%%%===******==%@@@@@@@@@@@%=======;;%%=;=%%@++@@@+@@@@$%%%**%%%&=*%%%%=:<43333333333333433333334443<<:%%%%=%$%%==;====;=;;:<34444333<=%%%=;,34444<:$@@@@%=:=$@+@@=<43444<:=%**%:<22<<<<<<:;====;:<<:=$@$**%@@%:<343<<3<<<<33333<3433334433<:=*%*==;==***=;:*%@@@@$$@$**=*==;======**=::===%%%@$%%$@@@*:>=**======***=:<3<<333333344344444333444444:=$%*=;*%%=;;::;;==;:;:<44444444,=====<344443,=@@@@%;:=%$@@@*,344444<:=*%%=:<4444343<::::=%%=<<:*$@@@%%@@@%:<<<<<<<<<<333333344443<<<<32<<<:=%=::===:;=*:<:%%=<<:=%;:==*=:;%%%==",
"XX@*==%*==&%=::*@%=:<=%*<,=%==;===:=*%=,<333343444444333334444443<<=%@$%%@@@@%;<4<:%%=,,<<<<33<<33<:%%%%=:,<<<343:%@+X+$=:;%+@@@%:<3333<;==**=,<<333<<,:=;;===;=**=;;=@$%%@@#=;:<<<<<<<33<<3333<<<334443444<:=%%%*==%%%%%%$%%@@@$@@@@@@@%%==;:;*==%===*%$@XX@@@@%$@@%%@@%**@@$&%$$%*=<33333333333333344333334444<<:=$$$%%%$*=;==**;::;::::<4443333<:=%===:34444<:$@@@@%=,=$@@@$=,33344<:=*===,<<<<<<<<:===*==;=::==%@@%%@@@%;<343<<<3<<<<332<<33333444333,=**%%*==%%*=%%%=%$@$@@@$$@@$*=;::==;::===;;==%@@@@@@@%%$%==****%%*==%%%=;,<3<<<<333334333444433344443<,=%$%*=%%=::=%=:,:;;::::<4444444<:===;:<4443<:*@@@@%::;%@@@@%:34444<:;=%%%;34443334<:=**===**;=*%@@@%*%@@$=,<<<<<<<<333333333344433333322<<:=%==;===:=*%;<,%%=;;=%@=:,===,;=%%*=",
"X@%;**====%=:<:%@%%*=%%=,=%%======:=%%=,<333343344444333334444443<<;%@@%**%@@%=:<:=*=====:,<33<<3<<,=%%*==:<<<34<:%@@@@@=,=%@@@@$;<333<:===%%=;<<33<,;===;;====*%%%*==%%%@@@@%%=:<<<<<<33<<3333<333334433443<;=*%%***%%==*@$@+X+@+@@@@@@@%*=::=%%%%=;=%@@@@@@%$@%@@@%%$%**%$@$%$$$%=:<333333333333333443333344443:%$$@@@@$%=:;=%$$=;:;:::;:<44333<,;=====:<4444:*@@@@@$==%@@@@@%;<3343:==*%*=:<<<<<<;=*======;==**==%@@@@+@@$=<43<<<3<<<<332<<333<3443333<:**%$%**%%%=%$@%%$@%%$$%%@@$%*=;:;==;=;:;===*%@$$@@$%%$$%%%$%%%$%*=*%%*=:<3<<<<333333433444443334444<=*%$@@$%%=;:=%%%=::::::;==:<4444<:;**=;;,444<<=%@+@@%===$@@@@%;<4443<::=**=:33443344<:=;==;;=%%*==%@@%*%@@%;<<<<<<<<<333333333334433333322<<:=%*=:;==:=*%=,,%%%%%%%$=:<:;=:;==**=",
"@@%;%%====*;::=%%%$$%$%=,=%%=;;==;:=%%=,<33334434444444443344333333:=@@%*=%@@%==;=========:<33<<<<<<:*%*==;<<3<4<;$@+X+@%=%@@+++@=,333<;=%%%%==:,3<:=%%*====*==%%%$%====%@@@@@@%:<<33<<33333333<333334333344<:==**==***;;=@@@+@@@+@@@@@$@%*=:;=%%%%=:=%@@@@@@%$@$@@@**%===%%%%%%%$%;<<<3333333333433344333334444<=$@@@@@$%=:;=%@@@%====;:=;::<<<<,;=****=;,3444:%@@@+@@%%$@@@@@$=<443<;=%%%%==:<2<:=%%%*==**==%$$%*=*$@@++@@@*,43<<333<333333333<<3332<3<<,=*%%%**%%===*%=%$@%%%%%%@@$$%=;:;=*===<:==%%$$$%%$$$$@@%%%%==%%%*=*%%==:33<<<<333333344444444334443,*%$$@@$*=::;%$%%%===;::;=*=:<44<:;=***==:<43<<=$@+@@$%%%#@@@@%=<444<,===**=;,<4443<,:;;;-=:=*%@%=;=%@@$$@@%=:<<<<<<<<333333333334433333333<<:=&%=::;=;==*=:<=$@@@@%**=:::=;==;*%*",
"$%%=%*==**=:;=%%%%@@@@%;:*%%=;:==;;*%%:<333334444444443333333333333<;%$%%*%@%===%%*=;;=;==;:<<<<<<<,;=**===:<3<4,*@@+X+@@$@@+XX+X*:33<,=%%%%%%%=:3,=%%%====%%%%%%$@%*=;;*@@@@+@%=:<<33344333333<3333333333333<:;======;::=$@@@@@@+@$@@$%@%=;=====*%;;==%@@@@@%%@@@$%==*===*%%%%%%%=,3<<3333333<<344334433333444<:%@@@@@@%=::=%@@@@@%***=====%:<<<:=%%%*%*=:<44<;$@@@+@@@@@@@@@@@=,33<<=%%%%%%%=<<:=$%%*===%%%%@@@@%*=*%@+@@@@$=<333333<33333333333333<<3<<<:=%%****==;:-==*%@%%%%%%@$$@%*=::=%%*=,:;=%$$%$%%$@@@@@@@$%:==%****===:<443<<<33333333344334433343<;%$@@@@$=:::=%$%%%%%%=:::;=%%:<4<:==***==;,33<,%@@+@@@@@@@@+@@@%:344<:==*%**==,343<:===;;====%@@$%===$@@@@@@%=,<<<<33333334433<34443333333333,;=%=:::-===**:<:$+@+@%=%$%=====;:%%%",
"===%%*;=*%**%@@@@@++@@=::=%%=;:::=**%*:<433333444444443333333333333,=@@@$$@@===*%%$*=;====**=:<<<<:=%%%%%%*:<334:%X+XX@@@@@@++++X%:33<:==**%%%%=:3;%@=====*%%%%%%%$%%*;;*@$@++@$$=:<33444333333<333333333333333<::;=;:<:=%%@@$@@X@*==$@$@%=:=*===*====:*@@@@%=*@@%%%$$%*=;:=*%%%*;<<33<3333333<<<33334433333344,%@@@@%%%*;::=%@@@@@%%****=::%%;<3,==**=**=;<44,=@@@@@@$%%$@@@@@@%:33<:=**%%%%%;<<*@@*===%%#@@@+++@%*;:=%$$@@@@%:<3333<<<33333333333333333<<<:=%%*=**=;=====*%%@@$$@X%%%==-::;====::;;*%%*$@%@@$%@@@@@%:::%%%*===:<3443<<<3333333333333433333<=%%$@@$@%=::=%%%%%%%$%*==;::=%*,3<:==*==;=-:3<<:$@@@@@@$$@@@@@@@@:<44<:=%%%**==,34<=%*====%%*%@@@@@%=;=%@X++++@;<<<<33333334433<<3443444333333<:=**=::;===**:<,%++@@@@@@@@%*==::*%%",
":;=%%=:=*%@@@@@@@@@@@%*=**%%%*===*%%%=,<44433344444444333443333443:=%@@@@@%&==%@@@@%%*%*====*%;,<<:=%%%%%%*;<3<<=@X@@@@@$%@+@++++$=,<<:=**=%%*====%#@;:=%%%%$@@@@@@$%*;=%$%%$@@$%=,33<<33333333333333<33333333343<<<<<<;=*%$$$@@+@;<<=%%%*====;===:==;;%@%$%;<;%@@@@@@%;==:::::::<<<3333332223<<344344433333343:%@$%*==%%=:;*%@@$%@$%%%%%=::=%%;<<:====*==:<<,=%%$$$@$*::*@@@@@@@%:<<:=%*=%%*=;;=@@@;;=%%$$@@@+oX@@%=;=*%%%%@@$=<<<3<<<<333<<3333<<333333<<<<::;==;:::===%%%=%%%===@%%%=::=;:;=;:;;::*%%%%%=*%$$@@%@$%=:,:;==;:,<<3443333333333333333<333333<=%@@@$=%%*;;=%%%@@@$$$%%*=:<;%%=;::;======;:<,=%@@@@@@@*==@@@@@@@*:<3,:=**=====<<:=%%:;=*%%%%$@@@@@%=;;=%@$@@@@=:<<<33333333343<<3333333344444<:=*%%====****==;%$@$@@@+@@@$%=======",
"===**=;*%$@+@@@@@$@@@%%%%%*%$%%=%%%%*;<34443334433444433344433344<=$@@@@+$*=;=%@@@@@%%%%%====$*;,<:=%%**%%*=,<<:%@+@@@@@*:%@@+++@@%=:::==**%*===*%#@$::;%$@@@@@@@@@$%*;=%$**%$@$%=:<33<33333333<<333<<<<3333333444344<:*%%%%$@$@@%:<<=*====**=:===:====*%*%=:<:%@+@@@@%=**;<<,<<<<<<<<<3332<<<<<34444443333334<;#@%===*$$*:;*%@@$%@@$$%%%=:,;%%*:::======;:,:=&%%%%$$%=:,=%%@@%$@@%::;=**=*%*==*@@@$::=%$$@X+@@XX+@@%;=%%*=*@@@*,<<<<<<<333<<333<<33333332<<<<<<,:,<,;===$@%%%%%:,:**%%=::=;::=;:==;:=%%%*;<;*@@@$%$%**;,<<:::<<333443333333333333333<333333<=%@@%*=*%%=;=%%%@@@$$@$%%=:3:%%%*=:;=====;;::;%@@@@@@$%=:;%@@@@@$%=:<::;**====;::=%$*,;=%%%%$@@@@@@$&=:=%$%%@@@%=<<<33343<<33333333333333433333,=*%%%===*%***%%%%@#@@@@@@@@$%*==;;=",
"%%%*;:;%$@@@@@@@$%%@@%%@%%%%$$%%%$%%=:<34333334433444333333333333<%@+@@@@%=:;=%@@@@@$%%%%%=::%$%:,:;**==***=:,:%@@@@@@@%;<=$@++@$@@$=;;;==%*==;=%$@@%<<:%@@@@$%%@@@$%*==%$%%%%%$%%=<<3333333<<<<<333<<<<3333334444444<=$@@%$@@%%%=:,,===::=%%*===;==%%%===*=:<:=@@@@@@@%%$%:<<<<<<<<<<<3333<<<<<<3444444333334<=@@%==%%@@%;=*%@$$%$$@@@%%*:<,*%%%=;:=====::;=%****%%%=;::===@@%%$@@*====*=====%@@+@%<<=%$@+XX+@XXX+@%=*%$%==%@@$:<333<<3333<<<33333443333<<<3344433<:%===%@@$$$%:33;===*=:=:::=;::======%=<4,=@$$%$%%%*=:333333333444333333334333333<<3333<<:=%@%*==%$$==*%%%@@$%$@@$%=:4<=%%%*;::;===:;==%%@$%%@@%=::;*$@@$%%$%=::::=*===;:=*%$%=<=*%%%%$@@@@@@@%=:=%%=*%@@@%<<333443<<33333<<<<33333333334<:=%%%%==&%%**%$%$++@@@@@@@@@@%*=;:;",
"%%%%::=%@+@@@$%@@%@@@=**==*%%%%%%%%*:<33433333344433333333333333<=@@@@%%%%=:=%$@@@@@@@$%%%%::=$$%==;=*==%===:;*$$%$@@@%=;:==*@$%*%$$%*===*%*=:=*$@@%=<<:%$@$@@%%@@@@@%==*@@@@$@@$%=,<3333333<<<<3333<<<33333344444444<;%%*=*%%*=:;*%==*%===%$%**===%$@*==%*=:;===*%@@@$%%*=,<<<<<<<<<<<3333<<<<<<3444444443344<*X@$%%@@@@*;=%@@$@@@$@@@$$%:<3;%$%%%::;===;;*%=::===*=;;=====%%===%%$%==*%*====$@@@$=<<:$@@++XX@+XX@$%=*$@@@%$@@@;<333<<3344<<<3333344333<<<<3333333<;%*%%$@$$$%=<4<;==:;==*=::::;;**=:;=*=:<,;&%%%$$$@$$=<<33333333333333333343333333<<333<:*%%@%%%$@%*;=%$%%@@$%@@%%%*,4<;%%%%=:::=====*%%%%=*%$%=:===;*%%%===*%%=::=**=:;=%$$@%:<=%%$@@$@@@$@@%===%$$===%@@%:<334433<<33333<<<<<33333333443<;===**=***;=*$$@++@@X@@@@$@@%==::=",
"%%%*:;=*@@%@@@%@@$$$%=**===%%%%%%*=;<333333333344433333333333333,%@@%%==%%*;=%$@@@@@@$@%%%%:,:$@$%%====*%====*%%*%%%%$=;====*%%*==*%%%%**%%*=:=%$@$%=<<:$@@@@@$$@@@@%*;;*@@@@$$$$%=<<334<<<<<<<33333333344333444444443<:::,:;**=;=%%**%$%*%%$%%*===%@@%%%@%%*%*=-=*%*==;:::<<<<<<<<<<<<3333<2333<<334443344444,*@@$$$@@@$*;;%@@$$@@@@@$$$%=,4:%$$$%:::*===*%=:,:=;=*=======*%%=;===%%%*%%%*;:*@@@@%:3<=@@++XXX@+X+@@$==%@@@@@@@@=<443333343<<<<<<<<33<<3<<<<3333333<:===%%%%*==;:::;*=;:=%%=;:;;==%%=;==*=;::::=*%%%%%%%=<<33333333333333333343333333<<322<:=%%$%%$$@%=;;*%$%@@@$@@$%$%;3<:=%%%*;::=====%%%*%==*$%*=====*%%===:=*$*=;=*=::;%$@$@=,<=%$$@@@@@@@@@$%==%@@%%%%$@%;<33443<<<34433<<<<3443333334443,:===***==:;*@@@@@@@+$$@@$$@%=;:;=",
"%*==;;==%@%@@$=%@@%%%%%%%===**%%%=:<<333333333333333333433333<3<:%@$%==*%$%==%$@@$#@$$@@$%%;,,%@@@$%;==***==%%%;===*%%=====%%%%*====%$@%%%%*=:=%$@%=:<:=@@@@@@@$@@$$%=:;*@@@@$$$$%:<<<<<:,<<<<<333333333433<344444444433344<,=%%&%%%%%%@%%%%$$%*==*$@@@@@@@@@@$%====:,<<<3<<<<<<<<<<<<<<<33333<<<<33444<<<<<34:*@$$$$@@@%*;:=%@%%@@@@@$%$%=:3:=$@@%=::===*$%:<,:;:=%=====*%%%%=:==;=%$%%%%*;:%@@@%=:<:%++++XX++X+@@@$==*@@@@@@@@=,<<<<,<<43<<<<<<<<<<<<3<<<<3333333<<<,::;=*=::;=*==%%==%$@%=:===%%%==*%%==*=;::=*=;::=;:333333443333333333334333333<<<<<<<,=%%%%%%%$%=;:=%$$$@@@@@$$@$%<<,;=%$*=;;====%$%==*==*$$%=***%%%%==;::;%%*====::=$@@@$;,,=%@@@+@@+X@@@@%=;%@@@@%%@@$=,<<33<<<<34433<<<<34333444444333<:=====;,:=%@@@@$@@@%*%@$%@*;;===",
"%*=:==::%@$$%;,=$@$%$@@%==:<:;==::<<<33333333333333333444333<<3<;$@%*=%%$@%==%@@@@o+@@@@@@$=,<*@@@@%;:=***%%$%::;=:*%%%%%=*%%@$%=====%@@%=*%%==%%%*=:<=%@$%@@@$%$$$$%=;=%@@@@@@@@%=,::=%%=,<<<<33333333343<<344444444433344<,=%%%$$$%%@@@$@@@@$*;=%@@@@@@@+@@@@@$@%*,<<<<3<<<<<<<<<<<<,<<33333<<<<33444:*%==:<;%@@@@@@@%%*=:=%@%%$@@@@$$$$%=<:=%@@%*=:;;=%@*,4>:::=***===%**%%=:==;;*@%*=%%*=%$@$%=><=@+@@+++@@++@@@%;;=@++@@@@@=:::==%;<4<<<<<<<<<<<<<<<<<<33333334444334<:===*%%%%%%%%%$$%==*==%%%%*%%%*****=%%=,333<<<333333443<<<333333334333333<;=;:,<,=%%%%%$@@$*=:;%$$%$$$$$%%%$%:<<:=%%*=======%$=;=*;;=%%*=*%%%%%%=;:;:,=%%====:;=@@@$*::;*%$$@+++++@@@@*;;%@@@@$$@@$%:<<<<<<<<33333<<<<3433344444333443<,::<<<;==$@@@@++@;,:%$%@%=;==;",
"*==:==;=%$%%=,<;$+@@@@$%=*=:<<,<<<<<<33433333<333333333443<3<<3:=@@@%%$@@@%==%@@@@o++++@@@%=:,=%@@@$*====*%@$=,:;=:=%%%%%**%%%%%:;=*==%@%*=%%**%$%*=::=@@%%$$$$%%$@$%===*%@@$$%=*=;:%%%%$%=:<<<3333333344<::<<344444444443<:=*%%$$@%*=%@@$%*%@@*==%@@@@@@@+@@@@@@@$%;,<<33<<<<<<<<<<<;;:<33<<<<<<<<3<<:%$$%%%;;;===*===*==;;=*@$%$@@@$%%%$%=::=%@@$%====*%$;<<::::=***==%%*=*%*::=*:=%@%=*%%*%@@$%=::*@@$$@@+@@+@@@$=;=*%%%%$%%%==*%%$@%:<<<<<<<<<<<<<<<::<<33333334444444<;%%%%%%$%$$$%$##%%===%%$$%%%$$%%%%%%%%=:<3333333<<<3443<<,<333333343333<<:%%%===:=%%%%%$$$%====%$$%%%%%%%=*%$=:,:=%%%*=*===%%%:;==:;*%*=**%%%%%%=::=:<:%%*=====*$@@%=::=%%@@@@@@@@$@@%=;=%@@@@@#@@$%:<<<<<<<<33333<<<<342<<44333333444<<<<2<:***$$$@@++%:<,=%**===*=:",
"===;=*=*==**;<<:%@@@@@@%=%%;<<<3333<<33333343<23333333343<<<334:*@@@@@@@@@&-=%@+$@@@++@@@@%%=:;*$@@@%*===*%@%;<;;::=%%%%**%*=*%%::;%===@%%=%%%*%$%*=;:%@%=*$$$%%%$@%=;::;**==*:::::=@@@@@$%*;,<3333333344<:=::<3443333444<:=%%%$$%%%=;=%%%=:%@@%**%@@$%$@@@$%%%$@@$$%=:<<33<<<<<<<:::==:<<33<<3<<<<<:=%@@@@@@%=:<<,,<,:=::::;=$@$$@@@$%*%@%=::=%$@$%*==;*%%,2,;:<:====**%*=;=*%::=%;;=$%*=%%%$@@#%=:;%@$%%@@@@@@@@@%===*%=;;;:::=%@@@@@@%=:<<<<<<<<<<<<,=;:<<<<3333444443<:=%%%%%%$$$@@%%%@$%===%$%%%%%$$%=%%%%%%=;:<<33333<<333<<<::<3433333333<<::=%@@%@%=;;;:=*==**;:::*%$%%%%%%%==*@=:::=%%%**====%%=:===:=%*==*%%%%==%=:<=:<<=%*===*%%$@$%===*%$@@@@$@@@$@@%===&$@@@@@@@$%:,:::::<<333<<<<<<<3<<<3333333334444444,*%%%%$@@$@$*:<:===:;=%%=;",
":;==%$$=;:==;,<:=$@@@@@@%$%=<<<<33333<<333333233233333343<<<<33:*@@@@@@@@$&-;=$+$$@@@@@@@@@%*=;=%@@@%%%*=*%@=:<=;::*%===**%%--%%:,:*=;:%%*=&&**%$%*=;;%@===$@$%%$@@%;<43,=;:<:<<<<:%@@@@@@@@%;<<333333443,;===:<443333443<=*%%@@$%=====%*=:<=$@%**$@@%=%$%%*===*%%$#@$*<<43<<<<<<,===*=:<<33333433<<=$@@@@@@@@*:44444<:=,<3<:=%@@$$%%#*==$%*;;==$@$%*==;=%=<<;;:<;==:=*%%*=,:*%:<:*=::%%==%%%@@@$%=:=%@%*%@@@@@@@@@%====*,<<<33<=@@@@@@@@$=:<<<<<<<<<<<,===:,<<<3<<3444<,==*=%%%%%%%$$@%%%%@%==*%%=;=%%%%;:%%%%%%**=:<33<333333<<::==,4443333333<:=%$$@@@@@%:<44::,<:;<34<;%$$%%%%%%=:=$%=::=%%%&==;;===::==::=$%=;%%%*%==*=:<;;:<=%====%%%$$%%==**$@%%$@%@@$$@@=====%%%%%@@@$%==*==%*:<<33<<<33<<<<<<3333333333444444:%@@$%%$@%====;;===,:=$$%*",
"====$@$*=*$%=====:=%@%%%==;:<<<<33332<<<333332<<<3333334<,,<<<3:%@@++@@@@%====%@$$$@@@@$%%@%%=;=%@$$%%%%==*$:,:=:,:=====***=;;%%=,:===:=%%=%*=%%$*====%%=;=$@@@@@@@*;<33<:=:<<<<<<=%$$$%@@$$=:<<333333343::===;<444<<<443<=*%$@@$%%%%==%%*=:*$@%**$@@%==%%*==*%%$$$$@$%:<43<<<<<<:=&*==:<<33<<3433<<=$$@@$%%@@%;<4444,;-<344,=%$@@@@@#%=;%%*===;%$%%====**:<,=:<<==;:;=**=:,=*%:<,====%%*=*%%@@@%==;=%$*=*@@@@@@@@$=::::*;,<<3<:%@@@@@@@@$%;<<<<<<<<,<<:=====:<33334444<=%%&=%%%*====**===%$%===%%=:,====::**&%%%%*%=,33<333333<;====,4433333333<,=%%$@@@@@$=<34<<<:;:<34<:*%@@$@@$%;:=%%=::;*%%*=======:==;<:=$%===%%%==;**;<:==<:=*:;==%%$$%*==*%@%==$@%%$@@@%=;:::=*=::=;;;;=%$%%$%=:<<3<<<333<<<<<3333333334444444<:==::==%=;;=%%==%%==*$%%*",
"*==*$@@%%$@@%%$%*;=**;:::<<<<<<<<<<<2<<<<333333<<3333333:=====,;*%%$%%*%%=::;=%@@@$@@@@%**@$%===%$@@$%%%==*=:,;=:,===;;=**=;:=*%=:<:====%%%%*=%$$=====*==;=%@@@@@@%=:<34<,;;:<<<<:=%%%%%@@$*:<<<33333333<:;====:44<::<443<=*%$@@$$$%%=%@$%=*%$#$%%%@@%==%$%=*%%%$@@@@$%:<33,:,<<,:=**==;,<<<<334333<:%@@@$**%$$=<444<;=:<344,=%%%$@$$%&=;======;%$$%*===*=,::=,<:==::=*%%;::=*%=,<:===%%%%%*%@@$==-==**===$@@@@++@%=<3<,==:<<3<=%@%%%%@@@$%:<<<<<<<<<,,;===%=;<333<<343:=%%%=%%%%=;:===;:=%%%=;=%%=:<;===;=%%%%%##%%=:33<<<<33<,=*===,<333333333<<;*%$@$%%%%&:344<<;;:3443:=%$@@@@%*;::===;::=%%*===*%*=;==:<;*%%*=:=%%=;:=*=,<;=::=%;===*%$$%===*%$%;=$@$@@@@$%=:<<<:==<<<<<<;*$@@@@@%=:<<3333333333333333333444444443<<<<<<:====%%%%%%$%%%$$%%",
"===%$@@@@@++@@@@%%%%=<<<<33<<<<<<<<<3<<<<3333333334333<<=%@$$%====;=;::;=:,<:;=%@@@$$@@%==@@%*===@@@@%%*=*%;::=:,:**=:;=%%=::==%%:<<;=**%@$%*=%@$*==**=;===*%@@@@%=;:<343<:==,<<<;%%===%@@%:<<<<3333333<<:=**==:44<;=:333<;*%%%$$%%%%%%@@%%%%%#@@@$@@$*&%@$%%%%%$@@@$%%:<3<;=:<<:======-;:<<<3343344,=$@@#*==%$&>34<:==<<444,=%%%%%%%&*==::;====%$$%%**%%*:;=;<,;*=::*%$%=::==*%:<<:=*%@@%%*%@@$=;=**=====%@+oXX@$%;<44<;*=:<3<=$%==*%@@$%=:<<,,<<<<<,:====*==,<3<:<<43:=%%%*%%%%*=:=%%;;=%%*===%%*=:=*%===%$$%%@@$%=:33<<:,<3<:=*===:<<<33333<<3<,=%$@$==*%%:343<:=:<4444:;=%$@@@%=-:::;==::=%%=;-*%%&===:<<=%%%*=:*%%%=:=*=:<:==:=%====*%$$*;=***%=:=$@@@@@@$%=,<3<:;=:<<<3<=%@@@@@@@%*:<333333333333333<<<344444444444444<:=%%%%%%%%@@$$$@@@%",
":;=%@@@@@@@@@@@@@$@$*,<<<33<<<<<<<<<3<;:,333333333433<:*%@@@@@@=:<<<<3:==,<4<:*%@@@@@@X%*=%%%*%==$@@#%%%=%%:;==<<:%*;:;*%%=;;==%$=:3,;*%$@@%==%$$%==*%=::;=**%%%%*==:3343<,;==:<<=%%==*%@$=<<<<<3333334<;==*%===3<:===,33<<:=*%%$%%%%@@@$$$$%%@@@@@@@$%%$@@@%%%$@@$%%%=<<<<=*=,,:=====**%;<<<3343344<,=%@@%%%%$%:<<:*=:<3444<:===*%%%**=;<:;==*%$$$%%%%$$%==;<<:=*::=$@@@$%=;=&%=,4<:=%@@%*=%@@@%==%%=;;=*%%@@@@$==:<33<<;==:<:%@%==*%@@%=:,,,,<<<<<<:========:<<:*:<44<=%%%%%%=**=;*%%===%%&*&%%%%=;=%%%==%$%%%%%$%=,<3<:==<4<:=====;:<<333443<3<<:=$@$===*%;<4<:==,34444,:===*%===-:,<:==:;*%%=;;*%$%==:<<,%$%%*%%$@@$*;:=*=<<:==*%%%**&%$$*;***=====%@@@@$@$%=:<33<:=;:<<<:%@@@$@@@@$$=,333333333333333,:,34444444444443<:-&%%@@@$*%@@@$$@@@@",
"==*%@@@@@@++@$$@@@@$%=:<<333<<<<<<<<,:=;,33333333343<:*%$@@@@+@%=<<33<;==<333:*%$@@@@@@%*===*%%%=$@+@$%%%%$===;<,=%=::=%@#$%===*%*=<<,=*$@@%==%%%%===%=:<<,:=======:<3<333<:=*===%$@%%$@@%:33<<<3333334<;===%===::;=*=:<<<<<,:=%%%%%%@@$$$$$@@@@@@@++@@@@@@@$$%%%%%=;:><<<,=%*;;=*==%%*=*:<333343333<<<=$@@@@$$%=====:<34444<:;;;=====::<<:=*=*%$$%%%*%%%*=:,3<=*=::=@@@@@%===*%=:3<,=*%$%*=%@@@$==%%=:<:==*%%%%==;,333<<:=%*==%@@%%$@@%=,<<<,,,<,,,,;*%*======,:=*=,44<:===%%%*%%%%%%%==*%%%%%%%%%*=%%%%*%%%%%%%*%=:<3<,=*=:<,:;======,34344433334<:%@@%%%%$=:,;==:<33344<:;:::==::<<<<:==:=*%%=;:=%%==:<3<=%%%**%@@@@@%;:===:<<==%%%%%%%%%$%=*%*=::;=%%%$$%%%==:<<3<,===:<<;@@%**%@@$$%;,<<3333<<<333333:;;,<<4443444443<:==%%%$$$*:=%$%%==$@@",
"==%%@@%%$@@@%*%%$@$$$%=:<333<<<<<<,:;=*=:33333433333,=%$@@@@@@@@=<<3<:==:3333:=%%%%$@$%%*=;==%%%*$@@@$%%%$$%*=:<:=*=::%@@@@@%===*%*:<<:=%$@%==%$%%==*%=:<3<<;======:,<:<<33,=&==*%$@@@@@$=,443<<<<<3334<:===%***;;=*%*=,<,,,,,;=*===%$%%%%%%@@@@@@@@@@@++@@@@%%**%*;::,,<<:*%%===%=*%%*==,<333<<<333334:=%$@@$%%%*===,3343<<::==;;==;:<34<:=%%%%$$%%*=%%==:,<3:=*::=%@@@@@$%===**=,<<:;*%%*=%@@@$==%%=:<<::=======-:<<<33<=%%%%%@@@@@$$=:<<<<,,,<,,,>;=%**%*==*:;=%=:44<,::;=%%*%%%%%%%%%%%$$%%$$%%%%%%%%%%%%%*%==;:<<3<:=*==,:======*=<34344<<<3343<%$@@$$%%%=;=*=<33<<<<<:==;:;;:<443,;==:=*%%=;:=%%=:<3<:%%%**%$@@@@@%=:;=*=,<:=*%%%%*%%%$%%%%*=:::;=*%%%*==;;,<<<<<:===,:=@$%==%$$$%=:<<<3333<<<333333:==;:<4443444443,=*%%%%%%%=:;*%%=;:%@@",
"==%%@@*==%%==;=*%%%$@@%*,34<<<<<<<:*%===:<<<33333332<=%@@@$%*%%@%,<<,=*;<3333:;=%%%%%%*===:;*%%%%@@@@%%%$%%%=:<:=%*-;=@@@@@$%%===%%=<3<,=%@*==$$$%=*%%%=<<3<,;=%$$%===%=:<3,==::=%$@@@@%;:<4444<::<3333<<:*%%%%%=;=*%%*::==*=::::<:;*%%*=*%*$@@%%$$@@@@@@@@@@=;;%%*=====::=*%%%==%%%%*===<333<<:<<<<333<,:;=%*%%%;:==<433<;=*%%%*==;:<444<:=%%%%@$%%==**=:<33<;==:;%@@$@@@$$*=:=**=<33<=%$*=%@@@%=%$%*:<43<:==:;=%*==:<33,=%;=*$$%%%*=:<<<<<<<,::,,:::====****%==%%*;<<<<<<,;**=%%%%%%$$$$$$$%%%%%%%%%%%&%%====%=:<<<,<:;**==;=*======:<3334<<:<<<34<;%$@@@$%%*====<3<:====%%$%%=:<444<:;==;=*%%*;:=%=:<3<:=%%%%%$@$@@@@@%*==%&:<<:;=*%%=%%$$$%%%%=:<<<:====;;;=;<<<<<<<;*%=*%@@%%%%@@$=:,<<<333333333344<:==**:444333444<:=%%$$$$%%%==*%%=::%$@",
"*%%%@$%=*%%===%%%$$@@@%*:<3<,,<<<:=*%*==:<<<33333332<:*@@@@%==%@%:<:=*=:<3334<:=====**=::,,;*%%%%@@@@%&%%%=;,<<;*%==*%@@@@$@$%=;=*%%:<3<:=$===$$$%=*%%*=<34<<:*@@@@$%%%%;<<;%%=:;%@%=;:,<334444,;=<3333<:=%%%%%=;;=%%%%::;=====;:3<<:%=:,::=%@@*%%$$%%%*=&%%=:<,=*%*%*==::=%%%%==%%%%%%==<333<,=:<<<3<<<<<<,:=$@%;=%$=<3<:%%$$@@@$%;<3444<:=%%*=$$%%*=**;<44<:===:=%@$$@@@@@*;:;=%*:<33:=%==%@@@*=*$%*;<33<<:=%%$$%%%*:33:%@%==$@%;:,<3<<<<<<<:;:,<,,:=*==%*%%===%%*=<:;===;;&*;:=%%%%%%%%%%%%%%%&**%%%***=-:::;::-===::=%%*===*%**%%=:<3334<::<<<343<:;=*%%%*=,=*%,<<;*%%%$@$$%*:<444<:;==;=%%%*=:===<<3<;*%%%*%$@$@+@$@@%==*%=:<<<:*%%=*%$@$$@%%=:<2<,:=====**===:<<<<:=%**%$$@@@@@@=:<<<<<333333333344<:===*;<44<:<<44<:=%%@@@@@@%==%@@*=*%$@",
"%%$$@@%=%$@%*%%%%@@@@@%=><3<;:,<<:=======,<<333333333<:%%@@%**%@$=;=*=:<33<<<:;=======;,<<,;*%@$%@@@$%*%%=:<<<:=%*;=%@@@@+@@@%=;;=%%=,3<<;%===$$$$%**%*=,34<,=%@%%%%%%%%=<:=$@%==$@%:<<3<<,<<34,=*,<3443,=*%**%*;;=%@$%:,:======:<4<:==<3<,;%@@*%%@#%*=:,:**:<3<=*%%%%==::=$@$%==%%%%%%=;<333<:=:,<<<<:::<<3<=@@%=%@@%;<<=@@$$@%$@%=:<443,=*%*=%@@%%===*;<44<;==:,=%@@@@@@@@*;:;=%%;<44:=%==%@@@%**%%*=<333<:*@@@@%$@%:<,*$@@*=$@%:<<<<,:,<<<<;==,<,,:=%*%%*%*==*%%%=<:;=*===&=,<:=**====*%%%%==%%*==;;=%==:<<,;;==*==;;=%%%*==*%**%%=:<3333<:=,333<<,<<,:=%$*=:*%%=,,=%%%%%%=%%%-<444<;;====%%%*=:==;<33,=*%%%**$@$@+@#@@%===%=:<3<,=**=*%@@$%%%&=;><<<,:=*%%$@%%%=:<<<;**==%@@@@@$%%:<<<<<<<3333333334<<:====;<43<=:<44<,=%%%$@@@@%*%@@$%*%%$@",
"@@@@@@$*%$@@$%%%$@@@$$%=<<<,==:<<:=====*==:<4433433333<:*@@@$$$@$%%%%=:<3<<:;==%%%*==:,<3<:=*%@$%@@@%%*%%=:43<=%&=:=%@@@@+@@@%=:;=*%*:<<<:&===$$@@%*=%%=:<3<;%$*;::=%%$%;<=%$@@$*$$*:<3<:==;,34,=%:<3333<:====**;:=%@@%:,:=**%*==:<<==:<34<,%@@%%$@@%=<34<;=:<3,=%%$$%=;,:%@@$*=*=*%%%==:<3<<:;=;:<<<>===:<4<=$@%$$%%$%:<=@$%%%==*%%=,34<:=%%**$@@%%=;==;<4<:*=:,<:*$@@@@@@$==;;=*%=,33:=%==%@@@@%%%%*=<343<=%@%%%%@@$:,=$$%@$%%@%:<<,===;,<<<=*%:,,,:-%*%%**=;=%%@$*<::==****:<43:==:<::=%%%%==*%*=:<<,*=:<43,==**===:;*$$%*===*==**=:34443:==,33<:;;,<33:*$%=*$$%%=:=%%%*=:<:=%%:343<=====%%%%*=:;=;<3<:=%=%%=*%@@@@@@@@*::;*&=,33<====*%@@$*=&%%=:<<<<:*$@@@+@@@%=,<,=%%;=*@@%%==::<<3<<<<<<333433343<:==**=;:3<:*=:343<:*%%%$@%%%%@@@%%%$%$@",
"@@@++@@%$@@@@@$%$@$%**=:<<<:%%=,:===*%***=:<443343333334:%@@@@$%%%===*,34<;%%%@++@@%;,333<:=%%**%@@@%*=**=:4<:%%=:<;%@@@@@@@@%=::;=%%;<3<:*===$$@@%%=%*=;<<:%%=,<<:===$=:,%%%%@@%&&*:<<:=***:<4<=$*:<,,,<:;=%%%%;<,%++%::;=%%%%%=:,:*=:,<444=%@@@@@%=<333<;==,<,*%$$$%*:<:%++$===%%%%%=:<33<:=*=;,<<,;%%%=:<<=**=$$%%$$=<:%%==*:<<=%%=<4<:=%%*%$$$%%;:==:<4<;*=:,<:=%@@@@@%*=;::;=%=:<<:=*==%@@@@%%%%%=:<4<=%$=::*=%@%::%@%*%$%=%%:<,;%%*=:<<<;%%=:<<<:==*%**===*%@@%<<:=*%%**;<42:=:<44<:%$$%**%%%;<34<:=:44<:==%%===<:%@@%=:=======:<4444<=%=,<<:=**=:3<:%%%%$%%*$=::%%==;:43,=%*:4<:=====%%%%*=:;;:<<,=%%=*===%@@@@@@@%=:::=*%;23,===:*$@@@$%$%%=:<<,:*@@@%%@@@+@*:,=$@@%=*+$=:<<<<<23<<<<<3334433343:==***===,:-%*-,443<::=%%%%%$@@@@@$$@$@+",
"@@@@++@@@@@@@@%%%%%*;::,<<,;%%*;=**=*%====<3443333333333<:;==*%@$*;=%$=,4,=@@@@@$$@@%;<<<<;*%$&%%@@@%*====:3,=%*=::=*%@@@@@@$%=;::=%%=:<<:====$$$$%==*===,>=%=:<3<,=;:;,,;$@%%@@*:::,<<<:::=:<43:=%&======*%%%%%=:<:%$=<<:==*%%%%===-====:<<=%@@@@%*:<<:;==**;::*%%%%%=:<<*@@*:;*%%%%%=;==;;=**=:<33:=%=::,<<::;=$%%%@@=<<::::=:<4<=%%:<<;=*===$$%%%=:==:<3:=*;:::==%%@@@$%=*==::=%*;<<,;===%@@@@%**%*==<<:%%=<<:*;==;:;@@@%%$%;=;:<,:;==*:,<<:*%*==::::;=%%%*=:;&@@%<<:=%%%%&=,<:=*:<343,=%@%%%%%=,344<:==,<<;=*%%*==<:*@@%::=%*&%*=::::::=%%:<3<;==;::<<,;;;=@$%*@%=<:;:;;:43<,*%=<<:=====%%%%*=:;;,3<:*%*===%%%$@@@@@$%*=;;=**=,<<;==:*%@@@@%%%%*;,<:*@@%=:=%%$@@=::%@@$$%%@$=<<<,::><<<<<3333<333444<;==**===;;=%%=;<<,,,::=*%=*%$%%%@$$@@@@",
"$@@@@@@+++@@@$%==%%=:;:::,:=%%%=*&%=&%===:<333<<<<<3333<<<<<,:=@@*=%@@%=<:*@@$%%==%$$%;<<,=%%@%%$@@%%====;,<:=%=;::=*%@@@@@$%%%=::=%%*;<<:====%$%%*=;=*==:;%%:<33<,=:<<3<=%@@$@@*:::,<<<<<,=:<44<;%%*=*%*==*%**%*;<<==;<3<;==%%%$%=;:=%%$*;:=%@@@@%=:<:=%%%*====%%%%%*;<<<=$%=:=%%%$@%%*%%%*%%%=,<<2:=%:,<,,,::=%$%%@@$=<3<<<:=:<34:=@=,,=**===$$%%%=;==:<<=*=:::=*%%%%@$%%*%%*::=**=:<<:===%@@@@%==%%*=::*%=:3<:*:,,<<;$@@$%$%=;::,,:<:=*:<<<:=%%%%*====*%%%%*::=%@%<<:=*%%%%=::=**=::<3<:%$$$$%%;<3<,:;===::=*%%%*=;<<=@$=,:=%%%%%===*===%%=<33<==;<,<<<<:,:=@$%%@%;<<<<:;:4333:%%::;==;;=%%%%*;:=-<3<=%%====%$%%%$@@%%%%*=====*:<3:=;:=%@@@$**%%%=:<=%+%;<<:=%*%@;:=@@%%@%%%%=<<,;==;,<<<<334<<<33444<:==*%%=*===%%%=::;:::>;==:;=%%%*%%%%@@@",
"=%@@$$@@@@@@@%;::%%**%*==::=%%%%=*%%%%*==:<333<::<<3343<<<444<=@@%$$$$@%::*@@%**:<:*@@%:<:=%%%*%@@#%%====:<<=*%=;;=*%%%$@@$%&%%%;:;=%%=,<:====%%%%*=;*%%==*%=,333<,=:<44<:=$@@@@%*==;:<<43,=:<43<:*=;:==;,::==;====::::<43:;==%$@%;::=%%@@$=%$@@@@$*;:%@@%%*::=%@@%%=;:43<==;:=%%%@@@@%%$%%*%$%:<<<2,=%:<<:====%@$%%@@%:3444<:=:,<3<;@=::=%%==*$$%%%====:<:==;:,:=%%****==*%%%*;:;=**=<<:===%@@$$*==%%%*;=%*:44<:*:<333>&@+@%$@%*=*=:<3<;*:<<<<:%$$$$@@%%$@$%%%=:,=%=33,==**=**=====%%%;<<:*%$$$%%=:<:*%%==**%%%*====:43:%=:<;%$%%%%%%%$%%%%*:343<==:343<<,::;*$$$@@*:3344:;:4444<=%=====;:;*%%%*;:==<3:*%*=;=*%%%%%*****%%%*=;==*;<4:==:=%@@@$===%%=::=$@;<4<:==:;=,:%@@$%@$*===<<:=**=;<<<<334,:,43344<:*%%%$%=;;=%%%=:===&=;;:<<<:%%*=:=*%$@$",
"=%$@$%%=:;=%*:<<,*%%%%*==::*$$%%*=%%%%%%=:<334<:=:<34<:===:<3<*@@%@@$$@@*:;%*==%;><,=%%:::=%%==*#@@$%====:<:=*=::;=%%%%%%*=*%%%%==::=%*:<:%===%%%@%%*%%%=%%@=,333<<=;<44<:*$@@@@@%*====;:;==:<3,;=:,<:=;<<<<<3<<<:;===*;:,:=*%%%%=::=%%%$@$=*%@@@@@%==@@$%%*=,:*@@$%*;:,:=%%*==;::::::::=*=::=%%;,<2<:%%**%*===%@@@@@$*:3434<;*:<243:%%*==%%$$$@#$%*==*=:,=*=;::==**========%%*=;::=%%::;%==%@@@@%*%%%%**%$=<44<:%:<333,&@@@@@@@*==*%%==**,<<<:=%%*=*%%===%%%%**===*=><<,:=%%$%%=::==%%%=:;*%@@$$%===%%%=;::=%$$%*==:<4<:=::====:==::,:==::;==:<3<:==,,::====%%%%$@@=,3332:;,4444<=%$%=*%*==%%%%*;:==><:%*=::==*%%*=======%%%=;:=*=:<;=*:=%@@@#%*%%%%=;%$*:<<<:==:<<<:=@@@%@$%==;:<:::;==,<<<344:=:34444<:=%%*%%====%@%=::;=====;:34<;*=<<<:*@@$",
"*%@@@%=,<<:==,4<:=%%%%*==,:%@@%%*=**%%%*=:<33<:==:<<4<=%%*=<<<=***@@%@@@*,,:::=*:,<<:=$=::*%%*=%#@@$%==*=:<=**=::=*%%**=====*%%%*=;:=*%;,:%===%%$@@%%%%%=%@@=<<<,,,==,43<,*$@@@@@%=;;==*===;<<<:=:<<<:=;<34333<<<<:;=%%=;::=*%%%*=::*%%*%@%==%@@@@@%==$$%%%%*,:=%%$$%====%$%*=::,:><<<<<:==:<:=%=:<<<,=*%%%=:::=%@@$@%=<3<<<,=%;:<34<*@$**%%@@@@$$%====:,:=%=::=%**====;====%%%*=::=%%:::%==%@@@@@%%%%%%$@$:<44<:%:<<<<,=@@@@@@%=:;=%%%%*-<<<<;*%=::===:,::=;::;===%%=::::=%$$%%:::==*%@%=:*%@$$$%==%$%%*=:<:=%$%%%=:<<:=====;:<<<<<<3<:;:<<:==:<2:==========%%%$$$@=<433<;::<<<3<;%@%=*%%*%%%%%=;:==,<;%=:::=%*%*===;;;;=*%%%=;=**;<:=*:=%@@@@$$%$%%*%$%;<<<<:=*:<<<,=@@@$@@@%===:::<:==,<33444:==<44443,==*=%%=;;=$@@*::==**%*=:<3<==:333<=%@@",
"$@@@$*:<3<<==:3<:*%%$$%=;<:@+@%*==**%%*=;<<3<,=*=:<<3:=%*==:<<::;%@$$@@$=<<<3:==:<<<<;$%==%%%%%%@@$$%==%=:,*%*;:=*%%*========*%%%*=::=%=:,====%$$@@$%%%%=%$@;<<:;;:==:33<<=$@@@@$=:<<:=%*=;<33<=;<33<,==,333<::;:<<>=%*=====**%%*=;;%***%$%=:=@@@@@=;=%%%%%%*::;=%%$%%%**%%%=:<,:=:,<<<<:==:<<<;*=<<<<,;*%*:<33<=%$%$%;<<,:,:=$%=:<3<=@@*%%%%%%%%$%====,<:%*=:-*%%====::;====*%%=;:;&%;::*==*$@@@@@%%%%%@+%>334<:%;:::<<:%@@@@%;,<,:=%%=;,<<<,*%=><,==:3333<<<<<:;=%%%====%$@%%=<,;===*@$%:*%%%%%%==%%%***=,,;%%$@$=;:=*%%%=:<<3334443<:;:<4<:=;<2<:=%%%==::;%%%$$$@=<43<<;:::::<<:%$===%%%%%%%%*;:;:<,=%=::;%%%=====::::;=*%%*==*%=,,;*;=%@@@@@@@$%%%@@%:<<<<:=%:<<<<:$@@@@@@$%***=:<:==<344477<=*:34444<:==**%&;:;@+@*,:=*%%%%*=,<:=;,<343,%@@",
"@@@$*:<<<:;=%*:::*%%%%%=:<:@X@&:=*%%%%=;:<,>:=**=,<<3:*%:<,,:;==%@@@@@@%:<<<3:==,<<<3,%$%=%%%%@@@@$$%===:,:%%=:;*%%*=;=;:::===*%%*=:=*%%:,====%$$$$$$$%*=*%%:<,=**=%=::,<<:=@@@%=<33<<,==:<33<:=:<<33<:::<3<;=%%%=;===:,<<:==*=*%%==%**%%$%=,;$@@@@;:=%%*%===:;=*%%%*=:<,:=**=;=%%%=:<<,==;<<<<<==:<<<<:;*=:<,<<:%$%$=,4,====%$%*=:<<=@%=%%%%%%%%$%====<<:%*=:-*%%==*%*====%==%%*=;=%%=,,*===$@@@@@%%%*=@@%<4<<:=%====:,<=%$$%=<<<::=*=:<<<<<==;<<<,===<33<:===,<<;%%====*%%%%=:<:;****%%*,=%%%%%=:=%%****=:::=%%%**===*%$*:<<:;=:<44<:=;,<3<<:;:33<,:==;,<3<:=%%%%%:<3<,:==*%==,<:*%=;=*%%%%%%%*;:=:3:=%&=::*%%=====;:-==;=%%=;;=%=:<:===*@@@@@@$$%%%+@*<<,:=%%%:,<<<:$@@@@@@%=;=%%%=*=:<4444774,%*;::::::=%%*%%;<,%+@=<:==*%%%%*:=====;,<3<=%@",
"@@@%=:<:=*=**====*%%%%=;,<:%@%-,=%%%$$%======%%=:<<<3:=%:,:==**%$+@@@@@%:<<<<:=*=:,<3<=@@%%%%%@@$$$$%===<<:%%=:;*%*===%=;===%=*%%*===*%%:,:===%$$%$$%%%*=*%%:::====%%==;:<<=@@$%:<<,:<<==:334<:;:<<<<3<<<3<:=%$@@%==;:<<<<;=***%%*==***%%%%*:=$@++@;:*%%%%%**;==*%%%%=:<<<:;==*$@@@%*;:,::,<<<<<-=:<<<<,;=::;=,<<=%@$=,3:=*=%%%===:,:%%%=%%%%%%%%$%====<,;%=;:=*%%**%%%===*%**%**===*%=::=*==@@@@@@%%%*=$@*<<:;==%%*==;,3=%$$%:3,:=;===<33<<<==:3<<<:;:<<<:=%%%=;;===:,>:==**===::===**%%=,=%$$%%::;%%**=*=;:=****==;:::=%*=:;*%%=:<43<;,<<<<<:::333<,;=:<<<3<:%%%$=<4<:===**==;:<:=%=====%%%%%%=;;=:<:=%*=;==%*==%*====%%==**=;:===:<:=*=*$$$$$@@$$%*@@*<,:=*%%%===;::=$@@@@%:,<:=*%%*;<34444477<=%*==**===%%%%%=:<:%%:3<;==*%%%%*==:=**%:,:=$@",
"@@@%=::*%$%%=;==%%%%%*=:<<:=%=::=%%%$@%%%$%%*%%*:<<33,;%===%%*==%@@@@@@*:<::,;*%&==,<<=$@%%%$%@@$$$%%*==<,;%*=:=*%*==%$%=*=%%*%%%%*===%%::=*==%$$%$$%*%%==%%::==::=%%%==:<,=$@$=<<:=;,,==:444<:-:<<::333<3<;%%$@@%;:,<33<<;=%%%%%=;=***%*%$%%%@@X+@*=%%%%%%%*;;=*%%%%=,333<<:==$+X@@$*:<<<<<:,<<==:<<<3,:=::;*:<3:*$%=:<:===%$%;::;:=@%==%%%*%$$$$%==**,:=%=;:=%%%%%$%*===%%%%%%%*===%=::=**=@@@@@$*%%%=%%=<<====%%%==:,<=%$%=<<:=*:;==<333<,=:<4<<<<,,<<:*%@@@%*==:<343<;==*===:;===***%*,=%@@@%::=%**&======%=====:<3<<:===%@@%%=:<3<<33<,<3<::3333<:;<<::<<,=%$#=<3:==*%%=::;;::=*======%%%%%=;;=:<:=%====***=*%%====%%=**=*=::===<:=%=*$$$$@@$%@%*$@%<:=%=%$%%%%*:,:%@@@%=<<<,:=%=:<344444477<;%===%*=:;====*=;:<==:3<,;==%%%$%=::*%%@%==*$@",
"++@$===+@%*%=:,=%@@%%=:<3<:*=;=%%*%%%%*==%%==%$%=<<33<:*$@@$%=,,;%@@@@%-<:=*=*%$%%*;<<=%%=%$$%@@%%$%=*%*::=%=::====*%%%====*%%%%%%%*-*%%=:=%*=%$$$$%%%%%==*%====:;=%%%;=;,:=%@%;3<;=:,:*=,444<:=;<:;;3<<<<<;%%$@%;<3<<333<:=%%$$%:<:%****%%@@@+++++@@@%%%%***:::*$@%%;<<<<333<<*@X@@$%:<<<<,==,<==:<333,;=:<<==,4<;*==:<::;;%@%;::==&@%==%@$*%@@@@%=*%%::=%=;;*%*%%%%*====%%%*=%%%===%%;:=%*=$@@@$%*%%$=%%=,:=;::%%*:=:<:=*%%:3<==:<:==,<33<,*;<4::<4333:%@$@@X%=:<34444<==*%*==:;==%%**%%:=%@@@%=;=%*=**=;===%*====;<3433,:;%@@%%*=<4444<::<3<;:3444<;=:<:=:<<:%%%*:<:===%*=:::;;=**==**==%%%%%*===:<;%%=-=%%%==%%==;==*%%%*=%=::%%=,:=*==$$$$@@%%%%*%@%:===;=%#$%==:<<*$$$*:3<:::;=,34444444474:==,<:=:<3<<,:::;==::;:<44,=*%%%%=::=%%%@@@=%@@",
"@@@@==%@$&&%%=<:*$$$$*=::=*$%*==:::::::::=*=::=*%;,33<<:=*%%;:<<,=@@@@*:<:=%%%%%====::*%*=%$%%@@$$@%=*%*::=%=;:=*%%%%%%*===%%*=*$#$*=*%%=::===%$@$$%==%%==%%%%*====%%*<::<:;;=;,4<:==;=*:<344<<=====:3<<<<<<:===:,<3<<333<,;*%%%=,<:%**%%%%$@@@@@@+@@$%&%%===,,:=%%$%:<<<<<<<<<:*@#%*:<<<<<<=*==%=,<<<3<:==:,==:4<<,,;=,<<::%$%====*$@%*=*%*;%$@@@%====<:=%*=;*%%%===%%**%%%;:=%%%===%%;:====$@@@%%=*%%=%%%;;=:::*%=::<<===::<3<==:,:==<333<<==;:=;,4444<=%%@@@=,33344443:=%%%=;,:===*%*%%*%$@@@$%%%%======;::=%%%=*;<3333<<<;%$%%*;<3344<,;::;=:3443<;==::=:<3<==;=:<:::;%======*%*=======*%%%%*;;;:<:*&=;=*%%=::=%%&%%**=***%*==%%=<:=%==$$$@@@%%@%**%%====:=%@$%==:<:*$@$-<<:==::=:<344444444:;:<<<==:33333<<<<::==*==::;=%%%%*;::*%%%@@$=*%@",
"$@@@==%@%&%%%=,:=%%$$*====%$%=::,:::<<<<,;*;<<,;%=:<<3<<,=%=;::<<:%@@@=:<:=%%$@%=;;*==%%*=%$%%@@@@@$====,:=%*=:*%%%%=%%*==%%%===$$%*==%$=:,;==%$@@%*==%%==*%$%%===;*%=<<<<=;,,<<4<:=====:<3443<:===:<4<<333<<,,<<<33<<3333<;=***=<<:***%%%%%$@$@@@@@@%%%%%===,<:=*%%=:<<<<<<<<<<:===:<<<<<3<:*%%=:<3<<3<:==;;==:3<33<:=:<<<:*%===*=%@@$%=*%*==%@@@%===:<:=%*=:=*%**==*====**;;=%*==;=%%=::===$@@@%%*%%%=*%%*==;:;=*=<<<:==:<<<<<===;===<3<<3<:**=&;<4444<:=%%%*:<44344443:=%%*=:<,;==*%=%%%@@@$@@$%%*======:<,=%%%*=:<3334443<:===:,<33333<;===;,3333<:==;;;:<3<::,=:<<<<:*=;====%%=====*===%%%$*;;:<3:**===*%%=::=%*==***=***%*==%%=<<:*==$$$@@%%%%%==%$$*===*%@$=;=:,==%%*:<,==;::=;,<4444444<;:<34<;=:<343<<,,<<:=*%*=;;=*%%%%=;:=%%%%$@%=;%@",
"$@@@:;%$%*%%%=::=*%%%*=;::;%%=,<;*%*:<<<,=*;<<<<:%=<<<34<;*;=*%:<<=$@$*:<:===%@$=:;**%%%==*%%*%@@@@$====<:=%%==*%%*===%%*=%%*;=*%%%*==%$=,<;==%$@@%==%%%***%@$%;;::=%=<3<,=;<2333<:=**==,<34334<:=:<343333333444<<<<333333<:=;;;;<<:*****%%%%%%$@@%%%%%%%%**%:<:****=:<<3<<<<<<<<<,<<<<<<<3<<;**:<44333<,-====;,33443:=;<<<:*%;::==$@@%*=%%%==*@@$%==::<,=%*=:====**%=:<::;***%%%*=;=%%=:,;==$@@$%*%%%==*%%%*====;=:<4<:*:<33<<<;*%**=:<<<<32<=%%*:344444<,-=;,<344334443:=*%=;:<,;===*==%$@@%%%@@$%=====*=,<<=&*=*;,333344444<<,<<44333343:===:<3333<:=====:<43<<<;;:34<:*=::===$%=;;=%%*=;%%%$%=;,<3:**==*%%**====;:::=%%****=;;%%=<<,===$$@@$%=*%%==%$@%**%%%@%=,:,:*==;:<<:==,,:=;,<4444443:;:333<:=;,33<:====:,;=*=:::;=*%%%==;=%%*%$$%::=@",
"@+@%,:%$%%%%*=;=*%*%%=:<33<:=**=%@@$%=,<,;;:<<<<<*=,<<<4<=%;:=%=,<:*%*=;<,:;=%@$%%*=%%$%====*=%$@@@$==;:<>=%*=;**=**%%=:,::=***%%%%*==%%;:,===%$@@%===%%==*%@$*,<<,=%=<<<:=:<2333<<:===:<<<<<34<<:<<3433333334443<<<33333<<::<<,:<<:**==*%%****%$$%%*%%%%==*%:<,=====:<<3<<<<<<<<<<<<<<<<<3<<:::<<44<<33<<;==;,<33443,;=:<<<=%;<<:;%@@%*=%$%;:=$@@%==:,<,=%%=;;===*%%;:<:,:=%%%%**=;=%%;::===%@@%==%%%*==%%$%--:::=:<3:=*:<3<<<<:====;<:==,<2,=%%=<4443333<<<<<<343334443:;=%*=:<:===***%%%$%%%%%%%%*=**==;:<<;====:<3333444443334444333343<<:,<333333<:===:<33333<:;:34<:==:<<:=$%=::=*==;:=%$%*=;::<:=%=**%**%%*=:>::<;*$%**====%%=<<,=;=$$@@%*%$$%*=%@X$*=*=*@%:<<<:*=:,<<<:==::==;<3444444<;:<33<<<<,<4<:*%$@$*===:<<<<===**%%%==%%*%%$%::=@",
"@X+%;=%$%%%%%=;==%%%%*:<343<::=*@+@@$%=:<<<<<:<<<==:<<<3<;%-::*=:<<:::==:<<,:%%**%%*%@$%===%%*=%@@@$==;,<,=%*=;===*%%%;,,;,:=%%%%%%==*%%=:=**=%$@@%=;=%%=**%$@%:<<,=*=<<,==:<<33<<<<,,<<<:=;:<<,:=;:<33333<<333333<<<33<<<<<<333<33<:;===*%=**%%$%===****====<<<:>:;=:<<<<<<<<<3<<<<<<<<<<3<:=*=;,<,:==:<<<,,<<344444<:=:,<:=*=<<<:%@@%==%%%:=%@@@%====::=%%*=====%%%=::;,,=%%%%%*=;*%%=;=*&%$@@$===%%==*%%@%:<<<:=:<<;==,<<<334<,::,<<:=*=::==*=;,3343333334433333334443:;=;=:,<:=*==***%%%%%%*=***=======:<<::::=:<3333334444444433333333<,::<<3<,:,<,:::,344333<:;:<3<:==,33,=$%=,:;===;:=%$%*===;::=%*==*%%*%*=<::;<:*$%&%*==*%%=,,:===$@@@*==%@%*=%@X$=;::=#%:<<,;*;:<<<<:=*====:<3444334<=:,<<::<<<<4,=%%@@@*;::<<33,==*%%%%===%**%%$%*=%@",
"@X+@%%$%%%%%%=::=%%%%%:<<333<<:;%++@@$=:<33<:=:<<==:3<<<<;*=::==:<<<<<==;<3<:*%=;===$@%*==%$%==*@@@$==;:<,;%%=====%%%%;,:=::=*%%%%%==%%%=;%%*=%$@@%=;=%%=***$@%:<<:=*=,<:=;,<<333<<33333<;**=:,;=*=;:<<333<<3333333<<33<<33<<3334443<,;==**=*%%%%%=======*;:,<3<<<<,:,<<<<<<<<<<<<<3<<<<33<<;*%%*=:=*%%;<333444444444<:=;::==**<3<:%@@%===%%;*%@@@%===*=;;*%*===**%%%==:;::=%%%%%%==%$%==%%%%@@@#*==%%==*%%@%:44<==;:,=*;<<<<3444<<<343<:*%==*==;=:<333333334433333334443:;:<:,<<,;==========%%===========;:<<<<<<:<<33333333444443333333<<::==:<<:==:<<<,<<444343<<:;,<<:==:43,=%%=::;=*=;:=%%%*====;:=%*===%%=%*=,:;;:=%%%%%%==%%%=:;=*==$@@@*==%$%**%@X$=:<,=#%:<<:==:<<<<<<;=*==;,<3444333<;=:,:=;<<<<3:=%%$@%=:<<<33<,==%%%%*::=%**%%%$@%$@",
"@@+X@@@%**===;<,=*%%%=:<<33<<33<=@+@$%:<<33<:%=;;*=<<<<<,;****%=:<<<22:==<3<,=%=<<:;%@%*==%%%:;*@@@$===*;::%%*===*%%%%=;:=:;*%%%*%%===%=:;%%==%$$$%=;=%%====%$%=<<:%%=:<:=:<333433333<<3<<:;=***=::;:<<33333343334333333333<<<<<33333<:=%%%=%%%==========*;<33344<<<<33333<<<<<<<333<<<<33<,==::=%%%%*=:<3333344444443<==::=%%*,<<;%@@$*=*%%;%$@$$%%==%%=;*%%==%%%%%%%=:<:=%%%&&**==*%=-=%%*%@@@@%==$%===%%$%=<3<=%*;;==:<<<<444444444443:=**=::,=:<333333334444444334444<,<43333<,:===:;==:=%%%%*==;;==;:<333333444433333333333433443334<:===*=;:===;,2444334444433:;:<,=*=:4<:=%%==;==*=;;%%%%%=;===:;%====*==%%*=:,:=%%%%*%%*=%%*;=%%*=*$@@@@%*%%%==%@+%;33<=%=:,,=*=,<<<3<<,::::<333444444<:=**%*;<<<<3<:=%%%=,3433333<:=%%%%=,<:%==***%@@@@",
"@@@@@@%**%%*=;<,;=*%%=:<<<<<<<<3:=%*=:<<333<<;=*=;:<<<<<<:=****;,<<<<<:==:<<,=%=<<<:%@$%==%%%-=*@@@$*==%*;;%%%=*%%%%%%%=:,:=%%%*%%*==%%=::%===%%$%%=;=**===*%$%=<<;*%=:::=:<<<34333333<3<<<<;%%=::;=:<<3333<3333333333333<<<<<<<333<<3<:=;;=%%*===*%*====*:<3<<333<<<<3<<<<<<<<<<<<3<<<<33<,=;:,:=%%=:<<33333343333333<:==:=*%%:<<;%@@$%==%%=%@@$$%%===*;:;*%*=*%**%$%;<<<:%%%****=%%%;:=%==%@@@@%*=%%==*%$$%=<<,%%*;===<<<<<344444444443<;*=:::==;<3333333344344443344442<3433333<<;==;;=======*&======:<33333333443<<333333333333333334<:=;:;=**=:,<<2343344444444,;=,:=*=;3<:=%%=======;=%%%%%=:;=;<:%%======*%=:<<<:*%%*****%%%=:=%%==%@$$@@%%%$%==%@+$=<2>=$%=;;=*;<<<<3<<<<,,<<33443<:<<<<=%$$=:32<<3<<::::,<3333333<<=*%%*=<,;***%%%%$@@@",
"@@@$@$%%*%%*==<,;=***;,<<<<<<<<3<,::,<3333<<<,=*=:<<<<<<<<:====:<<<<<<:;*;:,:=%*<3<:%@@%==*%%==*$@@$%==%*=:=%%**%%%%%%&;<3<;%%**%*==*%%:,:*===%%%%%========%$$%=<,=**=::;;<<<<33333333333333:*%:,,==:<<<33<<<<33333333333<<<<333333<<3<<,<,:=*=====*=;:::=,<<<<3333<<<3<<<<<<<<<<<<3<<<<33<,==:,:=%%=,333333333333333<<,=====*%:<<;%@@$%==%%%%$@$%%%====:,:*%%==%%*%%=:33<:=*%%***=%%%::;*==%@@@@%**%===*%@$%*,<:%%*=*=;<<<<<344444444443<:==,,:==:<33333333333333333333334444333332:==:;=====;;=&=====:<344433333443<<223333333<<3333334<:==:>;*%;<3333333344333444<:=::=**=<<:=%%*========%%%%%*::;:<:*%*====%**=:<43,=%%&**=*%%%=,===;=%@$$$@%%%%%==%@@%=,2:*$%*==**:<<<<<<<<<<<<3<344,;=;,<,=%%%=,4<<<<<<<<<<<<3333333<<;====:<,;****%%%%%%%",
"@@%*%%%%%%**%*,,:====;,<<<<<<<<<<<<<<33333<<<<:==><<<:::<<<<,:,<<<<<<<<:==;;=%%*,<<=%@@%==*%$*=*%$@$%====;::%%*==%%*%%=:333:=%%%%===%%*:<:=;=*%$$$%==%*=***%@$%;,:**==:;;,<<<<33323333333333:==,<<=;:3<<33<<<<<33333333333333333333333333333:======;:,<<<<33<<<33333333<<3<<<<<<3333<<<333<<;**:,:**:<33343333223<<<<,::======%=:<;*@+%%==*%%&%@$%%$*=;=:,,=%%==*%%*%=,333<=*%%%***%%*::;==*@@@@#%*%%===*%@%%=,<:*==**=:::,<<<3<4444444433:=-<<:=;,<<<333333344333333333333344333333::;::==*=:::;==;::::<443333334443<<<<333333<<<3333334<:==:<:=*:<43444433443334443<=;::===,<:=%%*=====*==%$%%%%;:::<:=%%===*%%*;<<44<=%*%%*==%%=:<;==;=%@$$@@$$$%*==%$@%=,3:*$%%=*%=,<<<<<<<<<<<3<<343:=%*;:-**=*=:3<<<<<<<<33<<333333<<<;;::::<,:=***%%%%%*=",
"@@%==*%***====<<::::==,<<<<<<<<<<<<<<33333<<<:*%$=:,:*%%=,<<<<<<<<<<<<<,===;*%$%:<<=%@@%*==%$$%%%%$$%====::,=%%===%%%%=:333,=*%%%***%%=<<:=;=%%$$$*==%%=**%%@%=:,:**=====:::,<33322333334433,;;<33<<<3<<33<<<<<33333333333333333333333333<<3:======:<33<<<33<<<<3333333<<3<<<<<<33333<<<<<<3<::<<,==:<334443332233<<;**==*%%%*%=:<;*$+$%==*%%=*%@$%$%=;=:<<;&%==*%%**=:33<:=****%%*%%=<:;==%@@@$%**%%===*%@$%=<,:=%%%%==**=:<<:;<444<<<33<:=:<<<<<<<,<<33343344444333333333344333333<<<<<::==:::;;:<4<<<<443333333444<<<<3333333<333333343<::<4<:=:<4<3444344433343<<,:;::===:,:=%%%====**=:=%$%%%=::;<<;%%%=*%%%*=<<44<;&=%%%=*%*=:<:=;;=%@@@@%%@@%==*%$@%=<4:=%===%=:<<<<<<<<<<<<33<3443<:===*=;:==;<<<<<<<<<33<<<<<33<<<<<<<<<<3<,====%%**===",
"$%%===*=====::<<<<<,::<<<<<<<<<<<<<<<33333<<<==***==*%%*;,<<33<<<<<<<<<<:===*%%%:<<=%@@%*==%@@%%$$$$%*-==:,<=%%*=*%%%==:34<:*%%%%%%%%*;<<:==*$$#$%===%%=*=*%@%=::;%%==*%*====:<3<>,<<<<<<<<4,;;<3<<<<::,<<<<<<<33333<3333<<333333333333<<<<3:=*===;,<33<<<3333<<3333333333<<<<<<<3333<<<,::<<,,<3<==:<3<<<3333<,<<<:%%%%%%%%%%*%;<;=%+@%*==*%==*%$$@%=;=:<<:=%***%%**=:<3<:=***%%%%%*;<:==*%@@@%%==%%*==%$@%%=<:;*%%%%%%%%%=,:;;<44<;=;,<<==:<<,:<<:;:<333443344433<<33333333333333333343<<:;:::;;,343333343334433443<<<<<3333433344433<<<<<<34<:=:<4<343332<<<43<:==;===;===:<,=%%%====*&=:=*%%%%*;:;<<:****%%***=:<44<;==%%%%%%*:<<:-;;*%@@@$=%$@%=**%@@%;<4:====*%=;::::<<<<<<<<33<3333<<=*%&;:;==;<3<<<<<<<<<<<<<<<3<<<<<<<<3333<::=*%%*==**",
"***====;=**:<<<<33<<<<<333<<<<<<<<33<<<3332<:==::=%%%%=:,<<<<<<<<<<<<<<<,===**%%=:<=%$@%%*=%$$**%@@$$%===:,<:=%%%%$%&==:<4<;%%%&%%%%&=,3,:==%@@$%=;==%*===%$$%=::=%%**%%%*=**=:<:=:<3<,::::3,;;<<,:::==:<<<<<<<<<<<<<<443<<333333333433<<<34,=%===:<<33<<33333333333333<33<<<<<<<<<<<<<<:==;::,<3<=*:<<,::,<33>::<:=%====%$$%%%%=,:=%@@%*===%*===%@@$%==:,<<:*%%%%%%**=,<:=%**%%%%%*;,<:==%@@@%*=;=*%%*=%@@%*=<:=%%%$$%*=%%%:==:<44:%@%=:<==:<:==::;=:<333433333333<<3343333333333333334444:;=::;=,343333333334444443<<<<<<33343334443<:::<<<33<:=:<2,<<<<<<::<3<:***==%%===*=:,==%%%===**=;:==%%$%=;;<<<:==%%%%***=:<3:==*%%%%%%=,<<;-==%$@@@%=*%%==%%$@@%;<<:*=*%*%*=*%*=,<333<<33<<<<<<<<:=%=::=%*;<33<<<<<<<<<<<<<<33333<<<<<<<33<<;*%%==*%%",
"===****==**:<<<333<<<<<333<<<<<<<<33<<<3332<:=;:,;*%%=<33<<<<<<<<<<<<<:::==%%%%%=:,=*%@%%*=*%%==*@@%$%===:,4<;%%%%%%%=*=,3,=%%%%%%%%*:<<:;=%$@@%=;;======*%@%=;:=%$%%%%*;,<,:=::;=:33,=%%%=<:;;<<;*====:<<<<<<<<<<<<<<443<<33333333343<<<<<4:*%%%*:<<33<333333333<<333<<<2<<<<<<<<<<<<<<,=*====:<<==:<:=%$%:<3>;;:;*;,<<:;%@$%%$*::=%@@@%*==%*===*%@@$*=;:,<:=%%%%%%**=:<:*%%%%%%%%=:<<:=%@+@$*====*****$@@%=;<:*%%$$*;:<:=%===:<44,*@@$=,==:<:=%=;;;<3333433333333<<3343333333333333344444<:=;==;<333333333334433443<<<<<<33343334443<====;::3<:=:,:===:<<<:=;3:=*:::=%%%*%%%;:;=%$%%======:::=%@@%=::<<,==%%%%%%%%;,<;==*%%%%%%:<<,;;=%$@@@%;=*%==*%%@@$%;<<:**%%%%%%%%%%;<3333333<<33<<<3<=%=<:%$*:333<<<<<<<<<<<<<<33333<<<<<<<3<<<:=%*==%%*",
"===*%*=::==,<<<<33<<<<3333<<<<<<<<33<<<333<<,=*=::=%%:<<<<<<<<<<<<<<:;*%*%%%%%%%%;,==%@$%**==%*==%%%%%%==;:<<:=%%%%%%%*=:<:*%%%%%%%*;:::;==@@$===;;======%$@%==:=%%%%%=:<<<<,=;:==:44<:%$$%;;=:<:====--:<<33<<<<<<<<<33333333333333343<<<<34:%@$%%=,2333333333333<3333<<<33<<<<<<<<<<<<<<=======,,==::&#@@%:33,;=:==:<3<<<:=%@@@%=:;*%@@%%**=**=%**%@@$*==%=::=%%%%%*===:=*%%%%%%%%;;=-=*@+@%*=======*%%@@$%=::=%$$%=:<<<<:**===<33<=$@@%=*=::;======:<3344<<3333333<333333<<33333333444444<:*=**=<433333333334433433<<<<<<33333334443<:;;;===<<:=:;*$$%=<33<==<;=:<<<<:=%%%%%=;:=*%@%*=====;:;:=*@%%=;;:::==%%%%%%%=::===%%%$%%=::====*@@@$%*;=%%==%%%@@%*:<:=%%%%%%=:::=%=:33443<<<<333333<:=:3<:*:<3<<<<<<<<<<<<<<<<<<<<<<<<<<<<<<<<<,:,:=*==",
"=====;:<,::<<<<<33<<<<<<<<<33<<<<<33<<<3<<<<<:==:<:*=:<<<<<<<<<<<<<:;*%%%%%$$$%%%=::=%@@%%%==*%==*%%*%%%===;::;*%%%%%%*==,;%%%%%%%%*;==*==%@@*;==;;=====%%@$%==;*%%*==:<3<<<,=;;==:<<<:*%$%===;::======:<<333<<<<<<<33333333344333<<3<<<<334:=$$%*:<23333333333<333333<<<33<<<<<<<<<3<<<,=======::====$@@@=,33:==:==<<<<3<<:=%@@$=:;=%@@@%%*=***%*=%@+@%%%%%=:=%%%%%*=====%%%%%%$%*==%&%$++@=========*%%@@%*=:;%$$%=<<<<<<:=*==*:,::=%@%%%%=;;====***=,3344<<3443333333333<<<<3333333333333<;%%%%*,33<333<<3333333433<<<<<<33333444443<:;;;===:<:=;=%@@%=<33<==:;::<<<4<:=*%%%==:==%$$%*======;::=%$%===*;;=%%%$$%%%*====*%$@$$%=;=%*=*%@@%*%*==%&=%%%@@@%*:<=%%%%%%=:<<<:=*:<343<<<33<<<<<<<:;:44<::,:::<<<<<<<<<<<<<<<<<<<<<333<<3322<<<<<:===",
";;==:<<<33<33<<<33<<<<<<<<<33<<<<<33<<<3<<<<<<::<<:==:<<<<<<<<<::,<;*%=;;=%@@$%%$=::=%%@@%%===%*=%*==%$$==%$*:,=%%%%$%=====%%%$@%%%&=*%%%%@@%=:=*======%$@@%*====***=:<33<:::=;::*=:::;=%%%=**=:====*===:<3332233<<<<33333334443<<<<3<<<<333<:=%*;<<33333333333<333333<<33<<<33<<<<<33<:=*%$%*=====%%%$@@$:<<<:=;:;=,,::<3<<:=%@$%;:=*$@+$%***%%%%*%@@@@$%*%%*%%%%%%***%%%%%%%%%$$%%%%%@+X@%==*%**==*%$@@%*=;:=%%%=,33<:=::====%*==%%%$===$%**%%%%%%%%;3344333433333344333<<<<3333333333333,=@@@@&:33<<<<<<<<<33<<333<<<2333333344444<,===;::;;::==%$@%*:<<<:==:;:::,<44<,=**===:;==%@@%*=;====;::%%$%%%%*=*@%%%%%%%**%==*%@$%@%=*%%%%%@+@%=%%*%**=%%$@@@*=;:=%%%%*=,<<<3<:=;<33<;<343:;=;:<<::,44<,::=*=:<<<<<<<<<<<<<<<<<<<33333333<<<233<<;==",
":;==<<<<<<<<<<<<33<<<<<<<<<33<<<3333<<<3<:==:,,,<<:==:<<:;;:<<<:=;,=%=,<<::=%@@@@%=,=*%@@$&**=%%=%%==%$$%%%%%*=%%%%$%%*=**%%%%$$%%%%**%%$$@@$*==%*==*%%%@$%*=;===**:<<<<<<====:::=*=***=**=;=%%==%%%*===:<3332233<<<<33333334443<<<333<<<333<<:*;<<<33333333333<3333333<33<<<33<<<<<<<<,==*%%%%%%*%%%==%$%*===*=:,:*====<<<<<:=*%%%;:=*$@@$%%%%%%%*%@@@@@$%=*%%%%%$%***%%%%%%%%$$$$%%%@++@@%==%%%*==%@@@%%*=;;=**=:<33<;%==%===%*==;=%@$*==%%%%%%%====:33433344333333444333<<33333333333333<:=%%*:<33333<<<<<3333<3333<<2333333344444<:===*====;=%==*$%*======;<;;:;;,4443<:=====:===%@@%*;;==*===%%$%%%***%$%%%%%%%%**==*%@@$@$%%==%%$@@@%=%%%%==%%%@+$%%===%%%%=:<<<<::::=:<3<:;<33<=%@$%;<::,3<-*====:<<<<<<<<<<<<<<<<<<<<33333333<<<233<<:==",
";=;:<<<<<<<<<333<<<<<<<<<<<333333333<<<3<,===::::<:==:<:*%%=:<<:==:=*:<<<<<:=%@@@$*::=*$@@%%*=*%%%%==%$%%%%***%%%%%$%%****%%%%%%%%%%**%$@@@@%%=*%*=*%$$$@%*=;==%%*=<<3<3<<=*==:,:=*=====%%*==*%&%%%%*;=;:<33333333<<<<<333333443<<33433<<3333<:*;<333333443333333<<3333<<3<<<33<<<<<<<<<:===*%%%%%%%==*%$%*%%%%*=<:=%%*=<<<<<<:=%%%=;:=%$@@$%%%%%%%$@@@@@@@%****%%$$%%**%%$%$%%%%%%%%@@+@@@%%%%%%&*%@@@$%*=;;=**=:<333<;%%%%;-==;:,<:%@@$*=%$$%%%*=;=:<3334444433333444444333333333333333<<<<<==;<3433333<<<<344333333333333<<<343334<:=;=%%%%%**%===%%%===*%=;<:==*=:43343<:=**=;;==%$@@%*===*===%%$##%%***%%%*%%$%%*=**%$$$%%%%===%@@@@@$%%%%%**%%$@@%**==*%%==:<33<<==;;=:<3<:=<33<:%@@@%,:::<>=*=;;=:<<<<<<<<<<<<<<<<<<<<3<<<3333<<<<333<:=*",
"===:<<3<<33<<<<<<<<<<<<<<<<<<<3333332<<<<,;=*====,:==::*@+@*:<<;==:==<<<,<<<<;%$@@%=:;*%@@$%%%*%%%%%%$$$@@$%==*%%%%$$%%*==%$@@%%%%&%=%$@@@+$%%**%%%%@@@$%*=;;=*%%=,<3333<<====::=*=::,:*%%*==*%%%%%%%;=:<<333333333<<<<<<<<334433333433333443<:=;<333333443<<33<<<<333<<<<<<<33<<<<<<<3<<:==*%%*%%%==%$@@%==*%%%=:,:=*=:<<<<<<<=%%%%*:;=%@@@@$%%%%%#$$@@@@+@%*===*%$$%%*%%@@@$%=*%%%@@@@@@$%%%%%%%$@+@@%*==:=%%%=<3333<:=%*=:-;:<34<;%@@%%*%@@%*%%=::,33<34444333333443333333333333333333<<<34;=:44444433<<<<<4443333333<333<<<333333<,;;=*%%%%%%*==*%%%=;==**=<:;*%=:433443<=%%==::==%@@@@%%**==*%%$@$#%%&==*==%@@$%*=%%%@$%***==*%@@@@@@$%%%%%%%%$@@$%===*%%*=,<333<:%*===:<4<:=,<<<:=%@@@=;;:::===;;=:<<<<<<<<<<<<<322<<<<3<<<<<<<<<<<<33<:*%",
"=%*;<33<<33<<<<<<<<<<<<<<<<<<<3333332<<<<:;======:;=;:=+X+@;<<<===:==<:;;<<<<,;%%%%%::=*%@@$%%%%%%%%%%$@@@@@%=====*%@@$%==%%@@@%====%$@@@@@%%%%=*%$@@@$%*=::=*%%%=<<3333<<:::<:;*=:<3<:%@$%=%%$$%=*%%==:333333333333<<<<<<<33443333343333344<<:=;<33333344<<<33<<<<333<<<<<<<33<<<<<<<3<<,=*%%%=%%%=%@@+@%,<,;=*%=,<<::<33<<<<<;==*%%%::=%@@+@@%%%%$$$$%*%@@@@%===*%@$%%%%$@@%*==%$@@@$%%@%$@%%%$@+X@@$%=;:=%%@%;333333<:::,:;:3344:*%*=:;=%@$**%%==:<3333344433333344333333333333333333<<<<3<==:344444333<<<<444333333<<333<<<<333443<:;=*%%=*%%**=%@@%:<<,===;<,;=:<444444<:%%**=::;=%$@@@$%===%%%%%%%@@$*;;==$@@$%***%@@%=;===%@@@@@@$$$$%%%%%%$++@%====%%%*;<3333<:%%%%;<34<:=;:<::;%@$%%*=:;;=====*=:<<<<<<<<<<<3322<<<<3<<<<<<<<<<<<33<=%%",
"%%*:<33<<33<<<<<<<<<3<<<<<<<<<333333<<<<,=%%%**=======%#++$=::;*=:,=%==**<<<<<,:*%%%=;:=*%@@@%%%%%%%@%%@%%$@@$%*===%$@@%**%%@@%*==*%%$$%%%%%%%%%$@++@%=;:::=%%==:,<<333333<<<<:=*;,33,=@%=:,:*$%%=*%%*-,3333333333333<<<<<<3<<3<<<<34<<<<333<<:=;<43333333<<<33<<<23<<<<<<<<<333<<<333<<3,=%*%%*%$%%===%$$:<<<:=%=:<<<<3333333<,:::=%%%=;;=%++@@$%%$%$@%==%$@@@%=:=%@$%%%$@@$*==%@@@%%**%$$$@$@@XXX+@%*=::=*%%%=,444333<<<<<;=:4<<<;==<<<:=%@$%%%===:<33<<334433333333332<3333333333<<33<<<<32;;,33333333333<344333<<343<<<<<<<<3443343<;=%%*==%%%=;=%$%=<<<,;==:<<<<<44444443:;=%*=:::;=%@+@@%%%%%%%*==*%$%%==;=%@@%**%$@$*=:=%@@@$%*%$$$$%%%%%%@@+@%====%%%*=;<3333<<:===:<343,=*==%%%%%=;=*%==*%***=*=:<<<<<<<<<<<<3<<<<<<<<<<<<<<<<3<<<<<;%$",
"%*=,<33<<33<<<<<<<<33<<33<<<<<333333<<<<:=%%%%**%**%%%*%@@%*==%%=:<;*%%%=<<<<<<<=%%%%*;:=*$@@@@$%%%%$%$@%**%@@@%*=:=%@@$%%%$@$*==%$@$%*==*%%%$$@@XX@@%=::;==*=;::,,<<33333333<:==:<<<:*%:<<<:=$$%***==:<33<<333333333<<<3333<<3<<,,,<<<<<3333<,=:<43333333<<<<<<<<23<<<<333<<333<<<333<<<,;*=*%%$@%%=:<:=%=:<<<:**:<333333<<<,::::<:;*%*=;=%@++@@@#@$@@%*==%$$@@%==%@@@$@@@@%==%@@$%*==*%@@@@@XXXXX@%==::=*%*==:<4443333344<;=:3,,<:::4<::=$@@$%*-==:<3<<<33443333333333<<33433<<<<3<<33<<<<<<=;,3333<<33<<<<<33333<<3443<<<<<<<3443343<;**%*=*%%%:,::=%%:<<<:=*:<4443344443<<<::====:::;=$@++@$%%%%%*=:;=%%$%=;:=%@%%%%$$%===%@@@$%==%$$$$%%$$$@@@@%*===%%*=;::<33333<<::,<<343:=%**%%%%%*==*%%%%%**====:<3222<<<<<<<3<<<<<<<<<<<<<<<<3<<<<<,=%",
"%=:3333<<33<<<<<<3<<33333<<333333333<<<<,;=**%*%%%%%$*==%$%%%%%%*:<:;*%=:<33<<<,;==*%%%=:=*%@++@@$%%%%$@%=;=%$@@$*:;*@@@$##@@%=:%@@%%===*%%$@@@@@+@@$%*=*==;:,,=**=:<<<<33333<:==,<::;==<3<:=&%$$%%===:<3<<<333<<<<<<<<<3333<<3<,;==:<333<343<<;:<43333333<,::,<<<<3333333333333<<<3<<<<<<:;==*%$@@%=:<<,===;:<:**;<<<<33<<:;=%%%%,<<<:=*%%$@@@@@@@@@@$%%**%%=$@+%*=%@@@@@$%==%@@%=****%$@@++XXXXX+@*=;==%%%=::<<34433333443:==,;:<<<<<;=*%#@@%%==;:<33<<333444443334433<<3343<,::<3<<33<<<<<<=;<3333<<3<:;=:,<333433344333<<<<<333<333<;==*%%%%%=:<33,=%:,,3,;*:<444334433<:==;:,::=====*$@@@@@@@$$%%*=:===%@$*:=%%$$$$%%==*@@@$%%=:=%%%%$@@++X+@@%===*%%=:,<<<<<333<<<<333344<;*=;:::=%@@$**%$%%=*==;=;,33222<<<<<<<<<<<<<<<<<<<<<<<<3<<<<<<<:",
"=:,3333<<33<<<<<<3<<33333<<333333333<<<<<,;==**%%%%%**%$@@%==*%%%*:,<::,<<33<<<<<:::=*%%==;=*@XX+@@@$$$@%*==%%%$@@%=*%@@@@@$%==*$$%*%%*=%$@@@@$%%%$@@@@$%=:<<:=%$@@%=:<<<<<33<:=*:;=:::,3<:=*%%$%=;::,<33,::<23<<<<<<<<<3333<<<,;====,<3<<343<<=:<43333333<:===:<<333333333333333333<<<<<<<,:=*%%@@%==:<<:::==:;%*;<<<<<3<:*$@@@@@=:<<<:=@@@@@@%%%%$@@@$%%%%%*%$@+$%%@@@$@$%=*@%%**%%%%$@X+@@$%%%@@+@@%%=;:::=%*=:<333333443:====:344<;===%%%@%*;:<<<3<,:<3344444334443<<<334<:=*=:3<<33<<<<<<=:<4333333<;====,333433333333<<<<<34<,<<3<,;==*%@$%*=;:<<:*::;,:;*:<3333342,;*%@$%=,<<,=%$$$@@$%**%%$@@$%*=*===*%%===$%%$$$%=%@@@$%%%%*%%%@@+XXXXX+@%%**===:<<:==;=:<<<<<<<334443:==,<<<<=$@@@@%%$%*=%%*==:<33222<<<<<<<<<<<<<<<<<<<<<<<<3<<<<<<<,",
"=:<3333<<<33<<<<<333<<<33<<33333<<33<<<3<<:=*%%%*%%%%%$@@@%::::=%%=,<<<<<<33<<,::::,::======%@+XX@@@@@@@%%*=%%%%@@@%%%$@@$$%%==%%%%%%%%%%@@@%*===*%%%%%%$=:<<=%@@@@@%=,<<<<33<:=**==,<<<<:==*%%%*=:<<<33<:=;<33<<<<<<<<<3333<<<:=:;==:<3<<343<<=:,43333333,;*===:<33333333333333333<<:::<<3<<:=%%%%%*==:,<<,;%=*%*:<<<<<<<;$@+@@@@$=:<,=%@@%%%%%***%$@@@@@$$%%$%%@@@$$@@%%%**%%=*%%%%%@@X+@%====*%$@@@@%=,<:=$@@$%=:33333444<:===,444<===*%%%$%=,<443<:==:<344333334443<<<334:=====<<3<<<<<<<<;:<433333<:=*===;<34433333333<<3<<44<::,33<<:::=%%%%*==:<<:,:====*:<433334<:%@@@@@%=<3<=%@$%%%%*=;;=*%@@$%%%%**==**==%%%$%%%%@@$@$%%%%%%$@@@@@@@@+@@@$%%=:,<<:=%%%%*=:<<<<<<3443<==:3443,=%*===%%@%*=****:<3<<33<<<<<<<33<<<<<<<<<<<<2<<<<<<<<<<<,",
"=:<33<33<<33<<<<<<33<<<33<<<<<33<<33<<<33<:=%%%%=$$%%%%%$@%:<<<:=%=:<<<<<<<<<:;=**=:<<<,:=%%$@@++@$$@@@@$$%*%%%%%$@@$%%%%%%%%=%%=*%%%%%%@@@%*=;==*=====*$%=<:%@$$@@@@%:<<<<<3<,:=%*;<334:;==*%%%*=,<4443,=*=<333<<<<<<<<<<3<<<:;=<:;=:<333343<<;:<333333<<:=*::=;<<<<<3333333333<<<<<===<<333<:%%*%%*===:34<:*%%%=:<33<<<:*@++@@@@@%;<;%@@%====*****%$@X+@@$$%@%%%@@@$%$%%%*%%*=%$$%%$@XX@%=:===**==%%@@=,<;$++@@+@=<33344443,:;,3444<==*%%%%$%;<4443,=%*:<34433<334433<<<<<3;=::=*<<3<<<<<<<<;:<433223<:==::-=,<3<<<3344433343344<:=:<34433<;%%%%====,<<<<;*%*=:<433343,=$@@@@@$%:<:%%%*=;===;:::-*%@@$%%%%%=;-**=*%%%%%%@@@%%$$%$%%@@@@%*==%%@@@@@@%=,<3,=@@@@@@%=<<<<<<344<,==<43<<:=*:<<>=%@$%====%:<<<<33<<<<<<<33<<<<<<<<<<<22<<<<<<<<<<<:",
"=:<3<<33<<33<<<<<<33<<<33<<<<<33<<33<<<33<:=%*%%%@@$%;<<:%@=:<<<:%*:<<<<<<<:=%@@@@@=:<<<<=@@@@@@@%%%%$@+@@@%%%%@%%%@@@%%%%%%=%%*=*%%%%%$@@@%**%*==::,,,:%@%;=%%==%$@@%-<<<<333<<::,<<<<4:;==%%%%%=:<444<;*%*,<333<<<<<<<<<<:=;===,;==:<333343<<:<<333333<<,=%:,:=::::<33<<333333<<<<:*%*;<333,;%%*%%%%%=:333<:;=;,<333<<<;%++@@$%%@@%=$++%=;:,::;==*%%%@@+@@$%%%%%%$@@%%%$%%%%%*%$$$@@@@@%%%%%%*=::<:=@X$=:%@@@@@X+%:<334444444447774<==%%$%%%%=,4443:*%%:<34433<<<3333<<:::<;:<,=*<<<<<<<<<<<=:<4332<<<<=*:<:=::::<<3344433444444<;*=:<3444,=*%%%====:<33<<;=;><333334<:%@@$%==*%=;=$%=:,<:::==%%=*%@@@$%%%%====*%%%%%%%$@%%%$$$%$@@@@%=;:::==%%%%%%#%:<3;%++@@@@$*,<<<<33443,==<4<:<:::3<::=%+@@&=;;=,<33333<<<<<<<<<<<<<<<<<<<3333<<<<<<<<<<<",
"*:<3<<333333<<<<<<33<<<33<<<<<333<<<<<<<<<,;==*%@@@@%=:,<;%==;,:;%*:333<<<<:%@@@@@@@=,<<;%@%****%**%%%%@@@@@@%%$%%%$@@$%%%%%%%%%%%%%%$$@@%%%===;:,<<,==%$@@%%%*=*%@@%=><333333<<<<<<<<<<:==*%%%%*=;<34<:=%$*:<3333<<<3<<<<:=**%%%==::<<<<<<<<<<;:<3<<333<<<::::=*==**:<33<333333<<<<:*%%*:<3<:=%%%%$$%*=:<<3<<<,<<<333<<<,;%@+@@%%%@@$+X+@%=:<<<,:::;===%@+@$%%%%@%$@@$%$@@@%%%%%%%@@@@$%%*===;:,<,;%$@X@$%$$%%@@X+%=<344444444474473<;==%$%%===:444<=%$%;<444332<<<33<<:======:,::<<<<<<<<<<:=:<43<<<<<<:;;;=*====:<4444443344444<=%%=,<44<:=*%%%%*==:<443<<,<233333443<;%$@$%==*%%%@$%*=:<<<<,:====%%$@@%%%**%=*%$$%%%%$%%%%%%%%@@@@$%=========;;=%#@%;:%@@$%%@@$%;<<<<3333<,==:,:=:<<<<:;==%++@%==:,<33<<<33<<<<<3<<<<<<<<<<<<<:::<<<<<<<<<<<",
"=:<43333333<<::,<33<<<<<<<<<<<333<<<3<<<<<<,:==%@@@@$%=:<,;:==;==%=:<<3<<<<;%@+@$#@@%;<;%@@*::::;=====*%%@@@@$%%%%$%$@@$%$$@@%%%$%%%%$@$%===;:,<<<3<:%$$@@@@@%*=%@@$=,<<33333333333<<<<<;===*%%*=;;:<4<:%@#&:<3333<<<3<<<<:;=*%%%%=:<<<<<<<<<<:==:<<<<3333<<<:=*%%%%%=<333333333<<<<:%%$%:<3<:==*%%$$%==;<<3332233<3333<<<,;%@@@@%$@@+++@@@%;<<<<<<<,,,:=%@@$%%%$@%$@@@$$@@@%%%$$%$@@$*====;:,<<<,;%@+XX+@@@%%%@@@$*:<33344444444444<:;==*%%*;;;;343:*@@%=<443332<<<33<,;*%%%%*=:,<43<<<<<<<,=*;<43<<3333<,;*%%%===:<4444443343344,=%%*:<43,;==*%%%%==;,33333334433344443<:%@@$*;=%@$$$%$%=<3444<,:::;=*%@%%%%%%=%$@@$%%$$%%%%%%%%@@@$%*=======:,<,=%@+@%=$@%%%%@@$%;<3333333<<:==;==,<33:;==*%@@$%=:,<33<,::3<<<3<<3<<<<<<<3<<<<:=*=:<<<<<<<<<<",
":,<43333<<3<:*%=:<<<<<<<<<<<<<3333333<::<<<<<:;=%$@@$%==;,<<:=%%%%;,<<3333:*@@@@%%%%%%;%@X$*;<<<<,>:;====*%@@@%%%%@%$@@@$$@@@%%%@$%%%%%=:<<<<<<333<:%$@$$%%@@$%%@@@;<33343333333<<<<<<<:;=====%=:,;:<3<=$@@*,<3333<<<<<<<<<<<;=====:2<<<<<<3<:*%%=<<<<33333<<==*%%%==:,33333<33<<33<:%$@$=<4<;=:;*%%%*===:<333333<<3333<<<,,=%@@@+++++@$@@+@%:<<<<,<<<<<<:*$$%%%$%%$@@@@@@@@%%%$%%@@%=:<<<<<<233<=@@@XX@+XX@%%+X@$=:<333344444447744<:;======:,:=<43:%@@%;,33333<<<<343<:;=*$%%%=,443<33333<:%%=:333333333<=**=*=:<<<3344444443333,=$@%=<43::::===**===:333<<34433334443443:%X@%=&$@@%%%%$%=<4444433<<<:=%%%*%%%=%$@@@$%$@%%%%%%%%@@@*==*===;:,<<<:%@@++@@@%%*%@@@%:<<<33333334:=*%=:<33<;==;*%%%%=,<443<<==:<<<332<3<<<<<<<33<<:*%%*=,<<<<<<<<<",
"=;:43333<<3:=====,<333<<<<<<<<333333<<==;<<<<<<;%%%%$%===:<3<:=%%=,<<<3333,=$@@@@%**%$%@++@%*:<<<<<<<<,,<,;%@$%%%%$%$@@@$$@@@$%%@%%*@%=<33<<<:::<3<;%@@%%%%@@@@@@%*<<33343333333<<<<<3<:===**==;,<;;:3,=@@$=<<<<33<<<<<<<<<<<:=;,:;:2<<<<<<3<:=%%=<<3<33333<:=;:&=:,,<<3333<<33<<33<:%@@@=,3:==<:=&=*%*==:<333333<<33<<<<<<<<:=%$@@@XX@$$@++@=,<:=%*=:<<<<:%@%*%%%%%@@@@@@@%%$$%%%@@*,<<<<<,::<<:#+@@@@%@XX+++XX$=,<<333334444444444<:;===::,<<>=:33;%@@%;<34433<<<<<43<<<<:*==;*:<3<<33333<;%%=:33333333<,;:::=:<3333344444444433<=$@$=<4<:::,====%%==:<<3<<34443334443334<:@@$$#@@@%*%%$%=,34<::<34443<=%%=*%%%%%$@@$$$$%%*%%%*%$%*::,,:;=:,<<<:%$@@@@@@@$%%@@@%;<<<<33333344<:==:<<43<===%%%%*==,<44<,;**;<<<<<<<3<<<<<<<<<<:==:===,<<<<<<<<<",
"=;,433<<<<4:==:;=:<<<<<<<<<<<<333333<:*%=:<<<<<;%%%%$%**=:33<<:;;:<<33<<33<:=%@@@$%%$@@@@@@@$%:<<<,::,<<<<<=%$%**%%%$@@@$@@@%$$@%===$%:<333<:===:<,=@@@%%%%%$$%*==:<333433333333333<<3<:;;;==;:,<<:=:3,=@@%=<<<<<3<<<<<<<<,:::=:<:::3<<<<<<3<:=%%=<<333<<33<:;::==:,::<333<<<33<<33<<=$@@=,<:=;3<:;:=*===;<<33333<<<<<<<33<<<<:;=%%$@@@@@@+X+=:<=%$$%=::::;%@%==%%%%%@@@@@%=%$%==*@%;<<<<<,;*=;:=@+@@@@$@+++@@@@*,<33333334444444444<,::::<<<33<-:<<=$+@*:<34433<<<<<4<<::::==::=:<<<<<<<34<;%%*:34333333<<:,<,;><,<<3444444444433<=$@@*<3<;:<<:===%*===,<3<<<34433333432<43<===*%$$$%%%$$%%:<<:==:<443<<:*%=;=%%%%%$@$$$%%%*%===$%=:<<<,;=*=:<<:=@@@@%$@@@@$@@$%=,3<<<333333343<,,<<<3<,===%%%%===:<44<:=%%=<<<3<<<<<<<<<<<:::;==<:==<<<<<<<<<<",
"*:<333<<<33:==>:;=,,::<<<<<<<<<333<<<:*%*;<<<<:=%%%%$%%%=:<33<<<<<<3<<<<33<<,=$@@@@@@@@$$@++++=,<:====:,<<<,*$$==*%%$@$$@@$%%%@$=::%%=,,<<<>-*=*=<:%@@@@$@%=%%=:,<<<333433333333443333<,:,<,,<<<<<:=;3,=@@%:<<<333<<<3<<<:=====:<<,<<<<,<<<3<:%%%=<<<33<<<<<,:::==;===:<<3<<<3333333<:%@+=<<:;:43<<,:;::;;<<<<<33<<<<<<<33<<<<<<:=*%%=$@+@@+X*:<=*%%$%==*%%%$$;:=%$%%%@@@$%=%%*::=@=::;:,<:=*%==%@+@+@@@$$@@%%%=:33333334444444444444344334<<<3<:;<<=@@%;<<44433<<<<34<:=*=;;=:<:<<<<<<<<33<:%%%;<33<<<<<3<,<<,=::=;:<444444444334<;%@@%<<,;:<4<::===;=;:<3<<<<4432<<343<<33<<<,:***%$@@@@$$=::====:<3::,<-*=::=%%*=%@@$%%*%%*::=$=:<<<<;%$%$=:<;%+@@@%%@@@$$$%==,<<<<<3333333444443<<3<:===***%*==;<<4<;%$%=><333<<<<<<<<<:=*=*=:<:::<<<<<<<<<<",
"%=,<<3<<<33<:;,:;=:;*=:<<<<<<<<333<<,;%%%=:<<<:=*=*%@@%==;<33<<<<<<3<<<<33<<<:=%@@@@@@@$%%@+++%:<=%$%%=::;==%%$=::*%%%%$@@%**%%*:<:%=;;%%=<,::<,,<=%@@@@@%=:*%%=:<<<33343333333344333333<<3<<:=:<<<;;<<;$%;<<<<333<<<3<<,;*==*%=<<<<<:=*=:<3:=%@@%=:<<<<,<<<<<<:%**%%=;<<3<<<3333333<<=%@=<<=:<4<<,<<<3<<,<<<<<33<<<<<<<<3<<<<<<:=@@%:*$@@@@@=:<<:::;===%$$@@@=:,*%$%%$@@%*%$%:<;%$;;%#%=<:::::=%@X+XXX@==%$%;,<<333<<<3444444444444444443,:=;<<:=:<:%%:<334443<<<<<34<;*%%*%*:3<<<<<,:<<<<=%$$%=<33<:;;,<3<<<:*==%%=,4444444443343,%@@%<<:;,43<,,::,<<,<33<<<<443222343333333<:=$*;:%@+@@@@*;:;:::,<:%%%::=%,<:*%%=%@@$*=%$%:<:%%=;;==;*$$%$%;<=%@@@@@@%%%===:,<<<<<<<3333333444443<<3<:;==*==%*=;=:<4,=@@$*:<333<<<<<<<<<=%%%%%%=:<<<<<<<<<<<,",
"%*=:<3<<<33<<::=**==**:<<<<<<<<3333<,;%$%%;<<<==;=*%%%*==;:<3333333<<<<<<<<<<<,:==%*%$$$$@@+++%:<==**%===%%%%$@=::=%$%%%@@$%%$%=,:=%==%%*;<<,::::,=*%%*=*=:<*@@$=:<334444443333344433334<33<:=%=;:<:;,,:=:<<<<<333<<<3<<:;=::=%=:<3<,=*===:<;%@@@@%=:,-===,<<<<:%%=;==;<<3<<<22333333<,=%:<,=:<<:==;,<333<<<<<<3<<<<<<<<<33<<<<:=$@@$;;=*=**==;:::::::::;=%$@+%=;*%$%%$@@%%$$%;:*%==%@%=;,:::;==%@XXX@@*::=@@%:<33<<<<<344443344444444443,=%%%:<,=:<:==<334443<<<<<<33<:====%%;<3<<<;=*=:,;%$@@$%:<<;=**=:<33<;%=;:==:3334444444443<;%$=<<;:<<:===:<<<<3<33<<<<44333334333343<:=$@%:<=%@@@+@%*=====:::*%%*;;%;::*%%*%@@$%*$$%;:=%@%%%%%*%%%%%%=:=$+++++%*=%%=:<<<<<<<<<<22<<<3433333<<<<;===%===;:,=:<4:*@@$*:<333<<<<<<<<<;;=%%%%*;<33<<<<<<<,=",
"%%*:<3333333<,=*%%*=;=:<<<,<<<<<3333<:%$$%=,<:==,:=*=**===:<2<333<<<<<<<<<<<<3<<<:==%%=%$@@@@@%:<::::==;=*%%%@@%;:=%$$%%@@%%%$%=:=**==%=;::::;=====**=;::<<<*@@@%=<333333443333343333344<33,=%%%*=,:;:,:;<<<<<<<<<<<<3<<,::<<:==:<<<:*=::;::=$@@@@@%;:=***:,<3<:%*:<:;;<<<<<<233333333<:*:,:=:<:*%$*:<<333<<<<<333<<<<<<<33<<<<;%@@+@=::::=======;;====;;;=%@@@%=*%%$%$@@$$@%*==%%:=%%=;::;==**%%@++@%=:<:*@@@=:<3<<333344443344444444442,=%%%=:<=:<:;:323344333<<<<<<<:=:::%%;<<<<:=%%%;:=%@@@$%=::====%;<43,=&;<3:;:33344444444443<===<<=:<,=%%%=,<<34333<<<<3333333433334<:=%@@%:3,=%@@@@%%%****====*%%=:**=-=%%%%$@$%%#%*==%$@$$@$%%%%%%%%*=%$@+++@*;;%$%=,<3<<<<<<<<<<<333333333<<<:;;;==;:,<<;;:3:*@@%=,<3333<<<<<<<<:,:=%*==;:33<<<<<<<:=",
"$%=:<4333333<:===*=:222<<<<<<<<<3333<:%@@$=,<:=:3,;==**===;<<<333<<<<<33<<<333<<<<:$@%:=%@@@$%*;<<<<<<<,,:=*%@@@%==%%$$$$$%%@$%==%%==*=,<:;*%$%%%%$%*=:<443,*$#@@*<333333444333333333344333<;*%%%%:::,:::<,,,<<<<<<<<333<::<3<<:=:<<==:33,;*@@@+++@%=::::==:33<=*:<4,:;33<<<<3343333333,=:::;::=%%%*;<<33<<<333333<<<<<33<<<<<<*@@@@@%:<,:=%%%%%%%%%$$$%*=:=%@@$%==%$$$%$@@@===*%%,==;::=*%%%%%%%%%%%=,4<;%$@@@=,334443344443344444444433<:*%%%=<=:,::,<<<<33333<<<<<<<:=:<<:==,33<=*=:=;;*$@@@@$$=;=<<:%=,4<:*;<44:::444444444444444<:;,:=::;%%%%=:<<33333<<<33333333433334<:%@$$%:4<:=%%%%=*%*===%%%*==%=:=%%--=%@$%%%@@%===%@@@@@@$%%%%%%%%%%%%$@@+$=:=$@@$=<3<<<<3<<<<3343334333333<,,<<,<<443<:;:3,=@@$=<<3333<<<<<<<<:,<,=;,:;:33333<<<<:=",
"@$*:<3333<<<<:=::=:::;:<<<<<<<,<<<33<<=$@@=,<==:3<<<::;::::<<<<<<<<<<<3<<<<<<3<<<;%@@$;::=======;;;;;=====;;=%%@$%==*%$$$%%$$====%*:::;;=*%%*==*=====%==:<<:*%*%@%:<333333443333333334443333<:=***=;;;==****=:<<<<<<<333<<<<,===*=,<==:33<=$@@@@@@@%=<<<<:=;<3:*%=:<<<<33<<<<33333<,;=::=;::=;=%%%*:,<23<<<<<<<<<<<<<<<<<<<<<<,%@@%@@%::==*%%===**=-=%%**%%===$%==::=%@@@@@=::;=*=<:;=*%%%*===**====**=,,;%%%$@*:3333334444444444444444444<;==*===;:======:44443<<33<<<<><,:=%*=<<:*;,<<<:%$@@@$$@%=,<3<==:3:=%=:<3<<<34444444444<<:,::=::=::=%%%=:<3<<3333<<333333334443334<=%%*%%=,:==%%=:<,==:<>=%***%*:,:*=:::=$$%%$@%=;==%%%%@@%=%%===%%=;=%%%%%%%::%%$$@*:33<<<3<<<<3333<<3333<<<<<3333<<,<<3,;;<<=@@=:33333<<<<<<<<:=====;,::<33333<<<<,;",
"@@%;<3333<<<<<:,:=;;=*=:<<<<<<,,<<<<3<:*@@=,,=;:<<,,,:,<<,,<<<<<<<<<<33<<<<<<3<<:=$@@$=<<:;==***=**===%%%======@$%=;:;%@@%$%*:,:===:::=**%%=;:==;<,:=**==:::%*==#%:<3333334433333343344433333<::::===*%%$$@$%:<<<<<<<333<<<,:===**::;;:34<;@@@@@@@@$=<343<=;<,;%%*=:<<<<3333333333<;%%%*%==;=====;:,<333<<<<<<<<<<<<<<<<<<<<<<:%@$%@@%==%*==%;::-==::=%===%*=;%%=;,<:*@XX@%:<<:==;,:=%%%%$=::===,::==*%=:=$%%%@%;<<333344444443444444444443<:::-=*==*%%%$%=344432<23333<<<:=%%%*:,:=:<<3<:%$@@@$$@%=<34<=;:<=%%*=;<<<344444444444<:====%=;;:;=**=:<<3<<333333333343334444443<=$%=*%%=======:<<:=:<<;==;=*%;:,==:<<,=%@@@$=,::=*%%%$%;;=%=:;%*:<:=%%**%*==%%%%@%:3<<<<333<<<<3<<<3<<<<<<34443<:;==:<<;=<<;%*:<433<<<<<<<<<<;***%%=,<<<443<<<3<,;*",
"@@%=<333<<<<2<<,:===%%=;<<<<<<<,<<<<<<3:%@=::=:,<:==:,<<<<<<<<<<<<<<333333<<<3<<;%@%@$=<<:=*%%%*=%%*==%$%%%%=::%%*=:<<=@+@@%:<3<;=->;=%*==%:,,==:3<:====*=;:%%==$%:<333333443333333333343<3343<<<<:==%$@@@@@%-,<<<<<<333333:==;;=*=;=;:34<;$@@@@@@@$=,343<;;,;=*=*%=,<33333333333<:=@@@@@%*=%=:<<<<<333<<<<<<<<<<<<<<<<<<<<<<<:%@$%@@%=*%=:;*;,<:==,<;%:,>%%%=%%=:<3<=@..@=33<<==;:=%%===%:,:==:<<:=;=%%*%@%%%+$=<<<333344444334444444444444443,*%%%$@@@@$*,34443<<<<<<34<:**==&=::-<<<3<;%$$$@@$@%=<44<;;::*%*=*=:<4444444444433:=$$$$@%====;;;:<34333333333333333334444443<*@%=*$$*==::;==,<,=;:<:=:<:=%*;:=;,343:%+XX%:4<,=%%%%%=<:==:,:==<3:=====***%$%%%$%=<<<<<3333<<<3<<333<<<<<3433<:=%%%=:<:;,<:=:<4443<<<<<<<<3<;==*%$=,34433<,:<<<=%@",
"@$%%:<3:;;:<223<;%%%===;<<<<<<<<<<<<<<3<;%:,:=:<:&%%*:<<<<<<<<<<<<<<<33333<<<3<<=%#&$$%;;**%%%;:<;*=<:=*;:;%%=:*%*;<33:%XX@=<<3<:===%%=,:=%:,:==:<:==::;**==%%%%@%:<333333443333333333343<<44333<<<:*%$@@@+@$%*:<<<<<333333:;:<<<:=*%=:33<:%@@@@@##$*:<43<:=;=;,<,;=:<3333333333<=%$@@@@@@$%%:<33333333<<33<<<<<<<<<<<<<<<<<<<:%@@@@@====<<,==:<,==:,:*;,,==%%%%*:<33:%XX*:33<<===*%%=,:=*::=*;,<;==::=%%@@@$%@$=333333344444444444444444344444<:%%@@@@@@$%*:3443<<<<<<33<;=,<<:==:-,<34<;%$$$@$%@%;<44<;==*=:<<,;=<4444444444433:*@@@@@@%**:<<<3344333333333333333333444443<*@$*%@@*=:<3:==:<<:;:3:==<<:===*=;,3444=+ X=<4<,=%$%=*=<:==,:;=:<<==;<<:=**%$%**$%=<<<<<3333<3333<333<<<<<3433<,=*%%%*<::,,:=344443<<<<<<<<<,;=::=%=:3443,=*%=::%@@",
"@@$%=::===*:<33,;%=:,:=;<<3<<<,<<<33<<3<:=:>:=::=%$%*;<3<<<<<<<<<<<<<<3<<33<<3<:*%%*$@%==%===%=,<:==,<:==::*%%***==<<<,=@X%:33<<;=**%*;<:==,,:=:<<:=;<<<;=**$$%%$*,<333<<333443333333334<<343<<<33<:=%@@%$@@@$%=<<<<<<<<333:--:<<<:=%%:<33,=%@@@@@@$=<343<=*=;,<<:;=,<333333333<,=$@$@@$$@$%=:<4443<<333333<<<<<<<<<<<333<<<<<,%@@+@%====:<<:=;,<:=:::=;><====%%*:<<3,*@$;<33<:=**=*=:<:==,,==:<,==:<,:*%%$@@$@%=333333344444444444334443<,,<443<=%@@@@@@$%%;<443<<<33334<;=:<<<:===:<34<:%$#$$%%$=:344<==*=:<<<:;=<44444444444<:=%$@@@@@$%=,44<:,<<<<3333333333333443444444<=$@%@@$%=:,<<:==:<;==>;=*<<:===*%=:<444:%X@;<3<:%%*=;=:<:==::==<<:*=:<,;*%%%%%%*%%=<<33344333<3333333<<<<<34333<:=%%$%:::::::<<:<<333<<<<<<<<:=,<,==;<33<;===:::%@@",
"@@@$%=;;;=%=,3<:=%=,<:::<33<<<,<<<<<<,<<:=::;=:=%%%%=:<<<<<<<<<<<<<<<<3<<33333<:%$%%$@%**=:::==:<,;=:,:==:,==*%%%*=,<<<;%@=<3<<:=*%*==:<:==::=*;,,==:<<<:=*%%$$%$=<3433<<333443333333334<<<,::=:<<<:=%@%*%@@@$%;<<<<3<<<333<:==:33,=%%=<<<<,=$@@@@@%;<<<<:%%*:<3,:==<333<333333<<;%$$@@%%%%%=,<33<::,<33333<<<3<<<<<<<333<<<<<<*$@+@%=====:,<:::,:==:;==::=;::=%*;,<<:*@%:<33,;**=:=;:<;*=::==:,:=;,,,:*%%%@@@@%:333333334444444433<<34<,:==:<3<<:%@$%%@@$%%;<433333343443:==:<3<;%%:<<33<=%@@%$%%:<333<=%*:<3<:==:344444444443,*%%$@$%$$$%=,<<;=*=;:<33332333333344444444443:%@$@@%%==;:<:===:=**==*%:::=::=%%=,344<=@$:<3,-$%=:;=:<:==;===:::=:,<;=**%%%%%%%%=<<34444333<333333333<<<344444<:=*%*=;::==::==;<333<<<<<<<<<:,<,=*=:<<:==:<<,:%@@",
"@$$$$%=<3<:=:<<=%%=:<,,<<33<<<<<<<<<:==;:=:;===*%%*=:<<<<<<<<<<<<<<<<<33333333<:%$$$@$=*=:<<<:=:,<:=:<:==:<====%%%=:<<<:%%;<<<,;**=;==:<;*%==%%=;;=:<<:===***%$@$=<3433333334433443333443<:&%#@=:<<,;$$%=%@@@*:<<3333333333<,==:33<:%%*:::,4:%@@@@$=,3,::=##=<3<:==,<3<3<<<<<33333=%@@@%=*%%;,<<<;%%=,<33333333333<<<33333<<<34;%+@$%%===%=:3<:;;=*****=;:=;:<=%%;:,<=%@$=:33:=%=:<;;::=%%*%%%=;==:<:=%%%*=$@@@=,4443333334444444333334:*$@@%:::<,=%*=*@@@$*:3433333344444<;%=,33:*@=::<33:%@@@@%=<4<<<:%%=<34<=%=<444444444444,%%$@@%=*%%*;;==%@@@%=<34322333333344444444444,%@@@$%=====,<;%%======***==*:::%$%:<44:%@@=<3:=$%;:;===*%%*=====;:<<:=*=;*%%@$%%%;<<3444333333333333333344444444<,,,:====*===%%*,444<<<<333<<<,:*%%%;<<==,444<:%@@",
"@@$$$%=<33,=:<:=%%%*:,<<<<<<<<<<<<<,=%$%%%*=**=;:::,<<,<<,:,<<<<<<<<<<33333<<<<,*$@@@%=**==:,:;;:,:==;==*:,==;:=%%=:,<:%@%*;<<:=%*=:==-;=*%===*=*%=:,:===;==*=*$*:33333333334433333334444,=%$@@%*=:::$$%%%@@@*:<<33333<:::<<<,,<33,-%*==;;;:=%@@@@@*;:===*$%=<33<,<33<<<<<<<<33333=%@@@$%%%%:::;=%$%%=:<43<<<33333<<<<<<33<<<24:=$%%%%;::===<:;====***%%==%=:<=%%=;:,=$@@%=<<:%%=:<;===*%***%*=*%=:,=**=*%*%%%$;<3443333333444444333334:*@@$%%%=::=@$%%@$$%=<444333<<<<<<3<<:,<<<:%@%==;:::%$@@@%=:>::::%%=,<33>:,33<<<<3444444<:*%@@%==%%**%%%%$@@%;<33333333333344444444444<=@@@%=::;===;=*%====:;=====%=:;=%%=,<,=$@@%:<;=%%=:;*%===***=**==:,:===:,;*%@@$$*:33344433333322244333334444444432<<<:=**%%%%%%%=:<43<3333<<<<:;=====::==,444<=%@@",
"@@$%$%=<33<;;:===:===:<<<<<<<<<<<<:=%$@@$@@%%%=:<<<<<<,<<,:,<<<<<<<<<<3<<33<<<<<=$@@$%*==**=:,:;;-==*==*%=;==;,=%$*=:<=$@$%=,<;%%*=:=%===========%*=:===;::=*=;=:<44333<<3333333333334443,=$$@@@$%*;;%%%$$@@@*:<<3333<<:===:,<<<33:=*;;=====%$@@@@@%***%%*===,<433<<<:;;:<<<<33333;%$@@@$$%%;=*%%$@@@%:<43<<<33322<<<<<<<3<<<23<:==%%%:<,:;;:;=**==:;==**%%=:,==*%=::=$@@%=<,=%%=::=========*==*%=;:===:=%%*===,<34444334334444433<<344:*@@@@@$%=;=%@$$@@$%;<4433<<<<,;=;:<<<<<<<;**=*%====%%@#$%====;;====:<342<<<:;=;<34444444<=%$@$%*%%%%%$$$@@@%=<334333333333344333444433:*%%*=,<:====*==:===,,,:===%=====**:<:%@@@%=:===*=:=%%*=;:;:;=====;::::,<:=%$$$$=,443334333333322443333344443343<<343<;=%%$$@$%%%=,3333333<<<2:=;,,:==;==<443,*%@@",
"@$$$$%;<3<<;=:=;,3,;=:<<<<<<<<<<<:=%@@@@@@+@%*:<<<<<<<,<,,,<<<<<<<<<333<<2233<<<;%+@$%%;;==*=:::=%%*==*%%%***=:=%%%=;:*$@@%=:,=$%==:%%%===;::;=;;=**===;:<,=*=:<<<33333<<<<33333333333443,=$$$@@@$%==*%%$$@@%=:<<3333<<:=%%=;:<<33:==,,;%%*=%$@@$%%%%%%%%=::=:<443<:;=%%:<33<33333:=%$@@@@%==%@@@@@@@%:<43<<<<33<<<<<<<<<<<<<<<<<<:=%%:<::::;=====:<<<:==*%*=:===%*=:=$@@%;<:=%==;;=*==;:::=%=;==*====:<:*%*:,<<33333333333444343<<<333:%@@@@@$%%===%%@@@$%;<4433<<<<<=%%=:,333<<;=::=%=*%%%%%$$%%%*===;,;==<344<:;=%$=,34444444<=%%@@$$$$$$$$@@@@@%=<334<<33333333443<<333332<:;**=<<,;:;=*=:3;%%,33<======*=;=*:,:%@@@%=;;=:=======:,<<<<;=====;<<<<<:=*%%%%;<4333333<333333<33333334444<<<<::<<33,=%%$$@@$%%*:33333433<<2:;:<4<:====,443,=%@@",
"%%%$%=:<3<<====:<3,==:<<<<<<<<<<<:*$@@@@%%@@%=:<<<<,:,<<,<<<<<,:,<<<333<<<<33<33,=$%%%%:,:;==:=*%==;:;;===*%*=:====%=:=%@@%=,:=%=====*==;,<<:*&:<:**;:::<<,===:33333333<<<<33333333333343,=$$$$@@@%%%===%$@%=,<<<3333<<<,;%===:<43<:=:<<=%%=%%%%%%*****==,<,=:<44<:==%%:<<33<<3333<<:=%%%===%$@@@@@@@%;<43333333<<<<<<<<<<<<<<<<<<:=%%::==::;==:*%=<<3<:;========*%=:=%@$*;<=*=========:<3<=@=::=*=:-=:<:=%%:<33333333<<3334433433<<<33:*@@%%$@@%%;,:=%%*=:<<3333<<<<3:=%*=;><33<:;<<,==*===**%%%*=*%*:<<=*;<44<:==*%=<344444444<:=%%$@@%%$$@@@%%$@%=<3342<33333333443<333333<<<:=%=<,;*::;**:3=$$:<<:=*=;==*===%=::*@@@%====:====;;-:<<<3,%%;,==;,;=;<:=*==::<<433333<<33333<<33333333333,;==*%;<33<;%%%*%%%$%:<3333343<<<2:==:<3<:=%=:444<=%@@",
"@$$$=:<<<<:*%=:<<:==;<<<<<333<<<<,:%$@@@%=%%%;,<<<:==;::,<<<<<,:,<<<333<<<333333<:==***:<:;::;**===;,<,,:;=*=======%*:=%@@%=<=**;======%=:<<=$%:<:**:::=:<:===:4443333333<<34433333333344<:%$$%%$@$$%:,,:=**:<3333333333<,=====:<3<<:<<<:%$%$%**==*%%%%=:<<<:<34<:=***=<<<<<<<333<3<<::::,:=%@@@$%%@$%:<33323333<<<<<<<<<<<<<<<<<<;*%*::=*=:;%=:*%%::,<=*=::===;;*%%:;%@$=::%%=======%%=:<:*@=:,=*=:;==::=%%;<34333333<<3333333433<<<33<=$@%%%$@$%=<3<:::,<<<<<<<<<<34<:=**==:<<<,,33<:=%%%%=====&&%%=,3<:;,34<:===*=:33444444443,;%$%*=:=%$@$%%%@@%:<3332233333344443<333333<3<:=%*::==;:;*%=<;%%====%%*::=====%=:<=%@@%====:===;::*=:::,;@$=,**=,===::=%=;,<<3433333<<33333<<33333333333,=%%%$%=:,,:%$%%%%%$*:33333343<<<4<:==:33,=%%=::<<:*$@",
"@@@%:<<,,:=%%=<<<:==,<<<<<<33<<<<<<=%@@@%=%%*:::,:*$%%=:,<<<<<<,<<<<333<<233<<322<,;=*=:,:=::=%=:=*=<<<<,:=====*=;=%%=;*@@%;:=%=;=%=;;=$%=::*@%:<=%=::===::===:4433333333<<33333333<<3444<,%$@$%%$@$%:<<<,;=;,<<<<3334333<;=**%=:<3<<<3<:%@@@$&===%$@@$=:<3<<33<:=%%&=:<<<<<<243<,<<,,<<<<:=%@$@%%%$%=<<333<<333<<<333333<<<<33<<<=%%%=;===:=%%==$@===;%%%:::==;;*%%=;*@$;:=%%====::=%$%=:=%$=::%*=;===:;=%%;<33333333<<333333333<<<33<<:%@$%=%%$%=:343<<,,<<,,<<3<<333<:=%%%=:<<<<33<:*%$$%=;-==%%%%;<4<<<<3<,=====:<333334443<<<;%%*::,;%$$%=%@@@=<<<333333344444443334333333<:=%*;====;==%*::=%%%%$$$%:,:======;<:%@@%*===;===::;%%==%=*@%=:%*=>==-:;=%=:<3334433333333<<322<<333333333,=$$%%%%=;::%$$%@$%$=,43344433<<<33<:;,33<;%%%==:<<=%@",
"$$%*:,:===*@%;<3<<,<<<<<,,<33<<<<<<=%@@@@%$$%:=%%%$@@@%:,<<<<<<<<<<<<<3<<232<<3333<:===::=*=;=%=:=$$::>:;**::=%%=:=%%%:=@@=::%%=====<:=@@$%%%$=,:%%=::;;;:;===;3334433333<<3333333<<<34433<=$@$*=%$%*;:,<,;=====:<3334443<<-&%%%=<33333<:%@@@@$=;=%@+@@=<<<3333,==%%%;<<<<<<<34<;=;===:<<::=$@%*=*@@$-33333<<<3<<<33333443<<<33<<<=%%%=;;=::=*%==%@@+@%*%%:<<;======*=%@%;:**====;,,=$$@@$$%*;::%======::=%%;<3333333333333333333<<<33<3,*@@$==*$$%=:,<,=======,<33<<333<=%%==;<33333<:%$@@%*;;=%%@@$=<433333,;*%%%=,33333343,:;:====:<,=%@@%==%@@$=<<<<33333344444443334333333<:=***====;==%=:<;%@@@@*=*=:<:======::=@@$%:===*=:<:*%==%@@@@*;:%*=::==:==*=:<3444443333333<<322<<333333344>*$%%%%%%%;;*#@@@@@%=<4444443<::,<<333443:=%%%%%=;:=*@",
"$$%%===**=====:<33<<<:===:<<<<<<<<,=%@@@@@@$*=%@@@@@@@%:<<<<<<<<<<<<<<3<<233<<333<<;=*=::===;=%*=;$@=====%$;,:=%====*%=%$@===*%%==;,:=%%$@@@@$;,:%%=;:;====*==:3<<3333333<<<3333<<<<<<3333<;%$$*=*$%%===;--;=====:<444443<<:=%%*=:<3333<-%@@@@@=:=$@++@=,<3333<:==*%=:<<<33<<<<:=;====:;;=;=%$%==*@@*:4433<<<33<<<34333333<<<33<<<;*%%=;::::***=;%@@+@@===%:<,;===;;==*%===*=====;:==**$@@@%*::;%==;===:;*%%;<333333<<<<<<3<<<<<<<<<3<<3<:%@$*==%%=;;--;=======::<<<<333<:=*===:<3333<:%$$$%=::=%%$#$=<43333<:=*%%%:<3333333<:=====;======%@%*=%@@%:<<<333333344433333<34333333<:=**%=======%=:<:=@@@@%==*=;:=*===*=:=%@@%===*=:,:*%=:=@@@@$=::**=:,,::=%*=:<33333333<<<33<<<<<<<3333<<<33,=%%%$%%%%===%%%$%=:<34444433<:=*=::<3443:==:=*%%*=%%%",
"$%%%=*%%%=:::=:<33<,:=%*=:<<<<<<<<<:==$@@%%%*=%@@@@@@@%:<<<<<<<<<<<<<<<<3333<<<<<<<;=**::;=;:=%%=;%@$$#$*%%*:,:======%*%%%==%*%%*==:=**=%@++@%:,:%%*=;=====*==:3<<3333<<<<<<<<<<<<<<<<33<<<:&$$%%%@%====**=:;==;=;:<344433<:=**=;:<3433<=$@@@@@*==@@@@@%:33333,;==**=:<<<33<<::==:===;=**===%$%==%@@=:3333<<333<<<34333333<<3333<<:=%%*=;::;%**==*$@@@@%==%=:::===;==*=::=**==**===%%*%$@@@%=,:=%*=:===:=%%%:<3333333<<<<<3<<<<<<<<<33<<<:%@@%%%%%=;=*%%=====:===;:<<32<<:=***=;<2333<:%$@$%*::=%$$$$*:33333<:==***,<433333<:==;==;:=*%*===$$%%$@@%;<<3333333334433333<333333443<==*%%*****%%=;::=$@@@$*=*%%=%%*==**;;=$%*===*;::=%%;=%@@@$%;:==*=;:::=*%*=:<333333<<<<<33<<<<<<<<<<<<<<33<:%%$%%%%%%==;;==;,3444444433<,=%%=;:<343::,<,=%%%*%%*",
"%*=*==*%*:<<,;<<3<,;*%%=:<<<<3<<<<<<<<=*==:=*%$@@@%%@@%:<<<<<<<<<<<<<<<<33322<<<<<<;=%%=::;::=%%*:=$+oX+%==$*:<:=**==%%*=-=*@%%%***=%%==%@++@=,,:=%%*===*%*==;,33333<<<<<<<<<<<<<<<<<333<<:=%@@@@@@%=:=*%%=====:;;=:<3443<::====;=:<33<,%@@@+@@%%%@@@@@$=<<33<:=*%%*==;<<33<;*==;;;===*%%%==%$$%%@@@=:<<<33333333333333333334433<<:=*%%%*==*%***=*%@@$@@%=%%%*::=;===*=,<=**==*$@@@%%%@@@+@%:,:=*%=;::;=*%%*:<<3333333<<3333<<<33<<<333<:*$@++@%%%==%%$@%====:=*%%*,<3<:==*%%%*=:<333,=%@@@@%=*%$$@@$%:<3433::;=*==,<443<<<:==;:;;;;%$$%=;:*$@@@@@$%=<<<<33333344444433334433344<;==%%%**%%$%=====*$@@@@%*%@@$%%===*=::=======:=%@$%;%$#$@$%==*=**====****=:<333332<<<<333<<<<33<<<<<<<<<<<<=%$%%%@$%%=<<<<<334444443<333,;*===:<43<,<43:%%%=*==",
"===;*%%%=:<<<,<<<,=***=:<<<<<3<<<<<<<<::,<<:=%$@@%%%@$=<<<<<<<<<<<<<<<<<33332<<<<<<:=*%==:::=%%%*:=%XXXX@==%$%=:;=*==%%*;<=%%==%%$@@@%%%@@@@%=====%%$%==%%%==:<3<<33<<<<<<<<<<<<<<33<<<3<:=%$@@+@@%===%$@@%%=&*-;;=%=:343<=***%%**:<33<:%@+@+X@@$$@@@@@@*<<3<,;=*%%%**=:<<<=%%=-;;*%%%$@@@%==**%@@@$%*:<<3333333333333333333333<<<<:=*%%%==*%%%%$%%@@%%@%=%#@@*::===;==::=*===%@@@@%%%$@@@%%=*=-=%%*===*%%*=:223333333<<3333<3333<<<333:=@@@@+@%====$@@@$%%%*===%$@=:3<:=*%$%%%=;<333,=%@@@@%%%%%$@@@%=<343<:===***=:<43<:;===;;*=*%@@@$%*:;*$@+@@@@%:<<<<3333343344433334433334<:=*%%%%=*%@%==%%%$@@@@$**%@@$%*======;==;=*=:;%@@@%=%%%%$@%%%%=%%*==*%%**=:<333332<33<333<<<333<<<<333<<<<,*%@$*=%$@%*:<<<,:,<<,<443<<33<:=%%%=:<<<<<33,=%$%%*=",
"====%$$%=,3<<<3<<:*%%%;<<<<333<<,::::;:,<<<:=$$$%*%%@%=<<<<<<<3<<<<<<<<3333333<<<3<:=*%*=====%%%%==%++@@@%=%@@#===*****==:=%%==%%@@@@%%$@+@@$%%%==%$$%==%$%*=:<<<<333<<<<<<<<<<<<<333<<3<;%@@@@+@%===%$@@@$%%%%=====%=:<<<===*%%%*;,<3,=@++@X+@$%%@@@+@@%:<3<:===*%%===:<<;%$&====%%$$@@@@%*====%@@$$%=:<3333333333333333333333<<<<:==%$%%**%%%$@$%@@%%@%=%$@@$=:===:========*%@@@@%%%$@@@$%%$=-=%$%%*%%%%*:<333333333<<22333344<<<<3<:=%@@@@@%=;;=*@@@$$$$$%**==%@%=<<:==%%%%%==,33<:%@@@@@$%*%%%$@@%=:343<==*%***=;<4<:===:===*%%$@@@@$%=;=*@@@@@@$=:<<333344433344333333<<3333<:=%%%***%%*=;%%%$@+@@$*=%@$@%%*==:=%**=;=*=:*$@@@%=%%%%$%*%%$%%%*==%%%%%;<333333333333333<<333<<<<<333<<<<=%@@===%$%=;::::;;::;:<43<<333<;*%%=:<<33333<=%@@$%=",
";;=%@@@$=<43344<:=*%%*:<3<<333<<;======::::==$$%==%@@%:<<<<<<<333<<<<<<3<<<<<3<<<<<,=*%%%%**%%%%%%%%@@@%@%**@+X#=;=%*==*%==*****%@@+@%%$@++@@%@%==%%%*=*%%%=:<33<<4433333<<<<<<<333<<<33:=%@@$%@%=;==%#@@$$$%%%%==;:%$%:<<;===*%%==:<<:%@@@@X+@*=*@@+o@@$=<<<:====*%===:,:%@%;;=%%%$@@@@@@$%=::;%$$@@$*;,<233334333333333333333<<33,==%%%%*%%%%%%%%$@$%$%*%%@@@%;:==:=*%%==;=%%$@@@%%%$@@@@$%$=;=$@@%%%@%%=,<333333333<<22333333<<<<<<=%$@@$%$%=;;=%@@$%%$@@%%%===%@%=::==%%%***=:<2>=$@@@@@%*;=%$$#$$%=<33,=**%====;<<:=$*;:===*%$@@@@@%%*=:=%%%%@@@$-<3333344443333333433<<33333<:=***%*=*==:*%%$@@@@@%=$@$@@$%==:*%%*====;:@@@@@$*$$%%%%=%%%%%%===*%%%%:<33333333344433333333<<<<<<3333<<:*$$%==%%%============,3433444<:=**=;,<34444<;%@@@%*",
"<:=@@@@$=<43344,;==**;<333<333<;=============$%%=*%@@=,<<<<<<<333<<<<<<3<<<<<3<<<<<<:=%%%%*=*%%$@+@@@@@%@%*=$+X+%==**==*$@%==*%%$@++@%%@+XX@$%$%=:=*%%*==*=;<<33<34433333<<<<<<<333<<<33;%$@%%=%%=;=%%$@@@@@$%%%%*;:=%$%;::====**==:<;%@@@@@++$;:=@@@+@@@$;,<:==%*=%*==:=*@$=:;%%%%@@@@@@@@@*;:;%%%@@$$%=<233334333333333333333<<33<:=**==%%%%=;===%%$$@@%%@@%@%=:==;==%$*=:*%$@@@@%%%@@@@@$%%=:;%$$%%$$%*:<<333333333<<22333333<<<<<,*$$%@%*%%*;;*@@@@@@$@@$%@%=:=%@$===*%****==:,<=%@@@@@#%;<;%$@#$$%%=<<:;==*====;<:=$@=::*%%*%$@@@@@$%%=:=%*==%@@@=,3333344443333333433<<344333<:=%*%%%%=;=%$$$@%*%@$%@+@$@@%==;=%%====;::@$%@+@%@@%%$%=====%%*====%%*,<<<333333344433333333<<<<<<<333<<:=%@$%%$%=:;=%=;:;;;:;:<4334443<;===:,<34444<;%@@@%*",
":=%@@@@@*:4333<:==***;:<<<33<:=*==;====*%%%==%%%%$@@@%:,<<<<<<333<<<<<<3<<<<<3<<<<33,;*%%%%**%%%%$%%*$@@@@%%@+@+@%:=*===%@%==*%%@@@X@$%@@@@@@%@%=:;=*%**==:<<<<<334433333<<<<<<<<33<<<<<=%%%===%%*;=%$@@$$@@@$%%%*=,=%$%%*;======;;;:%%%%%$@@$%=;==%$@%%%@%=:;==*======*%$@%;<;%$@@@@@@++@$%*==%%*=%%$$%=<<333333<<33<<333<<<2333<<<<:;==***=;;=*%@@$%*@$%%@@%$%=<:=====*====%$%$@@%%*%%%$@@$%*;:=%%%%%%%;<<33333<<<33333333333333<<<,=%$$%*=*%%==*%$@@@@@@@@@@%=,:%@@%%****=*==::;=%%%%%%%==;:;*%%%%%%%%;:::;========*%%@;:;*%%%$@@@$%$$$%===@%===%$@*:<<<3443444333344433<<3443333<:;====;:;=*%$$$$%@%==%@@$@@;;======*%=:,:$@$@$*;%$%*%@@@%====***%**=:<<<33333<<<3333<<<<<<33<<<<<<<33<:%%$@@@%===*%*======;:;;:<<344<,:=**==:<<3333<=%@@@$%",
"=%%@@@@@%:3333<;==&%*==:<<3<:*%%=======%$@$%=*%%%@@@@%*:<<<<<<<33<<<<<<3<<<<<3<<<333<:=%%%%%%%%*=%***%$$@@$$++@@@%:=*%***%%*==*%@@@X@%=$$$$@@@@%==::;===;:<33<<<333333333<<<<<<<<33333<,=%%===*$$%==%$$@%%$@@@@$%%=<:*@$$%=;:==**===*%%***%%%*====:=%@*=*%%%*===**====*%@@$=:<:%@@@@@@@++@%%%==%%%=*%$@%=,<333333<<<<<<333<<<2333<<<<<,:;==;:::=%@@@$%%@%;:%$$@%=3:=*=====*=;=%%%$@*==%%%%$@@%*=:;=*%%%*=>333<<33<<<<<33<333<<3333<<<:*%%$%%%%@%==%%%@@@@@@@@@@%=<,*@@@%%====*====*%%**==%%=:;:;==%%*==*%*=-:;======*%%%%%:,;*%@$@@@@$$$$$%==&@$%&=*%@%=<<344334443333333443<<443<333<<::::,:===%$$$@@@%:,=%$%$$::=%=;;=%%=,<:@@@@*:<=%$%$@@@%==;;;====::<<3333333<<<<33<<<<<<<33<<<<<<<<<:=@@@@@$=:;=%%%=*%%%==::==;:<33,:==*%*==:<433<:%$@@@$%",
"$%%$@@@@%=2333:=**%%%**=:<<:%@$*===%%%%$@@@%====%@@@@@@=:<<<<<<<<<<<3333<<<<<<<<<333<,=*%**%%%*=;*%%$@%&##%%@+@$$%::=%%*=**%%==%@$$@%=:*$@$@@@$==%;,<,,<<<333<<<<333333333<<<<<<333224<;%%%=*%$@$%==%%$$$$$%@@@$@%=<,=@$$$%;:==%%==%@*=;===%%*====;=%%====*%@%**%%==;=%@@$%;<<:%@@@@@@@@+@$%%*=%$$%%%%@$*:<33333333<<<<33333333<<<<<<<<<<<<<<:=%%$@@$@@@=<<:%@+$=3<:=*=::=*=::%$%%%:,:%@@%$@@%==*::;**=:,<33<<<<<333<<<<<<3<<<333333,=$%%$%$@@@%==%$%@@@@@++@$@%=<<=%@@@$===***==%%%=====*%=;;===========%%*=;===-:=%@%$%%,<:%@@$@@@@@@$$@$==&$@@@$%$@@%,<444334433333333443<<33<<333333333<=%**%$@@@@@%,4:=*%%$:::%=::=%*;<<=@+@$:<4;%@@@@@@%=%;,<,::,<<<<<<<33333<<333<<<<<<<<<<<<<<3<<=%%@@@$@%:,:=%%*%%%@@%=;;==%*;<3,===*%**=;<443<:%@@@@@$",
"=*%@@@@@%=233<:=*=*%%*==,<:*@%===*%%%$$%$@@%*=;==$@@@@@%=:<<<<<33<<<3333<<<<<<<<<333<<<:;====;:;%%@@@@$%@%=:=%X+@%:,;%%%=;=%%:;*@%%%=,<=$@@@@@$%*$%:3<<<<<333<<<<333333333<<<<<<<33224<=%$$%$@@@$%;=%@##@@@@@@@$$%*::;%$$$%;::=%%*%$$::==;=%%%%===%%%%======%%%%%%==:=%@@$*:<<=%@@@@@@@@+@%%%===$@@@@@@@%%:<3333333<<<<33333333<<<<<<<<<<<<<:%%%$@@@@@+@=<3:*$@$*:<:=%=:;==;:;%***%:<<=$@$@@@%%%@=,<<,<<<<33<<<<<333<<<<<<3<<<333333,=$@@@@@@@$*;=*%%%@+@@++@@@@*:<:*%@@$*==***=%$%;;==:=%%**========;-=,=%%==*%=;,=%@$$%=<<;%$$$@@@@@@%@@%==*$@@@#@@@@%:<444334433333333443<<333333333333<,*@$$$#@@@@@=,<=%*;;=*===*=:=%*:;=%%%%%=,3;%@@@@@@%%$%=<33<<<<<<<<<3333<<<<33<<<<<<<<<<<<<<3<,%$$$$%===:,=*%%%$%%$@%%==;;=%%:<,:==*%====,<4<:%@@@@@@@",
",:=@@@@@$%:<3<:=*==*%*==::=$$=:=*%%%$$$#@@@$%=;;=%$$@@@$%:<<<<<33<<<3333<<<<<<<<<<<<<<<<,::::,:=%%@@@@@@@%:<:%@@@$=::*%%=;=*=;=*%**%=:<;$@@@@@@%%@$=<<<3333333<<<<33333333<<<<<<333323<=%%$$@@@@@%;=*@##@@@@@@@$$%%=:;=%@@%=;:==*%@$=,:=;;=%%%%%==%%%%=;:=;==$%%***===%@@%=:<,*$@@@@@@@@@#%%*;;=$@@@@@@@%=,<<<<3333<<<<4433<333<<<<<<<<3333<:%%%$$$@@$$%=:,;*%%%%*=;=*=:===;===:;=%;,,=%$$@@@%%%$=,3<<<<<33<<<<<<<33<<<<<33<<<344333<:%$$@@@@@$%;;=%%%@@@@@@@$$@%;<:=%@@$%==*==*$%=,;=;:=%****======;::=<:=%%*===:,=%@@%*;::=%$$$@@@@@@%@@%==*@@@@@@@$@%;<<<<<<3333333333333333333<<33333<<<=%***%%@@%%*==*%%=;;%%*=*=:=%%;=%%**%$=;:=%%%$@@$%%%%=<44333<<<<<34443<<<<<<<333333<<<<<<<3<,%@@$%=;==::=%%%$@@@@@#%%*=:;%%=;:;=======;:<<;%$@@@@$$$",
"3<;%@@@$@$%:<<:=====*====%%@%::=%%%$@@@@@@@@$*=;%%%*%$@@%=<<<<<<3<<<<<<<<<<<<<<<<<<<<<33<<<<<<=%%%$@@@@+@%:<:*@$@@%=;=%%==**==**==*%%=:=%@@@@@$%%$%;<<<333333<<<<<<33333333<<<<<<<<<<<,*%%%$@@@@@%=;=%$@@@@$@@@@$%**=;=%@@%%*===*@@%:,:=;;=%%%%%**%%***::==;:%%%==%%**%@@%=:,:%$$@@$$@@@@@$%=-=*@@$$@@@@%=<33<<333<<<<<333<<<<<<<<<<<<33333<:===**%$%%=*===*%%==%$%=*%=;=**=%*;::=%=;:=*%%$$%****:<3<<<<<33<<<<<<<<<<<<<<4333<<<<<<<<:%%%%$$$@@%=;=%$$$@@@@@$%%$$*::=*$@@%**%==%@*:,==::====**=======::=:,:%$%===;:*%$@%=::=*%$$@@@@@@@%@$=;;=%$@@@$$%$%=::::;:<343333<3333<<33<<<<<33<<<<<<::::::*%%==*%%%%%%=;%$$%%%=*%%*%%%=*%$%=*%*==%$%=====:343333<<<33344443<<3<<<33<<33<<33<<<3<:%@@%=;====:=%%$@@@@@@@$%%=::%@$%*=*==-===::::%@@%%%@%%*",
",:;*%@@%%%@%=:;;========%$@@=:<=%$$@@@@@@@@$%===@%%==%@@%=<<<<<<3<<<<<<<<<<<<<<<<<<<<<33<<<<<:%@@@@+@@@@@%=:=%@%%%@$%*%%==*%%@%=;=%%$%**%%%@@%=::::<3<<333333<<<<<<<3333333<<<<<:==::,:*%@@@@@+@%====%@@@@@@@@$%%%%====%@#$$%***%@@*<:;=:;=%===%%%%==**:,:==,=%$**%%**%$$%=::=@%%%@@@@@@@@@$===%@@@@@@@@%=<3333333<<<3333<<<<<<<<<<<<<33333<<<<<<,:=*==%%%**%%**%%**%%%=*%%%%%===***%%*==%%%=:,,,<33<<<<<<3<<<<<<<<<<<<<<3333<:==::,,;@$%%$$@@@%**%%@@$@@@@@%%=%$%:;=*$@@%%%%*%@$=,:==::==;===**=;===:,:=,,;%$%==**%$@@%=:;=*@$%%%$@@@$$@%==;;=%%$%%$%%===*%%$%;<4333<<<333<<33,;:<<<<<<<<<<<34343;*%%***%**%%*=%%$%%*%%%%*%%%%*%%%****==%*;<<<<<<3433333<<33333443<<3<<<3<<<33<<33<34<:$$$$===%%%=:=*%%$%%@@@@@@%=:<*@@$%**==-==;:;=%$$%===%*=:",
"::;=%%%**%%%%*=========%%@@$;<<=%$@@@@@@@@@$%%==$@$%%%@@$*:<<<<<3<<<33<<<<<<<<<<33<<<<33<<<<<:%%%%%%@@$%%%%=%%$%%%$$%%%%%*%%$@%*=%%%%%%%%%%$%=<<<<<<33333333<,::<<<3333333<<<<,;%%%%%=;=======*&=::;=*$@@$$@$$%**%%=*==%$$%%%==*%$%=<:;=:=*%=;;*%%====%:<,==:;=%==%%%%%$$%=::=@%=%@@$@@@$@$%=;;=%%%%%%=%%=,,:::::<3<<3333<<<<<<<,:<<<<<<<<3<<233<3<:*%*%%%%%%%%%%%%%%%%%*%%%%===**=*%%*==**=:<<<33333<<<<<33<<<33<<<<<<<<333<:=%%%%*====;=*==*%*::=*%$$$$@@@$%=%%%;==*$@@$$%%%%$%:,==:<:==;;=====;==%:,:=:,,*%%==*%%@@@%===*%$%*%%$@@$%$$%=:,,;==;::::::=%@@$@@%=:<<2<<3333<<<2,==:<<<<<<<<<<343<<:=%%%%%%%%%%%%%%%%%*%%%%%%%%**%%%%*%%*%%*:<443334433344333<<<343<<<<<<<<<<<<2<<33334<:%%@@%%%@@%=;=%%%$$%@+@@@@$=<4=%@@%%=;;==*===%%%%=::=%=;:",
";;-=*%%====*%%*==**=;:=%$@%%:<<=%@@@++$$@@$%%%==%@@@%$@@@%=,<<<333<<33<<<<<<<3<<3<<<<333<<<<<,;=;;:=%@$*%%%%%%$%%%%%$%%%%%%%@@$%%%%%%%%%%%%%=:<<<<333333333<<:=:<<<3333333<<<:;*@@$$@%=::<<<<,:=:<<::=%@@$$$$$%==%%*%%=*%$%%%===*$=:,==;:=%%=::=**=;==%=,<;==:=*==*%%%$$%%=;=*$==*@@$@@@@@%=::,:==:;;;,:;=;=%*%%=:<<<33333<<<<<<:=:<<<<<<<3<<3433<<;*%%%%%%%%%%%%%%*%%%%=*%%%%%%%%%%%%%%%%=;<<<3433443<<<333<,<33<<<<<<<<<<<:=%@@@@@%=:<<<:::==;<<:=*%@$$$$@@%==%%====%@@$%%%%%%=::==:<:=*=;=====:=*%;,,=;:<=%===&%%@@@%=*=*%%*=%$$$$$$$%*;,<<:=;<<3<3<:=@+X@@@@%=:<<233433<<<<:=*=:<<<<33<<<34<:;=%%%%%%$%%$$$$$%%$%%%%%%%***=**%%%%%%%%%*:<34443444334444<<;,343<<<<3<<<<<<<<2<<<3433<=%@@%%$@@%;;=*%%$@$@+@@@@@=,4:*%@$%=:;**%%*%%%===<:;&*=;",
";==*%%%=;:=:=%%%%%%=::=%@@$=,<:*$@@@++@@@$%%%=;;*$@@@@@@@%=<<<<3333<<<<<33<<<<<<<<<<<<<<<<<<<<<<<<<<:%$%%%%%%$$%%%%%%%%$$%%%@@@@@@$$$$%%%%%%=;:<<<<<33333<<<:==;<<<33333333<,=%$@@$$@@%=<3333<:=:<<<,=%$@@@$$@%=;=%=%%==%$%%%===*$=::==::=%%=::=*=;:;*%=:<:=%===%==**%@@%=;;=%%===$@@@@@+@%=<34<;=,<<<33<,*$@@@$%=:<<<333<<<<<<,=%=,<<<333333333<,:*%%%%%%&*%**==**=*%%%==%$%%%%%%%%%%%%%%*=:<<3333443333333:=<3433333<<3<:=%$@$$$$$$*<<334<,==:44<:=$@@$$@@@%===%====%$@$%*%*%%::==:<<;=*====*=;:=*%=:<==;<:==;=**%$@$==%**%%==%@@$$@@$%*;<44<;=:<344<:%@+X@+@@@@%:<333333333<:==*=;<<<33<<<34,=%%%$$%%%%%%$$$$%%$@%%%%%*======***%&%%%%%==;,<333344444433<;%:<4433333<<<<<<<<3<<<34<32,%$$$$$@@%:::=%%$@@@@@@@@@%:4,==$$%=;=****%$%;:==<,;*%%*",
";=*%*%%=::=::=%%*====;=%@$%=,,;%$@$@@@%$$%$%%;:=%@@@$$@@$*:<<<<33<<<<<<<33<<<<<<<,:<<<<<<<<<<<<<<<<:=%%%%%%%%%%%%%%%%%$$%%%@@@@@@@@%%%%%$$@$%%*:<<<<<<<33<:====;,<<33333333<:%%$@@$$@@%*:<33<:=;,33<,=%$$@@@@@%==---=%*=*@@%%====%====:<;%%*==*%%*====%=:<<:=**%$%%*=%@@%=;;======%@@+++@$*=<343:;=<<334<;%@@@@@$%%=:<333<<<<<3<:**;:<<33333333<:=%%*%%%**===*==*===*%%%*%%$%**%%%%==%%%%%%%*=:<33344333333,=*:<443333<<3<:*%$$$$$$%$%:<334<:*:<34<:=%$@@@+@%*====**==%$@$%*%%$%===;,<,=*=====**=::=%*:<:==::=%;=%%%$@%==%%*====%$@@@@$%%*;<444:==,<44<=@@@@%$@$$$%:<333333333<:===*%:<33<,<<33:=%%%$$$$%*;=%*%%=*%@$%=%%%=*%***=====**%%%***=:<333444443<<:==:<4433333<<<<<<<<3<:;:,:<<:%@@$$@@@%=::;%%$@$$$$$%%$%=3>;=%$%======*@$=,;=:4<;===%",
"=*%%=*%*::=;::%%%==*%=*%@%*=,:=$%%%%$$$$$%$%%===%@@@$$$$@%;<<,,::,<<<<<<<<<<<<<<<:=:<<<<<<<<<<<<<<:=*%%%%%%%%%%%%%%%%%%$%%%@@$%%%%%%=*%$@@@#$%%=,<<<,,<33,;*===;,<333333333<:%%%$$%%%%%%:<3<:==:<33<<=*%%%@@@$%*=::;=**=%@@$%**%%$*=*;:<=%%==%@@@%%*==%*=,<,;=%%@$%==%@@%=;;==;;==%%@@@@$%=;<344<:=:<334,*$$%@@@@$$%;<3333<<<<3<:====;,<3<<<<3<<;&%%**%%***====*=;==*%%%*%%$*=;====;=%%%%%%%%*:<33333334<,,;==:<4433333<33<:&%%$%%**%%=<33<:==:<33<,==%$$@@%%*==;=**==%$$$%*%@@%*==:<<:**===%%%%%=;=%%=,<;==;=%==%%%@@$*=%%=;::=%%$@@$%%==:3444<;*=,<4,=@%%%%%@$$%=<<3333<<333,:====*;<44,=:<43:=%$%%$@$%%;=====:-%$%%=*%%=*==**====%**%%%%%%=:<44<<<344<:====:<443333<<<<33<<<,;*%*=%=::=%%%%%$@%=::;%%$$$%%%$%=*$%<::=%$%*=====%@*:<=;,4,;=;=*",
"%%%=;=%%:,==:<=%$==%%=%$@%%=::*@%=%%$%$$$%%%%===%$$%%%%%$%=::;=%*;,<<<<<<<<<<<<<<;*=:<<<<<<<<<<<<:=%%%%%%**===%%%%%%%%%%%*%@@%==%*====%$@@$$%%*=:<<,::<<<:=====;:<<33333333<,=%%%$%==*%$:<<,==;,<33<<;==%%%%%%*=::,;=*=*%@#$%*%%%$%==:<:%%*:=%+X+@@%=;=*=:<<:;*%@$%==%@$%*====::;*=*%%%%%==:<3342,==:<33:%%%*%$@@$%%:<<<<333<<3<:==*%%:<3<::<<<,=*%%%%%%%%%===**=:;=*%*==%%$=:::;==;=%%$$%%%%=:<34<<<344,;====:<44444433344<;%$@%*==*%*,<<:=*:<3333<;==**%%====::-%*==%$$$%*%@@%*=:<<,=%%===%$$$$%===%=:4,===%%****%@@@%*%*=:<:=**%%%%%*=::34443<=*=,<:*@%==%@@@%=:333333<<33<:=======:43:*=,44,-*$%%$@$%%*====;<:*%%%==%%**=:=*%*==%**%@$%%%=;<44<:,<43,*%*==;,443333<<<333<<:=%@@@$@$=,,::===%%%=:::%%$%$%%%@%==%$:::=%$%*=**==%%=::=:<3:==:==",
"%%%=::%%:,:==:,=%==*%%%$@$%;:=%$==%@$%%$$%%%=:,:;==:==:,:::=%%%@@%=:,<<<<<<<<<<<,;=*=;:,<<,<<<<<,=%$$%%%%%%%*===%%=%%%$%%%$@$%=:=====*%$@@$%%$*;,<<:==,<<:=======:<<33333333<:=%@@%==%$@=::*%=,<2333<:=====*==;,<<<;=*=%%$%%%*%%%%%=:<<=%%=:*@+@@@@%=:=*%*:<3,;=%%%==%@$%%==**:,,:;=======:,333432>=*;<<:%*===%@@@%:<<<<<333<<3<:===*%=:<<;=,<<<;=%%%%$%%%%===%%=:*%%%*==*%%=:<:=====%%%$%%%%=:<34<;:<44:*%==;;<444444333443<=%@$%===%%:,:*%=<<33<3<:==;====;:<<,=%%==%$$$%*%%%*=:<3<:*%==;*%%%$$$=::===<<:**%%%%%*%$@@%***=:<<<:==*===;=:<444443,=%*=*%+@@$@@@@=:<333344<<33<=%%=====:<,=%%:<4<:*%%%$@$%%==*%*::=%%%%%%$$%%*=:*%*==%=*%@@$%%=:<44,==<4<:%%===;,443333<<3333<:%%@@@@@+@%:343<3<:==:<<,=%%$%%%%@%=;%%;;;=%%%*=====**::==,<,;=====",
"%%%;:;*%=,<;=;:=%*==%*%$@%*-:=%%===@@$@@@@$%=<<<,==:<,<<<,:%$@$@#%%%=:<<<<<<<<<<,:==***:,,,::<<<,=%$$%$@%%%%*=*%%*=%$$$$%%%%%%=:=*%*==%%@@@%%%=:<<,=%*:<<;=======:<<33333333<<:=$@$%%$@@%==%*:<<32<<,:=======:,<33<;*%%%$$%%%=*%%*;,<<:=%==;%@+@++@%*;=*%%=,3<,:=%%==%@$%%=*%=;,<<:;=====*=:<<<<33<=%%=:=%%*=*%@@%=<<3<<<333<<<>;=*=*%%;<:=*;<<<,;=%*%%%%%%%=*%*==*%%%%*%%%*%=::=%===%%%$%***=,<3<:==,3<:=%===;<4444443344334:%@@$%%%$%===%=:<3<<:::=%%=====:<<<>-%%*=%$$$%=*%%=:<<<:=*%=;=%%%$$$$%=:==*:<<:===*%*=%%$@$%%%=;<433:======*=:,<<444<;**=%%@@@@@@$=,<33334<<<<33<====**===;:=%%=,43<:=*%$$%%%%%$$%=;*%%$@@$@@$$%==*%%*%%%%%@%*==;,44<;*=:<<:==**=:,443333333333<;$$@@@@@@@%=<4444<==:<<<<=*%@@@@@@%=:=%==;;*%%*==*=*%=;;=:<<:=*=-;=",
"%%%=;;=%=:<:;===%%*=*=%@@%=-;=%%=;=$@@@@@@%*;<43<:=:<<<<<,=$@@@@$$$$%:<<<<2<<<<<,:==*%%;:<:==:<<,=*%$%$@%%%%%*%@%==%@@@@$%%%%%===%%%*%%%$@$%*=;,<<:=%%=::===%*===:<<333<<33333<:*%@@@@@$%*=%=:33<<:;;=*%&===;,<343,;*%%%%$%%%=**=;,<3,=%%=;=$@@+XX@@%===%%=:<3<,;%%==%@$%*=%%==:<<<:==*%%$%=;=;,<33:*%*=*$$%%%@@@%:<<333<<<<<<<:==%**%%=:=*%=:<<<:;==*%*%%%%&%%*=*%%%@@$$$%%%%==*%%**%%%%%===:<33<;%=:<,:======,3443333333334:*@@@@@@@$%**%=:<3<:=*=%$@$%%*:<44<,==%%=%%$%%==%=:<33<;=*==-=%$%@@$$%=::=%=,<<::=***=%%%@%%%%=;<444<:===*%$%==;:344<=**=*%@@@@$%=:34333<<::<<<3<:===%%==*===%%*:<<,::;=%%%%%%$@@%%%%$$@@@@@@@@$%%%%%%%%%%%$*=::,<43,=%%=,:;==&%==:343333344333<:%$@@@$$%@$*<444<:=:<333<=*%@@@@$$*;:=*===:=%%%==%*%%====:<<=*%=;;=",
"$%%==;=%*;<<:==*%@%%==%@@=--===;;;=%@@X+@$==:<343:==:<<<<:%$%%$@@$$%=,<<<<<<<<<<<:==*%%=:<:*%=:<<:=%%%%$$%%%%%%%*=%@@@@@@@@@@@$%*%@@@@$$%%%==:<<<,-&%%=====%%*=-;:333<<::<33333<:=%%$$$@%=:=*;<<<:=%%%$@$$%*:<333<:;*%*=%$$%%=**=<33<;*%*===$@@XXX@@$=;==%%=,33<:=*==%@@%*=%%==:<<<<:*%@XX@@@@@=<3<;====%$@@@@@@@*,33333<<<<<<<=*=*%%%%%==%%%-><<<<::=%%*%%%%%%%%%%%@@@@@@@@$%%%%%%%%%%%%==:,<33<:=%%=:==;:%%%=:<443333<<3334,=%%$@%$$@%=;**=<3,=@@@@@@++@=<344<:===*=%$$%*=;%=:<3<:=**====%$@+@$$$%;:=**:<33<;%%==%%$@%%@%==<3443<;%$@@@@%%%=<34<*%*:=%+@%==:,<33<33<:*=:<<33:=*%***%*==*%%%=::==:::%%%%%@@$$$@@@@@@++@@@Xo@%@$%%%%%%*=*=:<<<<<<:*%%%=**;=%%*%=<23<<<<444333<;%@@@%==*%%,44<:==,333<<==%$@@@%==;:;=*==:=%%%==%%%%**=:<<:=%%===%",
"$@$%*=*%%=,<<:=*%@@%==%@@%=;===::;=*%%@$%==;:<443<:==:<3<;%%*=*%$@$=:<3<<<<<<<<<,=%*%*==::=%$%:,<<:;;=%$%%%%$@@@$$@@XX+@@@@+@@@@@@$%$$%%%%%;::;:::=*%%*==*%%%%*=;,333<<;=,<33333<<,::=%@%==%$%;<<:%%%%%%%$@%=<333<:=%%*%%$%%%====,<<,=%%=;:;%@+++@@@$====%%*:<<<;=*==%@@$%=====;:<<<:%$%**%@@@$*,<:%%&:=%@@$%$%%%;<33333,:,<<<<=*%%&%@@%%=*%%=;:====;==*==*%%*%%%%%%@@@@@@@@$%%%%%%%%*==*=::::::<;=*%*=%%*=%%%=;<4433<<<<3334<<::;;;*%@*==$@%=,:%@@@$*==%$%:<43<;***==%@#%%=;*=:<3<;**=====%$@@@$$$%;:;=*=:34<:**==%%@@%%%%%=,344<,=$$%*%%%$@%:<<=%$%==%+%=,<<<:,<<33<:%=<<343:*%%%**%%==%$%%=:;=**==%%=:=%$%%$$%$@@@@$%%@@$%%%%%%**%====:;====::;*%%%%%%%%%%%%=<234<,<444333<<=%@@%==*%$;:,;==:<44<<<:===%%%===;::;%==;=%%%==*$$%*=:<3<;%**=*%@",
"@@@%%==%%%;<<<:=%@$%==%$$%*==*=:,:;===%==;=:<3433<<:*=:<,=%%===%@@%:<3<<<<<<<<<<:=%%%%=*==*%$%=:,::::;=%%%%%%$$@@@$@+X+@@@@++@@@@@$%$%*==**=====;:=%%%%*=****%%*;>333<<==:<33<<,:<<<<;%@%%%%$%%:,:%%%=*===%%%:<33<;=%%*%$@$%*====,<<:%%==:::*@+++@@@%====*%%=,<<;====%@@@%==***=:<<:=$%=::=$@@@*::=$@%==*@%*==;;:,<3333<:;,<3<<;=%%*%@@$%=%%%==;===*====;:=******=%%@@%%%$@$%%%%%%*%=;:;==;;==;:<=**%&*%%%%*&%%;<4443,,<<<333<<<<<<,=%@*=%@@$%::%@@$%=:<:*%*:<3:=***==%$$$%=;==:<<,=**=====%$@@$$$%=:::=*%=<4<:===-%%@@$%%$%=:<44<;%%=;:==*$@%:<:%%%%%%%@%;<3<:=;:<<3<:%*,<444:=%%%*=%%==%@@$=:;=*%%%%%;<,=*%%%*%%%$@$*=%$@%%===*%*==:::=;=*===::=%%%%%%%$%*%%%=<244<::44433<<<,=$@@%%%$$====*=:34<:::;======;;:,<:=%===%%%%===%%%=;,3<:*%===%@@",
"@@@@%=:=%%*:<3,;=%%*=*%$$$%=%%=:<<<:===;;;=:<<<<<<<<=%=:;*$%==*%@$=,33<<<<<<<<<<-*%%%%%%%%%%%@*=;======*****%%%%%%%%@@@@@$@@@@@@%%%%%=:,;=***%==::=%$$%=====*%%*;,3333<==:<33<:==;,33;%%%%@*%$@=::%%%:=:,<:*$=:3<:==%%*%$%%%*====<<,=%*=;:::=%@+++@@%=====%%*:<<:====%@@$%***%*=;<<=$%;<3,=%$@@*:=%$@@$**%%=:<<<<<<3<<3<==:<3<<:=*%**$%%**%@$*;:===****:,<:=*%=-;==%@$%=*$$%%%*=*%*=:,<:===**=;:,=%%%&*=%%*=*%%;<443<:::333<<,::<34<;%%%%@%%%@=-=$%%%=,4<:*$=<3:==*==*%%%%%=;==,<<:%**=====*%$@@@$*;:::-*%*:3<:===:%%$@$%%$%=;<34:*%=<3<:==%%=<:*@%%%@%%%%;<<:=%%=;<<<:%%;<343<:=%%%=**==%@X@*:;=*%%$%*:33<;%=;:=*%%@%==%@@%*;:::=*=:33:==**===::=$@$%*=%%==%%*;<344:=:44433<<<<:%$@@@@$%*=====:3<:====%%====;:<44,-&===%%%%===**==:<3>=$%=;=%@@",
"+@@@$*:;*%%;<3<<:=**=*%$$%%=%%=-,<<<:====%%=;:;:<<<<==%%%%@@$%@@@$=<2<3<<::<<<<<;%%%**$%%%%%%@%==%%%%*===::;=%%%%**%$@@@%*$@@$$%=*%%=:<<:=*%%==;::=$@@*=====%&*=:<333<:**:<3<:===*;<<:===&#%%@@%:<===:=;,<<:*%=<<:=*===%%%%%=====<<:%%=:::=*%%@++@%%%%*:::=%%=><,====%@@$%*==*=*=<;%$;,<<:=*=%%=;*@%%%@%*=%=:33<:::<<<3<==:<333<:=***%%%==%@$=:<;==*%%%=,<<:==:<<,=%@@%**$@%%=;,:=*:<3<:=&%%==::<*$@%&======*%=:<443<:;:333<:=%*:34<=%=*%@%%%@%=:%===;,3<<:%*:<=======%$%%*=;=;<<:=%*=;:==**%%@@@$*=:::;==*=<<,=-;:*%$$$%==*%=:<<=%=<34<;=::::4:%@@%%@%=:=:3<=*=**=,<<,%@%=,<<<,:=%%%%%=:*+.+%,;=%$@@$*;<3,=%:<4:=%$@$%%%$@%=<44<:==<4<;%%**==;<:=@@@%=====*%*=:344<==;44433<<<<<=*%@@@%%=;:,==:<,=%%%*@@$%*=:<344,=**==%%%%===*=:<<<<=%%*==%@@@",
"@@@@@%;;=%%*:<<<<;*==*$@@%*=%*==:<33<:*%$@@$%%%*:<<<====%%@@$$@$%%:<<<<<<::,<<<<;*%%*=%%%*%%@+%=;=*%%%%%=:<,=%%;:::=%@@$%%$@@@%=,:=%=:<<:=%%%%*=:<=@X@=:;*%*%%=::,,,:=%%=<3<<===:=:<<:::;*$%%@@=:<,:::=;,<<<:%*::;*%=;=%%%%%====;<,=%%=::=*%%%%%%%%%%%*=::==%*:<:=*==%@@@%===**%=:*%%,<<<:==;::<;%@%%%+%=:=:<3<:=%*=,<3<:==:::,::=%%%%$%;:%@@=,<===%%%%=:<<=*=:<<<:=@@%%%@@%*;,<<;%=,3<;=&%%%=:,<=@@$*=====%%*;<444<,=;,33<,=**=:<4<::,=%@%%%@%:<:::==,3<<<=%*:=***===%$%%%==*=,<:=%==::==***%%%%%*==;;;;=%%:<<==-:*%$$$%===%=:,:**:<43<;=:<<<4<=@@$%$%=:::<<::,:=*,<3<=%@$%=====%%%%%%;<:$X@=<:=%@$%%*;:<=%$;<3<:=%@@@@@@@=,44<:=%*:<,=%%%%*==<<;@@%=:=%%%%%=:<43<:%%:44433<<<3<<<:==%%$=:,=%%=<:*%@$*%%*$%=<<443:=====%%%%==;=;<<<<:*%%=;=%@@@",
"@@@@@%;;==%%=,<3<;==;*%@@%*=**==:<33<:%$$%%$@@@%=,<:%%*-=%@$%*%==:,<<<<<<;;:<<<<:=%%*=%%%==$+X$=:=*%%%$$=:<<=*%:<<<;%@+@$%@@@$=:<<;%*;<,;=%%%%=;:<-$+%:,:*%%%%*-==;=*%@%:<3<,==:<::,<:::=%%%$@$=<3<<<:=;<<<<<=%=:=%%*==$$$$%=;*=;<:=%*=:;=%$%%**===%%%%*=;==%%;,:*%==%$@@$*==%%%%*$%=<<<<:=*:<23:%@%%%+%=,::<3<:=*%*:<3<<:=*=====*%%%%$%;,-%$:<<==*%%%%*;::=%*=:<3<:%@@@@@@%=:<<,=%%:<:=**%%%*:<3=%@%=:*%%%%%=:<3<<,:=:<33<:%=;::<<,::<=%@%%$@=:3<<:*=:3<<<:*%**%%%==%$@%%%==%=:<;*===:==**======***&==;:=*%=,<===:*%$$$%===%==;=%=<343<;=:3444<;$@@%%$%;==;:::2:=%:<43:%@@$%%%%%%%$%$%=<,=@$;3<:=$%%%%=;;*%%=::<<:%$@+o+@%:<4<=%%%%=:;=%%%%*==<3:%$*::*$%%%%*:,,,;%$=,444443<<<<<3<<:=$@;::%@@*::=$@$*=;:=%=<<44<:=====%%%%==;=:<3<:=%%*;:=%@@@",
"@@@@@%;;==*%*:<4<;==:=%$@@%==***:<33<;$%=:;=%@@$*::*@@$==%@%:<<<<332<<<<<==:<<33<:=*%%=%%==$XX%;<=%%%$$$*:<<=%*;,<<,-@XX@@@@+=:<<:=@@%::=%%%%%=:<3:*$:<<;%%%%%%%$$%%$@@=,33<,==:3<:;====%$%%$$%:<33<<:=;<<333;%%==*%%%$@@@@%=:**;<:=%==;*%%%====**==*%%%%*****=::%%==*$@@@%%%$$%%@@%;,<<<:=*:<34,=@@%%@%=::::<<:::=*=,3<<:*@$%%%%%%%%%%%=,,:*:<<:==***%%*=***%@%=3<:%$@++@$*:<<:=%%%=::=*=*%%=:<4,=$:<:%$%**==::::====,<33<:%=<3<,:===;%%$%%$@=<3<<:==,3<<<<*$$%%%%%%@+@%%*==%=:,=*====%*=*=;======**==;:=*%=:<===:*%$$@@$%%%*=*$%:43442:=;3444<:$@@@$@@%%%%%=:<:=%:<44:*@%==%@$%%%$$@@$=,<==:33<=%%%%%%%%****%%:<,=%+XX+@=:<3=$@%*%%**%%**%==:<4<==:<:%%%=*%%%**%$@%:34444443<:::<33<*$$==%@@$$::;%%%==,4<=%:<44<:=%==*%%%%=;=%;<3<:*%%*;:=%@@@",
"@@@@%=====*%%=,3<;====%$$@$*****;<3<;%*:<<:=%%$%=:=%$$$$%%$%:<3<<:;:,<<<<:==:,<<<:=%%%%$%=:=@X=:<=%%%%$%%===%$%@%;<<:%+XXXX@%:<<==%%%%==%%*%%*;,<3:==,:;*%%%%==-=*=::=%*;<<<<===:==*====%$$$@@$:<3<<<:==:,<33:*$==*%%%$%$$$%=:=;,<=%%===%%%%===:;=;==*%%%*===%=:,=*==*$@@@@%%%%%%@@%:,,,::=*:<34<=@@@$@@%*===;:<<<:==:<<:=%*=;=%%=*%%%%%&=;;=;:<<:;=*%%%%=====%@$:,:=%@@+@%=::;%*=*==;=%%*=*=;<44:==,:=%%%%%%%&%*=*%*;<333<:%=:<:;=****%$$$$@@=<3<<:==:<<<<<=%$**%%%%@@@$$*===;,:=*====***=;::;;;;;=====:==%*:<:==:*%@@@@@$%%==*@=,43<,:===<434<:%@@@$@%=;==%%%=**=<33,=*=:<:*=:,>:==***%===%=:<<:=%%%%$%;:;&*%$*-:=%@X+@$=:,=%$%*%=:;=%$$%%=:<4<:*;:;*%%%%%%%%%%%%$*:<444444<:===:<<:=*==%@%**%=:<::===,43:=*<43:;=*==%%%%%=;;=:<3:=%%*=::==%$@",
"@@@$%%===;;=%*:<<:===*%@$@$*=**==:<,=%:<33,;==**:;%@%%$@%**=:<3<:=*=;,<<<,;=======*%%%%@%*:;*@=,<;=%%%$$%%%*%%%@@%:,:*@XXXX@%::;%%%%%==*%$%%*=:<<,===:======;:,,:;=:<,:==;<3<:===*%==:::=%$$@$%:<<,::;**=;,<3:=@==*%%%$%%%$%=;=:<,=%*=;=%%%=***;;=:===%%%*===%*;<:===*$@@@@$%%%*%@@%:>:====*;,<4<;@@@@@@$%=====:<:===,<<=**:,,;==:::====-===*=;:,:=%%%%%=::=**%@@*::=%@@@@$*==%$%===;:=%%%**=:<<<;==:===*******%%===%=:<33<<===;====-;=%%$@@$%:<3<<:===;;:<<=%$*=%%$$@@@$%*===:<:=*====**==;;:;;:;;===*=;;=*%=<,;==*%@@@@@$%%*==@=,4<:==**=,,,<<,=$@$$%=:,::=%%%%=:<4<==;,<<,*;,3<<:::::==%%$%=::;*%$$%%=::=&*%$$&=*$@@@@$%::%@%%*%=::=%$@$%=:,<:=%=======*====*%=;==;,444444<===:;,<,::<;%@%=*%*:43<:=:<44<;%:<<:;==;=%%%%%=;;=:<<:*%%==;==*%%@",
"$@$%%%%=::,=*%=<<,=*=*%@$@%===%==;,;==<33<:;=,::<=$@%%$+%=:;:<3:=**%*:<<<<:*%$%%$$%$%%%$$%=::*;:<,:=%%##@$%=*%%%@+%;;=$@XXX@%==%@%%%*=:*$@$%*=:::;*%=**=:<<<<<33<:=:<33:=%:<3<:==%*=,<<2:=$%$%;<<:====%%%=;,3:=$==%%%%$%%%%*===:<:=%*;;=%%*=%%%====%*=%%%%=-=**=<:=*==%$$@@@$$%%%%@*::=%%%%%=:<<<:%@@@@@%=:::=======:<<:%*:<3<:=:3<<<::<<:=*%%==;;=%$$$%;<<=%**%@@=:=%%$$@@%*%$%%**=:,;*%%%*=:,:-*%**==:==*=;:;==:,:=%=:<33<:=%%%==:<<:=%$@@%*,<<<:;**%%*=:<=%%==%$$$$$%%%==*=:<:=*====**=;==:;;;=====%%=;;*%=,<:===%@@$$@%%%%==@*:4,=*=%%*===:<<,%$%%=:4<<,;*%&=:<43:%=,33<,*;<43<<,<<3<;%@@$%%%%%$$$%=;,;=%=*%@%%%@@$$$$%:;$$%*=%=:<:*%$$$*=-=*%%%*=:,,;;:,<,:=,<<:=-<34444<*;,<:<<<,<3;%$%%%$*:47<:=:<443:%;,<:===;;%%%%%=:;=:<<=%%%====%%%%@",
"==*%%%%*=:,=*%%:<:*%==%$$$%===%**=:%*:333<,;=<<<<=%@%%%@%:<,,<3,:::=*;<<<<:*%*=*%%==%%%%%%%%*%%=:<:=%@++@*:,=%%%@++*=%@@@+@@#*%+@%%%%=:=*%$%%%*%%%%%%*:<4<,:,<33,;=,<33<:*;<43<,;==:,::2<;%%$%:<<;=%%%%*===;<;*%==%%*%@$%%%*==*=::=%%**%%%*=%%%=;;=*%*%%%%=;;**=<:=%==%@$$@%%%%**%@%::=%%%%%%=;:<<:%@@@%;<<3<:=*%%=;<<,=%=<33<:=:2,:;==:<3,;%===%%$%%%%=:<<;***%@@;:=%%%%$$%%%@%%%%*;::==%%%%***%%%*;:<<<:;:<3<:;,<<,;==,<33<:;*==:<333,=%%%*:<<:==%%%*===;,=%%==**%%$$%%%==*=:<;===::==*====;;;;*%*==*%*==%%*:<:=%*%@@$$@%%%%==%%;<;===%%%%%==,<,%@$%:<<:==:==:<<<4<:%:<333<==:<<:=%*=:<:=$%=;==%$%%%%==:=**%%%$%=;%@@@@@*::$%%%=*=:<:==%%%$$%%==*=:<<<:==;:<<:=:<3<:=:<4444<*:<443<::;;*%%%%$%:<44<:=><444<==::====;=%%%%%=:;=:<,=%%*===%%%%%*",
"==*%%%%%*=:=*%%;,:%%==%$$@$%*%%%%%%%=:333<,;=,<<<:*@@%%@%=;;;;::<<,=*:<<<:===::=*=:::;=;::==%$%%===%@@@@%=:,=%%%$@+*=*@@@@@@%=%+$%%%%*:==*%%%%======%*;:,:===:,<,:;<<<<<:=;<443<:;:::==,<:*$$%;<<;==*@%=::==:=**==%%%%@$$%%*==*=::*%=%%%%%%%%%%*===%%%=%%%=;:%%=,:=%==%@@$$%%%%%%%@%=-=%=*%@$%*=<<:%@@@=:33<<,;=*=:,<<:==:<<<<,;:>;=%@$*;:;==:::;=%%%%%=;<,;===%$$;,:%$%%$%==%@%%%===:===*%%%*===;=*;><:;===:<<:;,<3<,==:<33<<:==:<<<<3<:%%$%:<<;*%%%%=:;==;%%*=*%%%%$$$%%==**:<;==;:;=**==*=;;;;=%%=**=%==*%%:,=%%=%@@$$@%%%%==%%=:=;::=%$%===,<:%@$*,<:==;:==:<333<;%:33<<<::,<:=%@@%*===*=:,,:=%%%%%%=;=**%%%%%;<=$@%@@=,:$%%%===;,;**%%%%*=;::;==::=%%%*=:::=,<<3:==<4444<==:<<,;===*$$%$$$$:<44<:=::::<<;=====*==*%$%%%=:;*;,:=%*==*%%%%**=",
"====**%%%*===*%=::*%==%$$@@$%%%%%%@@=<3<<<:;=,<33<=@@@$$$%*====:,<:==:<<:==;,<<:=:<<>:=::,:;*$%**%$@@@$%*-::=**%%@@*;=$@$%@%==%+%%%%%*;==*&%%%=:,<,:===;=%%%%=;<,,,<<,<<,==,333<,;:::==;<<=%%==<<:::=@%=::===%%===%%*%@@$$$*==*;<;%%==%%%%%%%%%%%*%%*==%$%=;=*%=,:=%==%@@$$%%%$%%%@$%=**=*%@$%==<<:%@@$;<3<::<:==:,<<<:==:<,,,<:::=%$++@%**=:<<<<:=*%%%%=,:=*==%%@=::%@%%$*<=*$*%%===;====%%%=:><<:==;;*%%%%=::::<<<<<;==,<333<==:<:::<<:*%%&;<<;=*%$%=;;==*%%==%%%%%%$$%%==*=:<;=*;;=*%*=========*%**==%*=*%%=>=%%=*$$$$@%%%%*==%%==;::=%@*;::,,==%%;<<:=;,:==:<333<;%:<<::<<<<,=%$@+@@%*=:<<22<:%%%%%%*==**%%%%%;4=%$*@@=:=@%%%**==:=%%%***;,<<<,==*%#@@@$%=:::,<<<<:=<4444<:==;:=====%@@$@$$$:<44<:=====:,:%%*==%*%%$@$%%=:;=:,=*%===*%%%====",
";::===***==;==*=:<==;;*$$@@$$%%*=%@@=<<,:::-=,<33<=@@@@$@%*==========,<,;*=<<3<:=;,,=%%%*:<:=%=:;%%%%%%$*=;:===%%$@=:<%@$%@%,,%+$%%*%%==%%*%%*=<333<,;=*%$@@$%=:<<<<::<<:==,33<<:;:,<:;=<<:=;:=:<<<,;$%*=;=**%%====%==%@@$$*===:<;%%===%%%*==*%%%%%%=:;*%%=;=%*=,<:===%@@$$==*%%**%@@%%%%%$@%=:=<<;*%%%:<3:==<:==:<<<<:=*:<:;:33<:*%#@@@@%=:<343<:===%%%=::=%%%%%@%==%%%%%=3;*%=*%========***:<343<;*%%@@@$%*==:,<<<<<:=*:<333<==:<:==<<<:%*==<<:::=$%*%==%$$%==*%%==%@@%%===;,<:==;;=%%*;:;=%*========%%*==%%=<=%%=*$$$$$**%%===%%%=====%$=:<<<:=;::,<<;;,3:==:<333<:%:<<==,33<:*$@@XX@=:<<3333<-@%%%%*===**%%*$%=3=$$*$@$%%@%%%%%%=:=%%%***;<443<,=%$@@@@$%=:<3<::<<:=<44444<=*%%*=:,:=%$%%%%%:<44<:%%===;:<*%%==**%%%%%%%=:;:<<=%%=;=*%%*==;:",
"%==*==*%%*====%=:<:===*%%%$$$$%*==$$=<,====*=::,<<:%@@@$%=:<<:==**=;:<<:==:<<<<:==:=%$@@@%%%*=:<,:=%%%%$%=;;=**%%$@%=:$@$%@%,:%+%%%%%*==*%%%%*=<<<<<<<<:=%@@@%=:<<<<:=::=*;<333<,;=:<:;=<<<<<,=:<33<:%=====%$%*=;=*%===%$$$*=;:<<:*%=:;*=**%%*=:::;====*%%==;*%=,<,===%@@$%==%%%*%%@@$%%%*%@$=,:<,====;<3<==:<:==:<<<<,=%=:==:343<;*%@@%=:<<<343<:==*%@*:<:===*%%@$%%$%=*$%=%%%==*====;==**%%;<3<<<<:;*@@@@$%=,<3<::,<:==,<333<:==::==:<<,=::=,<<<:=%==**%%@$%==*%%*=*$$%%*==:<<=**=;=***=:=====;=====*%%*==%%=<:;==*$$@@%==%%===*%@%**=;=%=,3<,;=:<<<<<;=;:=*=:<333<:%*==%:<3<<<:=%%%%=,<<<3<<<<:%%%%%*;:=%%%%*%@@%@@%=%@@@@@%%%*%*=,:=%%%%%=<4433<<,;%@+@@%=<34<:=,:=*<434443<:=%=:<<<<:*%%$%;<4<,:=%=;:;;::*%=;=*%%$%%%%*;:=:<<=**=;=%%%==*=;",
"%==%*=**%%==;=*=;<:===*%%%%$%%%*==*%;,:=*=*%%==;,<<=@@$%*:<33<:===;:<<<:*=:<,,<<::;%$@+X+@%=;:<<<<;%%%%@$=:;=**%%$@@%%@@%=@$==$@%%%%%=;:=%%%%%;<<<<3333<:=%%%=:<<<<<:=*===:<333<<:==:;=;<3<33<;;,33<:%=::==%@%*=;=%$=;=%$$$*=;:<<:=%*;-===*%%=:,::<;=*=*%%=;:=%=:<:===%@@%*==%%%%%%@+@%**=*$%;<<<:=::,<33<==;,;==,<<3<<:=*=%=:4443,;=*==:<333343<:=*%%%=:<,====%%%$@@$%==%@$$%%=*%*==::;=*%%%:<<<<333<:*%$$%=:<44<;=:<:=;<3433<,===;==:<<<,,:=:<3<:=%=:;==%@$%==*%%*==%$$$*==:<<;**=;==**====:::::=====*%==*%%=<<:==*@@@$*==%%*==*%@%*=::;%=<43:==<333<<:=**%=;<<3343<=*%*=:333<<<::=;:,<333<<<<<,*%%%%=:<:=%%%%%@@++$=:=$@@@@%*==**=<<;*%%%%=<4444444<;*%%%=,<44<;%==*=<4343344<:=:<<<<3<;%%$%:43,;=%%=:<:;::=*=;=**%$$%%*=;;=:::=*=;==%%%==%*=",
"=;=%%*****=::;===<:===*%%%$@%**%*==%=:;=;:=%%%%=:<<:$@$%=,3<<<<:=-<<<<<:*=:<:;:<<,;%$@+X@%=:<<<<<<=%%%$@%;::=**%%$@@@+@$*=$+@@@@*%%%%=:<;*%%%*:<3<<3<<<<<,:;:,<33<<<<:%%*;<4333<<:=*===:<333<<:=:<3<:%=:<,:=@$%=;=$@=;;%$$$*=:::,:=%%==*%*=%%=::;;<:=*=*%%=;:=%=::=*=*%@@%=;=%%**%%$@@*=;;*%%;<4<:=:<3333<;=====:<<<33<,=*%%;<4433<<,:,<<33344333<:%%%==,<,=*==%%%%%%%=::*@@@%==*%%*;,,;=*%%%:<<<<33443,;=*=:<443<;==:==:3443<<<:=**==:<3<<<<;:,33,=%;,<:;*@%%*==*%==;*%$$%=*=:,:=*;:;=**=*=:<<,<<;%%======%%%=<<:==%@@@$===%$%==*%@%=:<<;%=<4<:=;<433<<,=%%%=:3<<<44<<;==:<4433333<<<<<3333<<<<<,==*%*=:<:=*%%%%$@+@%;<;%$@@$%*====;<<:=*%%%:234444444<<:::,3444<:%%%%:<44333443,=:<:;:<<:%%$*,4<:=*%$=:,;;::=*===*=%%$%%%=;;=;::%*=;=*%%%*%%*=",
"====%%*%%%=;::=%=<:=*=*%%%$@%*%%*==%*===;:=%$%*==,,;%@$%;<<:;:<:==<<<<<:**;,;=;<<<:=%@@@%-<<<<<<<<:*%%%$%;::=*==%$@@++@%;:%@XX@$%%%%%=:<:=%%*=:<<<33<<<<<<<<<<33<<<<<<:;:<34<<<<<<:===:<<3333<<=;<<<:%=:3<<;$%*=;=%%===%@$$%=;==;:=%%===%%=%%=--==<:=&**%%=;;*%=:=%%*%%@@$*==%%=*%%$@$*:,:*%%;<4<:=,<34433:=**=;,<<34<<<::=:,<4433<<3<33<33344333<:***=;,<:====*%%%%%%=:<=%@$%*=****=:,:=%**=:<<<<<34443<<<<<44433:;===-<3443<<<,:===:<<3<<<<:;:<3,=*=><<:%@%%*==*%*=;%@@$%=%*=:;*%;;=*%%=*=:3:::<:*&==**==*%*;:;===*$@+@%==%%*==*%$=:34<;%;<3<;=:34332<<::==:<3:::<3<<=**;<443333333<<<3333<<<<<,====&-<,;=*%%%%%$@$*=:;*%%%%%&*%*==,<:%%%%=:<34443344433<3444443,=**=<<3433344<:=:<<;=:<:*$%=:<<::;=%====;-=====*%=*%$%%%=:;=:::%*==*%$$*=*%*=",
"===*===%%*=;:;*%=<:=*;*$$$$$==%%*==%%%=====%$%;:;,:==%%=:<<--:<:==<<<<<:=%====:<<<<:;=*=:,<<<<<<<<:=%%%%*:,:=%**%%$@@@$*::=%++@$%%%**=:<:=*===:<<<<3<<<<<<<<<33<<<<<<:;=;:<<,:=;,<<,:,<333333<<;=:<:=%*:33<;$%%=;=%$*=%$$%$%=;===:=%%===%***%%*=:::=*%%&%%===**=:=%%=*%@@@%==%%*=%%$@$%;<:*$%;<4,::<<34443<:;;:,<<,:,<<<:;=:<34433333443333<44333<:====:,<:=====%%**&*==:=%%%%***&===;<:;====:<<<<<334444444444443<,:;:,34444333<<:::,<<3<<2<:;:<3,=*=:3<:%@%**==*%*==%#$$%==*=;;=*;;=*****=;<,:::=%%*=**==*%*===*==*$@@@$==%%===%%%=,44,=%=:<:==,3433<<3<<<,<<<=**;:,;=%%*:<43333333<<<<<33<<<<<<===::><,;==*%%%%%%%**==**%%%***=%%=,<:%====:<3444334444444444443<,:::<<<<33334<,=;,<:=:<,;=;:;<<<,:=%=;==;==*====*==*%%%%*::;,<:%%==*%$%=;;=%%",
"===*===%**=;;=%%=<<:==*$$$%%==%%===%$@*==%=*%%:<:,:=;==:<<,==:<==;<<<<<,;*%**=,<<<<<,::<<<<<<<<<<<:=%%%**:,:=%%%%%%%%%%=;:=%@@$%%%%===;<:;--==:<<<<3<<<<3333333<<<<<,;====:,:=*=:<43334443333<<:;;,:=%%;<3<=@$%=;=%@%=%$$%%%=;===:;=%==;=*==%%*:<<:=%%%&**===%=::=%==*%$@@%==%%==%%$@@%=,;*$%=,3:::<334444<<<<<<<,;==:::===:<<3333<3344333<<44333<:-::::<<:;====*===*==%=**=**==*&*==:<<:,::;,<<<<<3344444444444433<<:,<<44443333<<<<<<<3332<<:;:<:=%*:3<;%@%====*%*==$$%$%=====:=*======**%=:<<:;*%%======%%*;=**==%$$@@@%*%%===%%%=:24:=%=:::=;<333<<<<<33<3<<;=**=;=*==%;<43<33333<<<<<<<<<<33<:::<<<3<:=****=**==*%%%*=*=====;===<<:;::;=,33444444444444444443<<::::<<<<<<<33<==::;;:<<,:,:=<33<:=%;::::=%*========%%%%*:::<<:%%***%%%=;:=*%",
";::=%%%*===;;=%%*<<,==%$$@%==*%%===%$@*=:;:=%*:<<,;=:,,<3<:====*=:<<<<<<<:===:<<<<<<<<<<<<<<<<<<<<:====%*:<:*%%=*%%**%%%%%%%**%%%***%=:<<<<:;=<<<<<3333333333322<<3<:=::;=====;:<34444444333333,;=:;*$%=<<:=$@%=;=%$%=%$$%%%*;;;;,:=$*=:====%*;<3<<;*%%***==*%*::;==;*$$@@%=;====%%$@@%=,=%$@=,<;-,3333444444443<:=%%*=%%*==:<333<<34443<<<<44333<<:<<<<44<:;:;==;;;=;=%%%*:==--=**=:<<334<<:<<<<<<334444444444443333<,:,<344<<3333333<<333<<<:;;<:%%%;<<;%$%%*=======%$%$%=;==;>-%*=======%=:<3<-&%=====-=%*=:===:=%%%@@@%*%%==*%%%=:<3:*%*;:==:443<<<<<<3<<<344<:*%%=;,<==:4<<333333333<<<<3443<<<333344<:====;====%@%*=:======;::,<3333<::<33444444444444444444<:*%%&:<<;==:<4<;=*==;,3444<,=:<44,=%:<33:*@%====%%===%$%*:::<<:%%%==*%*==*%=:",
"=:::%%%=*==::;%%=,:===%$@@%===**===*%@*:<<>=%*:<<:;=,<<<3<,==**=;<<<<3<<<:==:<<<<<<<<<<<<<<<<<<<<<,:=;;::,<:====*%==***%%%%%***==**==:,<<<<<<,<<<<<333<<3333333<<<3<:=:,:;=*=;,<<34444443333333<:=;==*%=:<:=%@%====%***%$$%%%=:;;,,:%%===*%=*=;<3<3:=*%%%==&%%=::;===%$$@@%=====*%%@@$%=:=%%%=::=:<33333343333333<,:=%%*=-==:<343<<33333<<<<333333<<33<<<<<<<<:========*=%%====;===:<<<3343<<<<<<<<33444444444443333<:===:,<:;==:<3<33<<333<<3,;=,:==%=<,;%@%%*====**=%$%%%*;;;:,:=**===**==;<442,=*======*$*;,;;=:*%%%@@%***===%%%%=:<<=*====*;<443<<<<<<3<<3333<<=%%=::;*=:43<333333333<<<<<3333<<<333333<,=%%==**%%%===**=====;,<<333333<<<33444444444444444444<:=====;====<343,;==;:<44443<;:<44,=%:<43:%$%==;===;:=%%%*=;=:::&%*=*%%%*===:,",
"=:::*%**%*=::;%%=:=**=&$@$%===%*===*%@%:<3:=%=:<<:=;<<<3<<<:===;:<<,,<<<,;==:<<<<<<<<<<<<<<<<<<<<<<:;::,<<<<:::=*%==*%*%%%%%***==**=,<<<<33<<<<<<<<333<<3333333<<<<<:=::,:=*=,<3334443343<<<<<<<:=====%*:<:=%@$*===%%*=*%$%$%=;;;:<:*%%==*%====<<<<:=&%%%*&%%%:<:;===%$$@$*=**==*%%@@%%=:*%%%;:=;:3333333333333433<<;%%=::==:<44333<<<3333333333333343<<<<<<<<:=====**===**====:==:<<333344433<<<<<3444444444443333<,=====;:==*=:<3<3333333<<<<:=:::=%=:,;%@$%%*==*%&=&%$%%%;;::<:=**==***==:<444<;==**=;=%%=:<;::;&%$$@$**%%===%%$%=:<,=*====*:,<<<<<<<<<<<<33333<:**:,:=%=,3<<<33<33333<<<<<23333<<3333333<;==;=%%%%=;==%%*====:<<333333333344444444444444444444<;==::=*%*;,<333<,:::<344443<:;:44:=*:<4<=%%*==;===:;=%%%*==*=;;*%*==%%%%**=:,",
"==;=%%**%%==;=%%=:=%%=&$@@%*=*%%==**%@%;<3:=*=:<<;=:<<<3<<3<:::<<<:===::-=**=:<<<<33<<<<<<<3<<<<<<<,,<<<<<<<<<,=*%==*%%%==%%%&**=**:<3333<<<<<<<3333<<<<3<<33333<<<<:=*;,<==;<<<33333333<<<<<:;;;=**==*=;<:=%$$%===*%%==%@$@$%=;::<<=%%*==**===,<<,;=**%%%%%%=:<:;==*%@@$%==*%==*%%@@$%==%%%=::=:<<<<<33<<<334443<<<:**:<:==:<333<<<<<<3332<<<33343333<<2<<<<<:==:;=%%=;;=====;:;:<<333<3444333<<<34444444444443333<:=:::=*%%==:<<3333433<<<<,<:;=::=%=:,;%$@$%%==&%%==%$$@%=;;;<,:*==*%%===:<344<;==**=:*%%:<<:;;-%$$$@%=%%%===%$$%=:,:=*=**==;;==:<<<33<<<<333333,;;<<:==:<<<<<<<<33333<<<<<2233<<<333<<<33<:::;=*%=::;=%*=;:::<<<443333333344444444444444444444<:==:<;%%=<4443333<<<34444443,;:<4:=*:34,=%%*==:=*=;;=%%%%==*%=;*%%==*%%%*&=::",
"::=%%%**%*=;=%%=;:=%*=&$$$%%==%%==**%$%=<3:=%%:,,;;:<<<3<<3<<<<<<<,;=*=======:<<<<33<<<<<<<3<<<<<<<<<<<<<<<<<<,;*%:=%%%===*%%%*=:;:<<<333<<<<<<<3333<<<<3<<33333<<<<,:;:<<:;:<<<333333<<<<<,;*%**%%%=%*==<:=*%$%%===**===%$@$$==;:<<,=%%===*===:<<:==*%%**%%*:<<:;==%@@$*===%%**%%$@@%%==%%%========:<33<<<3444433<<:==<<<::<<33<<<<<<<3332<<<33343333<<2<<<<<<<,<,:===;;;==;:<<<<<<33<<3444333<<<34444444444443333<:=:<<:=%%=,4444333433<<:;**==%=;=**=,:=%@@%%*=%%%=-=*%@$*;::,<<;==*=**==;:<3<:=====;=*%=,<<:;==%%$$%=;*%%==%%@$*=::;=*&%%%%**%%=;<<<,<<<<<<<<3<<::<<<::,<:::<<<333333<<<<<2233<<<333<<<33<<<<<,:==:::;=:,<<<<333444444333333444444444444444444<:==:3:=%:<444334333344444444<::<<;**:<4:=%%*==;=%=;=%%%%%=;=*=:=%%=;=*%**%%=:",
"<<:*%*=*%*:=*%%=::====%$$$%%==*===%*%@%=,<:=%%:,:=;,<<<<<<3<<<3<<<<:;*%*=:;==:<<<<33<<<<<<<<<<<<<<<<<<<<<<<<<<<:;:,:=**=======;:,<<<<<<<<<<<<<<<23333<<<3<<33333<,:::::<<3:::3<<,,,<<3<,:,<:=*====%%%*%%*::;=%$$%*=:=**==*%%@@%=;:,,,:=%*==***=;,<;=%%%===%%=,<<:;=*$$%*=;==%%=*%%@@@%*==%$%**%%*==*=:<<<:<343<<<<<<:=;<<<<<<<,<<<<<<33333223333343333<33<<333<<<3<<::;::;;;,<33433333<<3444333<<<<3444444444433333<,==;,:;%*:<44443334333<;**==*%%==%%*::=%%$%%*==**==;=*%$%=:::<<:=========:<3<:====;:=*=:<3<::=%$$%%*==**===%$@%==::=*%%%%%*====**:,::<<<<:;;:,<<::<3<:::;==:<<3333343<<<<3333<<<<3333333333333<<:=;::;:<<33333334444443333334443444444443333<<<<::<4<;*:<4443343333344444443:::,=**;<4:=%%*==:===;=%%%%%=;:=::;*%*=====*%%:<",
"33<=**=**=;=*%%=::;;;=%#$@%*======%*%@%=:<;=%*::==:<<<<<<<<<<<3<<<3<,=%*:,:==:<<<233<<<<<<<<<<<<<<<<<<<<<<<<<<<<<<<<::======:,<<<33<<<<<<<<<<<<<<333333333333333<:==:::<<3:::3<:===:<3<,;:,===,<,:=%%%%%%;::=%$@%%=;==*===*%%@@%=;==::=%%*=%%*==::=%%$%==%%*;:::;=*$@%==;;==**=*%%@@$%*=*$@$%%%%=::;*=<<:=<33<::;:<<:=;<<<<<,:;:,<<<<<<33333333333333333333333<<<33<<:;;;;;:<43333<<33333444333<<<<34444444444333<3<<:==:<:*=:<44443334334<=*;:;=%%%*%$%=;==%%@%%====*=;;;=%@%=:::,<;=====**=;,<<;====;:===,<<::;=@@%%%===*===*%@@%==::%%%%%%%=:<<:=%;;;;<<<:=%$%=,<::<<:======:33<3333443<<<33333<<<333333343344433:==:==:<43334433444344333344444344443334433<::,<<<34<:=<333<<<33<<<<44444444,:::;===,4:*%%%==::;=;=%%%%%=;:;:,:=%%*====**=:<",
"33<;==%%%=;=*%%;::====%@@@%==*%===%*%@%=:<=**=::*:<<<<<<<<<<<<3<<<<<<=*=,<:;;,<<<233<<<<<<<<<<<<<<<<<<<<<<<<<<<<<<<3<<======:<<<<<<<<<<<<<<<<<<<<333333333333333,:====*=:<:::<:*$%%=<<<<:;:*=:<3<<:=%%%%%=;:=*%@$%====*==**==@@@%=%%%==%%%%%%**====%%%%*%$%=:*%%==%@$=;====**==%%%@@%%==$@@$$%*:<34<;=:::=<3<,=%@%=,:=;<<:=;===;,<<<<<<33<<<<<333333333333333<<<<333<:====;,<3333<<<33333444333<<<<33444334443333<<<3<,,<<:=;,344443334333:;:<<<<:=%%%$@%==*%%@@%*===*===;;=@$%;;==::;====**==:,:-==*=====::===:=%@%*=%%***=;*%%@@%==;=%%%%%%=<<443:%*==:<2<:%@@@%=<::<<=%*=;;;:33<<333333<<<33344<<<333333343344433:=%=%%:<433344<<44<<343<<344444444443334443<===:,<<4<:=<33<::,<3<:;:444444443,;::===:4:=%$%==;;=%===%%%%*=:=:<<=%%%%**%%==:<",
"3<,===*%*===**=:,:===*%@@$&=*&%==*%%%$%-::=%*=;==:::,<33<<<<<<3<<<<3<:==<<<<<<,:><33<<<<<<<<<<<<<<<<<<<<<<<<<<<<<<<<<<=====:<<<<<<<<<<<<3<<<<<<<<<33<<<<<<333333<>=--===:,::::*@@$*:<3<<:;=%=:<<<<<:=%%%%%-::=%@@%*===*****==@@@%%%*=*%%%%%%%***%%%%%*%%%$$%=%%%%%@@%=;=*====*%%%@@$%%=*@@@$%=:<333<:=;:==<33<:%@@%=:=:<,;*====:<<<<<<<33<<<<<<333334333333333<<<332<;====;<<33333<<333333343<<<<3333444334443<2<:;:,<<<<<:=;,34<<<<334<,<:::<<<<<,;%%%%%==*=%@@$%*==***%===%@$*=**===%****===;::===*=***=;=%%%*%$@%==%%*%*==*%%@%&====%%%%*:<33<<<:=**=;<<<,=%@+@%:;;,:======;:<<<<<<<<<<<<<<3334<<<333333443444444:=%*$$=<4333443344<,3433<344333334443334433<:=====:<<:=,,:%%%=:<3<;;<3444<,:::;;;;==:<,=%$%==;:=%===%%%%%=:=:<<:*%%%******;<",
"3<:===**===**=;,<;===%@@$%==*%*==**%%%*;::*%===**====:<3<<,<<<3<<<<<<:=;<<<<,:;=:<33<<33<<<<<<<<<<<<<<<<<<<<<<<<<<<<<<=%**=:<<<<<<<<<<333<<<<<<<<<<3<<<<<<333333<:======;::;==%@@$=:<<<::;;%=:::,<<<:==%%%=;:;=%@$%*===%%**=*@@@%$%==*%$%%%%%%%%%%%%%*%%%%$%%%%%%@@@%==*%&*=*%%%$@%%%**%@@$%=:<44<<,::;:;=:<<<:*@@$*===<:======:,<<<<<233<<33<<333334333333333<<<33<<=**%%=333334333333333333<<<<3333344333333<3<:==::::<<:==,<<:=;:<33::::::::<33<,-*%%%*===*%@@$%*==*%%===%$$%%**==*%**%*=========***%%==%%%%%%$@%*=%%%%==*%%$$%*=-=%%%*=:<33<,;,:=====::::=%@@$%===:======*=:<<<<<<<<<<<<<<333333<<33334444444334:=$%@#=<3333333333<,3333<333333334443334333<:;=====<<:=:;%@@%=,23<:=,343<:=========*=:,;*%%*=;:=*==;=%%%%*:;:,4:=*%*****%%=:",
"<<:===*=::=%*=,<<====$@@%===%%===**%%%*;:=&%==%%%%%%%=:3<:;,<<<<,,<<<:=:<<,:;=*%;<33<<33<<<<<<<<<<<<<<<<<<<3<<<<<<<<<<*%%%*;<<<<<<3<<<333<<<<<<<<333<<<<<3333<33<:====;==;;==%%%@%=::::==::*=;==;<<3<<:=***=::;*%@$%*==%%%**%@@@$#$%==%$%%%%%%%%%%$$%*%%$%%%%**%@@@@%*=*%%*=%%$@@%***=*%$$%=:<343<;;::;::==;::;=%$%%%%=,=======-:<<<<2333<<33333333343333333333<<333<=%%%%=33333333<<3333333333333<<<34433<<33<3<,;=====:<,==,<;%@@=,33::;;::==:333<<:=%%*===*%%@@@%*==*%===%%$$$*===****%*==*=======****%%*=*%%%%@@%=%%%==*%%$#%*===%%%*=:<333<=%;===:=%*==**%@%==%%=;=**%%%*%=,<3<<<<<<33333333333<<33333333333333,=$@@%:<3<<3333343<<333<<333333334443334443<;======:::=:*@X@%;<43<:;:34<=**==*%*==**=::;*%%%*=;;===::=*%%%;;::3<:=&==**%%%=:",
"<:;====::;=*=::,:;:=%@%=========*%%$%*=:;%$%%%%%=:::;=-<:;=<<<:=**=:::;:<:;=====:<33<<33<<<<<<<<<<<<<<<<<<<3<<<<<<<<<<=%@@%;<<<<<<3<<<333<<<<<<<<333<<<<<333<<33:====****==*%;:=%%%&**%%*:<;===&=<3333<:==**=::=*%@@%%*****%%%$@@@@@$*===*%%%%%**%$$$$@%=****%@@@@@$%%%%%*=%@@@@%*====%$@$=><<343,====;<:*%%%%%%%%==*%*=**=**====:<<<2<<3<<<<<33333344333333333<<3333:=%%=:33<<3333<<3333333333333<<<34433<<33<<<,;==;==;<:=:::%@@@=<33,:;;====:33333<:%$%%===%%%@@@@%=*%***%%%$$%%========**%==========**==%$@$$$$%%&%%%=*%%@@%===-%%%%=:<3333,=%=%%::=$$%%%%%@%*==%%%%%%*====;<<3<<<<<<33333333333<<<333333<<33333<:=$%=<<<<<<<<344433333<<33333333433334444<:===*====:;**%%@%*:,<:;=;,3<;*:<<<:=**=*%*;,:==%%%==:===:::;=%%%;:::::;===**%$%*=",
"<:==*==:;=**=:==;;-*$%=====**===*%$@%==;=%%%%%==:<<<,;=::;:<<<,=%$$*==;:<:======:<<<<<<<<<<<<<<<<<<<<<<<<<<3<<<<<<<33<:*@@*:<<<<<<<<<<333<<<<<<<3333<<<33333<<33:;===****%%%*==*%%*====%%=::;===:<3333<:==*%%=;;=*%@@$%%**=*%%$$%%%$@$%*==*%$$%**%%$$$$*===*%@@@%$$%%%%=*%%@@@@$%=;;=*%%@%:<<<443,=**=:::%%====*%%*==*%*%%%%*====:<<<<<<3<<<<<333443433333333333<3333<:=%;<3<<<3333<<3333<333333<<<<<<33<<<<33<<,:=*=====::====%@@%:<3<:;;:=%%=:33<<33,=%%%*=;==%$@@@@%%%=*%*%%%%%%%=-;;-==***====**=======%$@$%%%$%%&*%%%%$@@%%=;==%%%%=:33333<:**==<:=%*=;;=%@@$%*%%%%%%%====:<<33<<<<3443333333332<<333333<<333333<:%=:33<<<<<<334333443<<<3<<33333333<4444<:===**=====%==*%%*====%*:<4<;=,<<3<:;===*%=::;=*%%*=;;==;;=;:=%$=====-:=***%%%%*=",
":===**===*%*==%%*=*$@==-****===%%$@$%=;==%%%%*:<<<<<<:=:=;:<<<<:*@@$%==;:========:<<<<<<<<<<<<<<<<<<<<<<<<<3<<<<<<<<33<;%%=<<<<<<<<<<<<<3<<<<<<23333<<<3333<<333<:=;==*==%%%=*%@$%=<<<,:===,::=:,<<333<,====%*=;:;=%$@$$%%=*%%$%%==*%@@$%==*%$%%%%%$$%*===*%@@%*=%%%*%%=%$@X+@%%=;:=%%%%%;,<<<444<:==:<;=*:,<<:=##%%=*%%%%%%===;:<<3<<<33<<<<<33344433333<<33433333334<==:<3<<33333<<3333<<3333<<<<<<<<<<<<<333<,=%%%%======%**%$$%:,<:==:,:=%=,<<<<44<:*%%%=;:==%%@@+@$%=*%*%%*==*%*==;:;=*======%%*=;::=%@@%%=*%$%%*=*%$@@@%%=;==%%*==;<33333<<:=:,,=*=:<<<:%@@@@%%$#%==%*==;,3333<<<<344333333<<33<<3333<<<3333333<<*=,32<<<<<<3333<<443<<<3<<3333333<<3444<:=:;=%%%%%%%===$%%**%%@&:34<;;,<<33<<:==***;::;=%%%*=:======:;*@%*=*%=;=%%%%%%%%*",
"*===**%%**%%%*%%%%%@$*==%%%===*%$@@%*=:==%%*=:<<<<<:::;:;==:<<<:=$$%%%*=:===*%*=*;,<<<<<<<<<<<<<<<<<<<<<<<<3<<<<<<<<33<:==:<<<<<<<<<<<<<3<<<<<<33333<<<3333<<333<<:==**==%%%%@@@$$=<443<:=*:<<<<<<<3333<<<,:=%%=;::=%$@++@%%%%%%%=;=%%@@@%==%%$%%%%@@%;==%%%%*===*%%=*%%@XXX@%=;::=%$%%*:,<<<<4444<,<<,=%=<333:%##$$%%%%%*%%%==;:<<3<<<<<<<<<<33333333333<<34443333344<==:<3<<33333<<3333<33333<<<<<<<<<<<<<<33<<;==****%==%%=;=%%%****%=:<<,:<<<<<<444<:=%%%%=;:;*%@+++@%***%%*=;:=%%==::==*%*===%%=;::=%@$%===%%%%%%%@+@@@%*=;;=%%=::<<4333333<<<<<===,<33<=%@%%%%$@@%==%%%=:<333<<<<<<3333<<<<<<<<<<3333<<<<333333<:*=<32<<<<<<3333<<343<<333<33333333<3333<,=;;=%%%%%%==%@+@*:::=%%=<3<;;:::<333<:=*===::;=%%%%%=====*=:;=%%%*=*%=%%%%%%%%%*",
"%%*%**%%%%%%%*=*%$$$$%==%%%=*%%@@$%%==;=%%*=:<<<<<:=::=:::======%%%==%*==%&*%*===:<<<<<<<<<<<<<<<<<<<<<<<<33<<<<<<<3333:==:<<<<<<3322<<<3<<<<<<<3333<<<343<<<<<<3<,===*=*%@%*====%*:<333<;%:<4<<<<<3<<,:::,<<:;===;=*$@+@@$$$@$%%===*%%%@$%=*%@$$@@@%==*%%%***==*%%%%%@@+XXX@%=====**====:::<<34444<<<:==:<3<<=%&=::-=%$%=*%%%*:<<<<<<<<<<<<<<344333333<<<<3443<<<<334<;=:<3<333433<<3333<3433333<<<<<<333<<<<<3<:;==***%%%*===%%%*==*%%*:<<<<<<<<<<4<,:==========*%@@+@@@@%%%%%=;:;===*=;:==*%%**%*=:;=%%%%==;=%%%%$@@XX+@%*======:<,:::,,<<<333<<<<==;<<<<,=%=:::;%@+%*==**=,<3333<<<<<333<<<<<<<<<<<<<33<<<<333333<,=;<43<<333334443334333333333333343<33333<;==*%==%%%==%%$$%;<<<:==;<<:=;:=<<334<,====;::=*%%$%%===**===%%$%%****%%%%%%%%%%",
"%%%%%%%%%***===%$@@%%%%%%%%*%@@@@%%==;=%%%=:<<<<<,;%===:,;*%*==*%%%*===%%%%%%*===:<<<<<<<<<<<<<<<<<<<<<<<<<33<<<<223333,;=:<33<<<<333<<<<<3<<<<<3333<<<333<<<<<23<<=====%$@$=::,,==:<<<3<:*;<43<<<<<,:====;,3<<:;=*%%$@@$%*%%$@$%%**%%%%%$$%%%@@$$@%%=*%%%***%%%%$@$$$$$@@++@$%%%=;:::;*%%==:<3434443<:==:<<<,==:<<<>=%@%**%%%=:<<<<<<<33<<<<<344333433<<<<<333<<<3334<:=,<33333333<<3333<333333333<<<<43333<<<<<<:==*%%*%%*==%$@%=::==**=:<3333<3<<<:=%%%=::::=%%%$@@@$%$$%$%%%%=;====**=:;=%%%%*%==;=%%*=*===*%%$$$@@@@@@$%===;:,<<:=%*==:,<33333<<==;<<,:,;=,<<::%@X@%*===:<<33333<<<<333<<<<<<<3<<<<<33<<33333333<,=;<433333443<<<3444333333333333344<33334<:=*%%*=*%%=;;;=%%=<44<:==,<,====,<34444,;*%=;:;==%$@@%*=%*==*%%$%%%%%****%%%%%%%",
"=*%@$$$%*=====%@@@$%=%%%%%%%@@@@%*==;=*%%%:<<<<<<,;%%=;,:=%==;:=*%@@%==%%%*%%*==;,<<<<<<<33<<<<<<<<<<<<<<<<<<<<<<<<<<<<,;=:<33<<<<333<<<<<3<<3333333<<<<3333<<223<<;;;==%@+$=;:<4<::<::<<:*:<43<<<<:=%$@@@%=<33<:=$@@$%%*=:::=%@@%%%%$$$%%$@@%%%%%%%==%%%=*%$@$$@++@$*==*%%@@@@@%;<33:=@@+@%=:<433443<:==::::,=:33<<:=%$%%%*==*:<<<<<<3333<<<<34433333<<<<,<<333333344<:=,<4443333333333<<<333333333<<3433333<<<3<:=%*%%=%%**%%@@$=<<<:==%=<444333<:=*$@@@%:<4<=%++@$%%*=;=*@@@@$&=%====*%;:=%%%%**=;=%%*==%***%%@@%%===%@@@@@%=:<33:*@@@@@%=,33333<<===<::=<,,<,:==%@X@%*==;<<33<<<<<<33333<<<<<<<33<<3<<<<<34443333<,*;<44333333<:::<344333333333333344333344<:=*=%===%%=<33<=%%<333<;*:<<:**=,<444444:*%*=;::==$@@@%*%*==*%%$%%@@$*====*%@$%%",
"=%%@$%%&=;==%$$%%*%**%%%*%@@@@@%*=;;=%%%%=,<<<<<<<:==:::===:,<,=%@@$%*%%%*=*%%%=:<<<<<<<<33<<<<<<<<<<<<<<<<<<<<<<<<<<<<,;=:<33<<<<333<<<<<3<<3333333<<<<3333<<<<33<,:===%@@@%==:<<<<<;=::==:<33<<<<:*@@@@@@%=<3<;%%*======;;;=%$@@%%%%%$%%%@@@$$%%%*%%%*==%%$@@@XX@%%===*%%%*==%$%:<<*@+@+@@$=<433443<,=**==:<:,3<:;=%@@@%*===:<<<:<<<3333<<<<3343333333<:==:<33333334<:;<343333<<3<,:,<<<<333333333<<3443333<<<3<:=*=*%*%%%%=::=%%:<3<,-*=,443<<3<-$@@##@$%:<:*%%===*=======%$@@$%%**==;===========%%==******%%$$%=;;;=*%%%%$%*:<3<=$@@@@@@*:<33333<:=*===;<<<<:===%$@@%=;:<333<::<3<<33333<<<<<<<33<<<;==:<34443333<<;:<4433333<:=*=:<44433333333333344333<<33<:===*%%$%=:<<4<;*<<,<,;%:<4<::,24444444<=**==:::=*$@@@@$%==&%%%*=%$@$*==;=%$$%%",
"*%%@@%*====%%%%===***%%%$@XX+@%====*%%*==:<<<<<<<<<,:<<:==:<<<<=%%====%%%*=*%%*=:<333<<<<<<<<<<<<<<<<<<<<<:;;:<<<<<<<<<,;=,<33<<<<3<<:;:,<3<<33<<333<<<<3333<:::<33<<::=*%$%%===;<<<<:====;<<33<<<,=%@@@%$@$%:,:%%%=::::;======%$@@@$%%%%%%$@@@$%%%%%$%==*%$$@@@@@$%*=====;::::=$@*;:$@@$@@+@%:334443<<;*%*=,<<<<:===%$$$%=:::<<<,=:<<3333<<<<333333333<:====:<3333334<:;,<43333<<3<:=;:<333333333333334433333333<<:===*%$$$*:<<,=%;:<<<:==:333<<3:=#@@%%%%%=:=%%=:::::;======%@@$%%%**===**==*===*%%%==****&%%@$%=======*===*%%*:<:%@@$@@@@%=<<3333<<;=**=:<3<,====%%%%*:,<343<:=:<3<<333<<<<<<<<3343<;***=,<4443333<<;:<4333<<<<=*===:<444433333333334444<::<33<:;=*%%@$%=;:3<:;<:;::=*:<44333444444443,:===;:::==%@++@@%%&***===*%$%%*==*%$%%",
"%%$@@%=;=*%%%*===****%%@+XXX+$*===&%%%==:::,<<<<<<<<<<<==;,<<<:*%;,<,:*$$%%*====:<<<<<<<<<<<<<<<<<<<<<<<<:=%%=:<2<<<<<<,:;,<<<<<<<3<:=*=;,<<<33<<333<<<33333<:==,<333<<:=**%%====><33,;==::<334<<<:*%$$%%%%$$==*@@%=:<<<::=======%@@@$%%%%%%@@@@$%$@$%**%%%$%@@@$%*===;::,,<,:;*$X@%*$%%%%@+@%=334443<<:;==:<33<<===*%%%%=:<<<<<,;%=,33333<<<<<33343333,:====:<4333444<:=,<43333333:===;:<34444333333333433333<<<3<<:-=*%$@@*;:<<:=:;:,<:==:333333:*%$$%*=*%%%%@%*=:<<<,:;====*%%%$%**%====**=%*=*%%%*====**%$@@%*====*===:,,=%@@=:=$@$%%@@@$*:<333<<3,-*=:<<3<:===*%%===:<444<,=*=:<33333<<<<<<<<333<:=*-==:<4443333<<=:<4333<<<<==:;=;<344433433333334444<;=:<43<::=*%$%%*==,<<,<:=====:34744444444444<<,:::;;:::;=$@++@@@%&%*==;=*%%%%*==%$%%",
"$$$@%=:=%%%======%%%%@@@@@@++@@$$%=::,:=%%%=:,<<<<<<<<,==;,<<<:==<<<::*%@@%*==:,<<<:,<<<<<<<<<<<<<<<<<<<:=%%%*=<2<<<<<<,;=:<<<<<<<3<:=====<<<33<<333<<<3333<<:=%=:333<,:;=%%%%*==><33<<:,<334443<<<;%$$$%*=*$$@@@@%%=:34433<<,:::=%@@$%%%$%%@@+@@@@@@%%%$$$%%@@$==::,<<<<<<<:%@@+X+@$*==%@++%=,334443343<<33333<:===%%%%*=;<3<<<:*%*:33333<<<<<3344<<<<:::<:;:<4433444<::,<43333333:=:,;=<3444433333333343333<:,<333<:;=%%$$%*=;<<,<:==:=*=:333333<:=$@@%==*%@@@@$@%;<<33<<<:::;=%%%%***%%=*%%%%**%%****==*%$@@%======;::<<<:%$@X@%%$%=*$@@$%;<<333<<33<:<<<<3<;==*%%%%===<344<:*%=:<3333<<<<<<<<<<>:,=-,<;=:<4444333<<:,3433<<<<<==:<:;:<<<334444344333443:=%=<4433<:==%%*====,344<;%%*;<447777444444<:;;:<3<:::==**%@@@@@@@$%*===**==%@@%%%%%$",
"@$%$%==%%%%**%%%%@$%%%%%%%$@@#$@@%;<<,=%@$@$%=,<<<<<<<<===:;:,,::<,:==%$$$*=::,<<<:=:,<<<<<<<<<<<<<<<<<<;==:=*=<2<<<<<<,:=:<<<<<<<<<;==:;=:,,,<<<333<<<3333<<;*%*:<33<:===*%**===:<3333<333334333<<<:%$@$%%%@@@$@@@@%=,343<<,<2<<<:*@@%%%%%%@@XX@@@@@%%$@$%%$@%=:,<<<<<<<<<:&@@@@@+@@%%%@@@%;,<3344433443333333<:===*%%%**=,<3<,=%%%;<3433<<<<3333<:==:==:<;=:<4433334<::<343343<<3:;:<:;:>::<<3333333333333<<=;:<333<,;%%%%%===;,<<,;%=*%=,<<3333<<:=$@@%%%$@$$$@@$%;<33333<<<<,:=%%*=%%%=*%$%%%%$%*=====*%$$*::::::,<<<<<:*$@@@@@@@%%%@@@%:<<<3333333<<<<<<3<====*%%%===:<44:=%$*:<<343<<<<<<<<<;=====:<::<34444333<<:,34433<33<;=;::==;;=:<444333333444<:*%=:3333<:==%%%*==*:<43<,:;:<<3447444444<,;=%**;<33<:=%$$$$%%%%%%%%%%%%%%*=*%%%%%%%%",
"$%%%%==%*=%%%%%$@@@$%*===*%%***%$%=,<:%@@$@@@%:<<<<<33<:=*==;,<<<<:==*%%%%=:,<<3<:=%=:<<<<<<<<<<<<<<,,,,==;<===<3<<<<33<:=,<<<<<<<<<:=;<:=;;==:<<3333<<333<<<;%$%=<3<,;===**=====:<3334443<<333<<<<<<=%$$$%$@@@%%$@@@%;<<<:;;:<343<-$@%*%%%%$@+XX@@@%%$@$%*%@$=,<<<<<:::,<<=$@@@@%@@@$$@+@%;<<3334444444433333<,;===*%%%===:<3<:=$$%;<34433333333<,=%%*%=;:;:,<4333334<::<343343<<3,::<:=;===:<3333333333<<<<:===<<333<:%%**%*=*=:33<:====:<<<<33333<:*$@@$$@@$%%$$@$%<3<<<<<3433<:%%*=*%%=*%$%%%$$%%==*==*%%*:<<<<<,,<<<<:=$@@$%@@@@@@@@@%;<3333333443333<<<2,=======%=;;:<33:%@$%;<<343<<<<<<<<,=%%%%=;:,<333443343<:=:<33333333::===%%%%%=,444333333444<:%$%=<<3<:===%$%%*=*:<43<<<<<333444444443:=%%%%$*:34<;*%%%%%%*====*%$$$$%%%****%$%%%%",
"%%%%%%*%==%%%%%@@+@%=======;:<<:*$@=:=@@$%$@@@=:<<<333<,=%%*:<<<<:====*%&*=,3333<=%%=:<<<33333<<<<<:=*==%=:,==:<<<<<<<<<:=:<<<<<<<<<<:::;=*%%%=<333333333333,=%$@%:3<:=::===;===;:,3344333<<233<<<<3<<=%$@@$@@@%=%@@@@*,<:%%%%;,<::=%@%=*%%%%%@XXX@%%%@@%==%@*:<<<<,;%$$=,>%@@@$%%@@@@@@@$=<<33334444444333344<:=======%=;;=,<<:%@@%;<34443333344<:==*%$%*=:<<343333<<<;=:<433433333<,;*%%%%%;,3333333333<<<<:*%*:<<<<:=%%*%%%%*=,334<,::,<<333333<<<<:%$@@@@$$%*%%$$$:<<;==:<3334<=%*;=*%**%%%$@@%%%==*==*%*:2444<:=*=,<<=$+@$%%$@@@@@@@%=<<3333333333333<<<<:=======%:,:=:<3=%@$%=<<333<<<<<22<:==%$%%%=<4433443343:=%=:<<3333333<:*%%@%%%*:444433333334<:*@$*:<<<:===%%%%*==:<4<<<33333344444444<=%$%%%$%=,<:*%%=:;;===;===%$@@$%%%%%%=%@@%%%",
"%%%%%*=*==%%%%$@@$%===;:::,<<>;=%@+%*%%**%@@@$=:<<<333<<::;:<<<3<====%%%%*=;<<33:=%$*:<<<33333<<<<<:%%%%@%=;::,<<<<<<<<:=*:,<<<<<<<<<<:=*%%%&=;,33333<33333<<=%#@%:<<:=:<:;==*===;:<344333<<233<<<<3<<<:;=**%%%%%$@@@@%::=%%%%*;:%%%$@$=;=%$%%$+XX$%%%$*=:=%@====:::%$@@*;:@+@@@@@@$%%%*=:,<<333344444443333443:=======*:::=:<<=%@$%;<34443333344<<,,:=*===:<3443333<<:=%=:444433333<:==*%*=::<3333333333<<<<:%%%=:<3<:=*=*%$%%*=:<343<<<<<<<33333<<<<<:;==%**%$@@@$$@:::%%*=:<3<<,:==::==*==*%$@@%===**=;=%=;:<<<:*%$%;<<=@@@@$%$$%%%%*=:<<33333333333333<<<<:======::<<:=:<4=%@$%;<<333<<<<<22<<:>:%%===:<44344334<=%%%=<33333333<;===%=:,:<444333333334<:*@@%:<<,=;:;*%====;:,3<<<33333444444444:*%$%*==**=:=%@%=:,<,:,:::-==%%@$%=%%%=%@@%%%",
"%%%$%&=%**%%%%@@%=-:::,<,<<<,=%$@@@@$%*=*%@@$=:,<<<<<<<<<<,<<<<<<===*%%%%===,<3<:%@$*:<<<33333<<<<<:%=*$@%==:,<<<<<<<<,;*%=:<<<<<<<33<:=*%%*-::<3333<<33333<<;%@@%;<<;=<3<<::;::::,<34433<<<<333333333<<<:=*%*==$@@@@@%;;=*==*==;%$$@X@%:=%@$%%@++%*%%%=:,=%%=%%%=;=%%%%===@X@@@@@%=*%%=:<<33333344444444333443:=====;::<<,=:<<=$+@*:<34443333344<<<<,:=:,;:<4443333<:=*%*:44444333<<:;;=%=:<,<<<<<333333<<3<:%$$%:<3<;=;=*%%%%==:<34333333<<333333333<<<:=%===%@@@@@@=;=%%%*:,<:;;:===<:=*===%$@$*==*=;<:=$%*==::=%%%%=:,%@@@@@$%*%%=;:,<<33<33<<333333333<<<<::,,:,<<<<<=;,4;%@$=:33333<<<<<<<<,:,:==;:=:<44444334<;%%%=<44334444<;:::*:<<<<444333333334<:*@@%;<<:=:<:======;;:<3<<33344444444444<;*%%%====*=%$@%%=:<<<<<<<,::;=$$%=%%%%$@@%%%",
"%$$@%%%*%%%*%%@%=:,<<<<<<<<,=%@@@@$@@@%%%@@$=,<<<<<<<<<<<<<<<<<<,====*%%*===:<3<=%@$=:<<<333333333<::,:*%=;=:<<<<<<<<3:=$$%=<<<<<<<33<:;;=%;,<<<<333<<33333<<:%@@%:<:=:<333<<<<<<<<<<4433<<<<33333333<<34<;%@*;:%@@@+@$%=======::*%%$XX@==*@@@%%@@%%%@%=;:%%=%%$@%==%*===*%XX+@+@@::=@$=,3333344444444444333442,:::;::<<33<=:<3=$+@=:344443333333<<:::::<<::<4433333<:=%%=:44444443<<::::=:<<,<<<<<333333333<:%#@%;<3,==,;=*=**==::343333333333333344433<;%@%;:*$@@@@@%==****=::*%*====<<:=%*=*$@%==%%=<4:%@%%$%=:==***==:%@@@@@@=;*%*:<<<<<<<<<<<<33333333<<<334443<<<<3<;=:4:%@%:<43333<<<<<<<,:==;==:<:,344444334<:*%%=<34433344<:<<,=:,::<4444444444443:*$@%=<<:=,3<::;=*===:<3<<333334444444474<:=%%%===%%%%%%$%=:<344444<<<:=%$%*%%%$@#@%%",
"%$@@%%%%%%*=%$%=,<<<<,::,<<:%@@@$%%@@@@@@@%=:<<<<<<<<<<<<<<<<<<<:=;====*%::;=<<,=%@$=:<<<333333333<<<<<:=:<=:<<<<<<<<3:=%$*:<<<<<<333<::::*::;;:<3333333333<<<;@@%:<:=:<3<::<<<3433<<34333<<333333333<<3<;%@@%;<=%@@#$$%%%%%%%*=;::=%+X@$%%%@@$$@@%%@@$%*%$%=%%%==**%%$$$@@+X++@%=<:*@@@=,333344444444444333443322<<<,::<<<;;:3=$+$=<333443333333,;*====:<:<<43<<<44<:*%%=:44333433<<,:,:=;;==:<<<<333333333<:%@@@=<<;=:<:===*%===:<4333334433333334443<;%@@%=<:=*%@@@%%=*==*==:;=**;;*;;=*%%==%@&*%@%;,,=%@%%%*::;==***%%$@@+@@%::%@@%=<<<<<333<<<333333333<<44443<:;::<3:=:4:*$=<344333<<<<<<<:=%%%%=:<<<444444434:=%@$*<343<:,<4<,<<:*==**:<344444444333,=@@%:<<;=<443<<::::::<<<<33333444444447444,=%%%%%%%%*%%$%%=<344433<<<<,=%%**%%%%$$$%",
"@@@$%%%%*===%$=:<<<<:=**=:,;$@@@%%%@@@$$%%=:<<<<<<<<<<<<<<<<<<<,:======;:<,:=,<,*@@$=,<<<<<33<<<3<<:=;:;=:<;:<<<<<<<<<:*$$%;<<<333333<,,,:%====;,433333<<<33<<,=%=,<:=,<,===;:<34333334433<<<3<<33333<<<,*%@@%=<;=%%%%=;:;%===*%%==-=%$@@$%=%@@@@@%@@%==%$$*:=**%%%%%*%@$%*%@@$%=:<:%$@@$;<3<23444444444433344432<<<:===;:<:::3:%$=:<3334433333<<:====%*:<<<<<:;=:<3<=%@$%=:<3<<<<<3<<<,:%*===;,<<<33333<<333<=@@@=<<;;:3<,::==;=;:<333333444433333333<,=%$@%=<<:=%%%%%*%%%*%*==;;==::=*===%%%*%%*%$@*;:=%%%%=-;;===*%%%*%%%%%$%;:;%$@#%:<3<<333<<<333333343<34433<:=*%*:<,::4:==<34443<<<<<<<<<:===*%%:<4444<<:,<<<=%@@@%:<3,=*=:<33<<;$%===:,344433444434<:%@%:<,=:<3<::,,<<<<<<<<<33<<<3444444444443:=%%%%%$%*=*%%$%:<<<:::<<33<:=%===%%%%%%$",
"@@$%%%%%=;:=%%=::,<,=%%%%::=$@@@@$$%%%%*=;:<<<<<<<<<<233<<<<<<<::=;===::<<<:=:<<*@@%;<<<<<<33<<<<<:=%%***:<:,<<,:::<<<;%@@%=:<<<<<<<<<<<,;%%*==;,444333<<<33<<<<==,,;=<:=%%*=:<34333334433<<<<<<33333<3<:%%%$%=:;=====:,<,==::=%%=====%@+$*;=%@@@@@@%:::=$%=:==%%$@$=;=$%=:=%%%%*;,;%%%$@=,3<2344444433333333333<<<<;=%%%=,,::<:=*:<333344333333<:=::;%%;<<3<:====:<<*$@@@%=,<<:::,<333,;%*===;:<<<33333<<333<:%@@;<<=:<43<<<::,:::<333333333344333333<:%%%@$=<,:=*%%====%*===*==;;=::=*=;:=%$%%%%$$%=;=%%%*=;:;=%%==%%====***%*::=$%$#@;<3<<333<<<3333<3333<34433<;=%%%*:<::3:;,443343<<<<<<<<<:=;::**;<4443:;=;:<:%@@@@%=<<:*&**:<43,=$%;,:::3444334444444<:**<<:=:<,===:,<444333<<3<<<<3444444474444<:=**%%%%%=*%%$%;<<:=*=:<<<<<:*=::;*%%%%%",
"@@$===**;,<=%*=**=::=%%%%==%@@@@@@$==%%;,<<<<<<<<<333333<<<<<<<:::::::<<<<<,=:<<*@+*:3<<<<<3<<<<<<;*%%%$%:<<<<,=%%*:<<=%@@@$%:<<:;:<<333,=%%=:=;,444333<<<33<<<3:;:::;<=%$%*=:<444333344333333333444333<=%%%%%%====-==:<3<;;:<:==;=%$==%@$=<<:%++@X@=33,=*=:<=%%%%%%,:=%;,<:=%%%%%==%%%%@%:<<3444444433333333333<<<<:=%%@%:<:;<:;:344444444433333:;,<<:*=,<3<=*=;=:,:%@@@@%%:,:=%*;,<33:=%=:<=;,<<<3333334333<<=%$:<,=:<4<,:<<<43<<<333333333344333333,=$$%@@%:=*%%%%;<<:==:3:=%*==:<<:=;:<<;$$%$$@%==;=%*=:::=*%%=::==:<<:=**====%$$%%@=,3<<333333<<<<<333<<<44444:=*%$%*:::<;:<333343<<<<<<<<<,;;<<:==:44<<=%**;:=@@@@@%*::;::;%=<43:==:<4<::444444444444444:;<<:=<,=%%*=:<333433333<<<3444444744444443<::=*=*%%%%%@%=<:=**==,,:;::;=:<<:=%*%%",
"@$%=*%$%=::*%=%%%*::====*=*$@+@@@%=,=$@%=<<<<<<<<<333333<<<<<<<<<<<<,:;;;:<<=:<3=%%:<3<<<<<3<<<<<<;=::=%%=<33<;*===;::%@++@@@=::=**=,<<<:==:,<;:<444333<<<3<<::<:;=::=;%$$%=:<3443<<<3443333333334443<3,=%%%%$%*==:<:==:<3:=;<:==::=@%%@@%=<<<;@XXX*:33,;===*@%=:=*=:;*=:,:==;::=%*%$%%%@%:3<3334444433443333333<<<<<:=*%%=::;,;;::::<<3444333443<,<33<;=:<<:==:<<:=%$@@@$%%:,,::;=:<3<;==,<<::<<<34<<333333333,=*,<:=:<,=%%=:<43<<<333<<3333334333333,=@$%$@%***=,:==:<<;=:<:;=:-=%;:,=:<44<=@@@@*:<<:=%=;:=*=;==;::==:<,;==:===*%@%%%@=:3<<<443333<<333443<3333442>==*%*::::=;::==<34<<<<<<<<<<::,<;*=:<4<==:<<<:=%@$@@$$*;<3<,==,4,==:,34<<<44444444444<<<3,::::=,;*%%*=:<3333333<<<<<3333334444444444<:=%%::=%$$@@$%:::::::<:=%%=;==:<:=%%%%",
"$$%=%$@%===%==%%*===**==%*%@@@@$%=,<=@@@%;<<<<33<<<<<3333<<<<<<<<<<<,;==*=:<:;:<==:<<<<<<<<<33<<<<:;<<,=*=:3<,=*;:::;=$@++@@@=:::;=*:<3<;==:<<:,<4443<<<<<3<:==;;=*========:,<334<<<<3333322<<<<33333<3,=%%%%@$*=:<4<:=;,<,;=::==,<:$%%#@%=<<<:%XX@:<33,=%%%%@%;:==::-*;,,=*=:<<:*%%@@%%@$;3333344444444433344443<<<<<:;===;==:====*=:<3444434443<<<<::=*=:<:=;,33:=$@@@@$%%;,<<<:=:<<,=%=:<<<<<<<34<<334333<<3<:=:,:=,,=%$%*:<43333333<<3433334443333,=$%%@@$%*=:3<:=;,<:;;,,:=>:=%*=:=:<443:%@@$;<44<;%===%*::==:::=:,<:==:<:==%$@%%%@*:33<<4433333334444434433444<,:::;========%%:<433<<<333<<<,::=%%=,<<=:<443:%$@@@@@@%=<44<=;:3:*%=:,33<<44444444444:;;::;=::=:=*%*=:<<3443<<<<<33333<<<<3444444443,=%%%:,:=*%$%%%=;;;;;;::==%*====::=%%%%",
"%%%%$$%%*%$%==%====*%%%%%%%%%%%%=:3<=@@@@*,<<<33<<<<<3333<<<<<<<<<<<:==%%%=::;:<=;,<<<<<<<<<<<<<<<,:<<<:==:<<:==,3<:=$@@@@@@@=,<<<,=;,3,=**=:<<<3443<<<<<<<<=%@%**%%%%*:,<<<<333<<<<<3333322<<<<<333<<<,*%%*$@$*=:<<<:==:<<;=::==:<:%==%@$=,<<,=@@=,<33:*$$$%$=::==::==,<:==;<3<:%%%@@%%@$;33444444444444444444443<<<3<<<,:====*%%$$%:<444444443344<:=%%%%;,:=:<33:%@@@@@@@@=<333<;;:<:=%%=:<<3<<<<33333333<<<<<:=::;;::%%%%=:<33333334334433334444334<=%%%@@$%*;<3<:==:<<:;:,:=,<:%%%**;,3443=@@%,444<;%%*%%=<<==::;=:<,===:<,;*%$@%%%$=:3333433443333444444444444443<<<<===%%%*%%%=,<43333333<<<<:=****:,:=:<443:%@@@@@@%%=,34<=;:<=%%%*=,<4444444444444=%%*===========:<33444<,:<3333333<<<<334464444<;%$%%;<<,:=%%***======;:::====*%====%%%",
"%%%%$%;;=*$=;:===*%%=:=*%=;:=%%%*=::=@%$@%:<<<<<<<<<<<333<<<<<<<<<<<<:=%%%%=:::>-;::==<<3<<<<<<<<<<<<:=*%%*:<:=;,<<:*@@@+X@@@=,43<<:=:<;*%%%=:<<34433<<<<<,;%$@@$$$$%%=,<3333333<<<<<333332233<<<3333<3,=***@@$%==;:<<:==:;=*****;::=::=@@%;<<,=@@=,<<<=%@$%=*;::=*===:<,:=:,<:=*%%%$+@$@$;43344444444444444444444<<<34444<:=%%$@@@$%*:<4444444333<,==::=*=::=:<33:%$$$@X@@@*:<33<:;:>===:=;:<3<<3333333333<:=*=;=::====%%*=:<233333334334444444333334<=%%%@$%%%*;,<<:=:<3,;=::=:<<===**=:3444:%%=<443:=$%=:=:<<==::==,,:*=:<,;*%%@@@%%@=:44344433333333444444444444323343:=*%%$$%%%%*;<4333333<<<<;=:<:==;;=:<44<;@@@@@@%%%=:34<;;;=*==:;=;<44444444443<:=%%%%$$%%%=:<<<3333343<::,33<<<<3<<<<333444443:=%%%%=<4<:====::;==:::===:::;:=%=;:;*%$",
"$$%%*;<,;*%=::==*=%*;:===:,:====**==%@%%%@;<3<<<<<<<<<33333<<33<<<<<<,:=====;-;;===*%*:<3333<<<333<<<=*%*%%=::=:<3<;%@@@@X@@@%:333<:=;:==;:==;<333333<<<<,=%%$@@@@@$%=:<33<<<<<<<<<<<33333<<33333334433<=%%%@@%=;;=;:<,;=;-====**===%::=$@%*:<:%@@%;<<:*$@%=;=;:=%%%%%*;;==:::=**=*%$+@@@%:4344444444444444444443<<:<,<3443,=%$@$$@$%%*:<4444443333,=;<<<:====:<33:*$$$@@@@@%;<<3<:;;;=::<:::<3<<<333333333,=%$%%%===*=;::::<<333333344444444444333334<:%$$@$%%===;:<<::::;=*==*;<<-:;=%*=<344:*%=<44<:%$*::=:<:=%=*%*:;==:::==**%$@@$%@=,44444433333333444444443<<<,:,<43<:=%$$%%%%%%;<4433433<<<<;=,3<,====:<44<=@@@$$$%%%=<44<==*=;:<<:;=<4444444444<:=%%$$$$$%%%;<3443333333<:::<<<,<<3<<<<343444443:%*=*%=,<:;====:<,;=:,,===;;::<:==:,<:*$",
"@@$%:<<<:=*;:=%*==*=::==;<,;==::=***%@%%%@=,333<<<33<<33333<<333<<<<<<<,::::===*%%$#@%;,<<<33333332<,===;==*===;<3<;%@@@@@@@@$;333<:====:<3:-=<<<3333<<33:=@$@@@@@+@%:,<<,;=;:::<<<<<3333<<<34433334444<:%$#@%*:,::;:::;;;;;;:;;==*%%=;=%%%%;:;$++@*:<=%$%%=;===%%%%**%====;==*==,;*%@@@@=<4444444443344444444443<:=;==:<<3<;%#%%%@@$%%=<3444444343<==,<<<:=**=,34,=%$$$@@@@*:<<3<:===:<<<:::<<<<<3<<333<<,=%@@@@@$%%%;,<<<<<33444333334444344443333343<*$@@$%=::==;:,:;=======*=::;::=%%=:<4<=%%*,44:=%%=:,=;:=%%=%%*====::;===;=%@@@@$;<4334433343333344444444<:=:===,<<<:=%%%%%%%%=:34433443<<<<:=:<33:=**:<44<:$@@$%$$%*:344,=%%=<<3<:;=<4444444443:=%%%$#%%$$%*:<34<<,<<<<<<<::<<<,,<<<<<<3<344444<;$===%=::;;::=;:3<:=:,<;=::==:,:;=:<3<:%",
"@@@=<<<<:===%$$=:;==:===:,:==:<<,;=%$@%%%@=:3343<<33333333<<<333<<<<<<34443<=%$@@@@@$%*=:<<33443333<,=:<3<:=**==<3<:%@@$$$$@@$;333<:=*=:<44:=;<<<333<<<33<:%@@@@%$@@%:<<,=%$%%%=<<<<<<333333444444444443<=$@%%=:3<,,:===:::::<<<::=&%*=====$*==%@X@%=:*%%%==;%%%%=::::===*%%%%=;,4:=%$@@%:<4444444443344444444444,=%%@@%;,<<:*#%==@@@$%;<4444444444<;==;<33:=%*:343<=%@@@@@@=:333<=*=:<<<:==:<<<<<3<<333<:*$@@@@@@+@%%:<44443344443333333443344433333444=%$%%*;<<:;*%====;:::::====;::;=**=<<:%%$$:<4=***;::**=%*==============;<:=$@@@%:333344333444433444444443:%%%%%=:<<:=$%=*%%%%:34333343<<<<<:=%=<4<;%$=:<33:%@@@@@@%:<443:%%=<44<=*=;<3334444443:=$%$@$%*%%%;<333:==:<<<<<<:<<<<,,<<<<<3<<<34444<=$===%*=;;:<3:==,<<:::<:;:<:*%=::=:<33<;",
"@@%:<<<<:*%%%%%;:==;:==:<,:=::,:;=%%$@%%$@=:<<2<<<333333333<<333<<<33<<3433<;%$@@@@@@%%%=<<<<333333<,==::<<:=*%=:<<<:%@@@@@@@%:2<<:=%*;<<<:==:<<<333<<<<33,=$@@@$$@@*:::=%$@@@%;3<<<<<3333<3444333344433<:;==*=<<,:::;*=,<,==,<3<:==**%%===%%*=%@+@%=;%$%===*%%%=:<<,=%:::=%%*===<>=%%*=:<34444444443344444433343<=@@$$$%*=<:*@%**@@@$=,3444443<<343,;=;<33,=$%;,,<<:%$@@+@%:<<::;%%=:33<;=;<33<<33<<333<:*$@@@@@$@#%=<4443<<<3333333333344334433<333444<:=*%*:<,-;==*=:,<:;,<<<:===:::;===:,:*%$%;,:==;=;:;**==::::;=::==*====:<,=%%%=;<33334433344443334443344<:%%%%%*==::=$%%%#$%%:<433333<<<<33<:=:<43:*@%==:::=$@@@@$*:,:,,:%%=<44<==;<<44<3334444<:*%%$@%=%$&:,:;=*%%*=:<3<<,<<<<<<<<<<<3<<334444<=$%*%%*==;,<3,:=:<<,::<:;:<:======:<33<,",
"@@%:<<<,;%$%*==::**==*=;,::;:,:==*%%$@@@@@=,<<<<<<33333333333<<<<<<<<:::<<3<,=%@%%%@@$$%=<<<<333333<<-===,3<:=$*:<<<,;$@@@++@=:<::;*%%:<<<;-:<<<<<<<<<<<33<=$@@@@$@@=:=%%$@@@@%=33<<<23343<33443333444333<<:;==<,:;::;*=:3,*%:<<,===:=%%%==%%%=%@+#*==@$%==%%=*%%;<3,%@:<<=%%==*=::-%%=,3<34444444443334444443444<=@@@@@@$%:;=@%%%$$$$;<444444<,::,<<,:,<43:=%*=;;:::%$@++@%;::===%%=:<3<::,<33<<33<<<33<,;%@@@@$%%%*:<33<,;:,<33333<<33333333333<<334444<:=%=:,:==;=%=:3<;=,343:====:::-=%;::*%%%=:=*=:;======;,<<:=%:>:=%*====:,;%*;:<<33333433444443333443334<:%%%$%%%%=;=$$$@@$%=:3444443<<::,<<<<<34<:*%%*%===*$@@@@%%===::=%*=<343,:,<<,::<<344444<=%%%@%%$#*::=%%%%$$%=<33<<<<<33333333333344444<;%%%%%*==;:,<<,::,<,::,:;;<:;=:=*%;,33<<",
"%%*:<<<:=%@*==;::%%%%%%=;;::<:;*===%%@+@@%:<<<<<<<33333333333<<<<<<,:=%*:,<<<;%$%*%@@@@=:<<<3333<<<<<:=*;<33,=$%=:::::%@++X+$=:;*==*%*:<<<,,<<<<::,<<<<<<<<=%@@+@@@%==%@@$@@@@%=<33<<34443<<344333344433343<;==<:;;;::=*:<:%%:::;%%=<:=%%==%%*=%@+%==%%%==%%%:=%@%:<:%@=<<=$%:===;:=%%;<43<4433444443334444444444<=@@@@@@@$*==%%$$$$%%;<444444<:%%=;:<23443:=======**%@+++@%==****===-<4443333<<<<<<<<33<<<=$@@@$=%%*:<<<:=%%=:<3333<<3333333433<<<3344443<=%=::;*=;=%=:3<=*:<3<===:;==:;=%=;;*%%%===*=:==*=====:<4:*$=<<=*===*==::%*:<3333333333444443333443333<:%%$$%%%$%==%%$$$%=:<4444443<:=*=::<4444,====*%*%%%@@++@@$%%*======:<4433<:;=%*:<344444<;%%%$@@@@*:=%@$%%$@%=<3<<<233343344333333444443:%%%%%=====;:<<,::::;=;:==::;=:;&%=:<<<<",
"$@%=<<,=%%@===;;=%%*==**&&==;===;::=%$@+@*:<<<<<<<33333333333333<<:=%%$%*==:<:%$*%%@$%%:<<<<333<:::,<<<,<<33:=%%=;====$@X+X+$%%%%*=====,<33<<:;=*=:<<<<<<<<,:=%@@%%*=*$@@@@@@@%;<<3<<34444<<344333344433343<;*=::;=;::=*=::*%*%%*%$*<3<=======*=@+===%====%*:,=@@$*=*%%:::%%*:====;=%%=<43344444444433344444444443=@@%%$@@@%*=;=*$#$%=,<4444444<:=%*=;,<44<:=:,:=*%%%%@@+@@%**%**=<:;=<444333<,::,<<<<33<<<=$@@@@%@$*:;==*%@@$*:<333<<3333333443<<<3344443,*%=;:;==;;=*:<<-*=;;;*%=<<:=::=%==;=%$=;;===:=*==::%%=:::*$=::%%======:;%=:<3333344434433443333333333<,=%%%%%%%%*=;;=*=:<344444443<<:*%==:<344,::<<:*%%%%$@@@@$%*%%%=:<;=:<443,;=*%%;,2333434<:*%@@@$%%==%$@@@@@@@=<3<<<<33343334333333333443,=%%%===::;==:::;===;;========::=%*=,<<:",
"$@$*,<:*%%%;;======::;======**==:,<=*%%%&;<<<<<<<<333333333333333<:%#$@$%%%=:;%@$%%$@$%:<333<<3<:=*=;:,<<<<<;==;==%%%%$@X++@#%%%%*=,::-,<34<:=*%*:<<<<<<<33<<<:==::==%$@@@@@@@=:<<<223334433344333344433443<;*=:::;:::===::=%%@$%*%%=,<:======%%@+=*%%*====:,;*%%$@$@@%::=%$&;===:==%*=<43344444444432344434444444:%@$%%@@@$%=,<:===;<3444444443<:=%===:<43:::<<:*%%*%%$@$%%****=:3<,:<3444<,:===:<3<<<33<<=%$@@@@@$==%$$$@@@@%,<33<<<<3334434433<33444443<====:;==::===,,;&%%%%%*=:<<:;::==;:=%%=;;;=;;==;<<:%%*=%%%$=:;%%=;===;:=%=:<333333333344333<<<333333<4<:%$$%%%$%%=:<<,<<344444433<<3<;***==<34<,,33,=%%%%%%%%%%**%%*:<<:;,34<::==%*=<<33343344<:=%%%=:;=%%@@@$%$@%=<<<<<<<<333333333333333444<;%%====:<::;;:;;;;;::::;;;=**:;====:<,;",
"%$$*:,:%*==:;=%*=:,<<;==>:=*%===;><;=**=:,<<<<<<<<3333333334333332:%@$@$%$$%==*%$$%$@%=:<333<<3<<=%%*=;:<<<<:=:<:=%%%%$@@@@@$*%%%=:3<,:<<<<;==%%=<<3<<<<<<<33<<,<<<:=%$@@%$@@@;<3<<<<3334433444333344444443<;**=::::::===:<=%@@@$**%%=::=**===%$@@=%%%*==*;::%%%%@@++@$::=%%%====:==*=;<43344444444432244334433444<=@@%%%$@@$*,33<:;:343334444443<;*==*=:33<,,<<,*%%%%%%%%%%*%%*;<4<<<<334<,;=*%*:<3<<<33<<:=*@@@@$%=%$@@@@@@@%,<33<<<<<344444444334444443<====:;==::===:<;%@@@@%===,<,;;::===;*%==;::;==-:<,=%=%$@@@$;:=%%=;===:;=%*:<33333333<344433<<<<33333<43,%@$%*%$$%*:<333<<<<<<3333<<33,=*%%%:<43<<34<=%%%$%==**%%%%%=<4<::<43,====*=,33344433334<:==:,3:*$@@@$%%%$=:3<<<<<<<<33333<33<33333444<:==;==;<<<::;==::::=:<<,:;==*===:===,:=",
"%$%*::;%*=:;=*===:<3<*$&<<:*=;;*=:<:===,<<<<<<3<<<3433333444334443:%@@$@@@@$%=;:=%$@%=<3433333334<;*%===:<<<:::<<:%%==%%%$%=**%%%;<443<34<;%%%%=:333<<<<<,,<<::,<<:=%$$%%*@+@%:<333<<3333333444433344444444<:=*==;::;====:4:%@@@@@@@@$$$==*===*%===%%%==&*=%%@@@@++++@%,:=%%%==::;*%==:<43344444444433334444333444<=@@$%=*@@@%:<34:==:,,:<34444443<=*=%%=<<33443<=%@@@%===%%@@@*:<43333344:===*=:<3<<<33<<<3<:***=:;*@@@@@@$@@%,<3333343344444444333344444<===*=::::====:<;%@@$$%*%$*:<;;::=*%==***=;:===::,*%*=%@@@@$::=%*==::::=%%%:<<333333333444443<<<33343344<=%@%=-*$$%*;:,;==:;==,343<<44<:%%%%=:<44444<=@@@@%===&$@@@%:3444444<;==*%=:44444443<,,<:;=<343:*@@$%=%$@@=<33<<<<<<33333<<<<<333334443<<,:==;<<:;::==,3<=%=<4<:;;=====:=%%::=",
"%$%=;=*%=;;==;:*%=:<,=%&,,;%==;=-::====:<<<<<<3<<33433334444334443,*@$%%%@@#%*:<<:;==:<32<<3333343,=%====:<<<<<<<<=%$$@%=*==%$@@%;<443<3<:*%%%*:<<33<<<<:-=:;===;;==*%$%==$@@=,33333<33333334444333334444443:=**======**==::=@@@$@@@@@@@%==*==;====&%*==%%$@@@+XX@@++@*===*%%%===%%%==:343344444444443334444433444<:%$%%=*$@$%=;::;======:<4444444<:=%%%=:<<3443<=$@@@$=;=%@@@@%:<<<33343,;==**=,<3<<<<<::::::;;:::;*@@@+$%%@@=<<3333343344444444333343344<:=====;=====;;:=%@@@$$$$$%*===;:;=*==;====;====%%$@$$@@@+@*,:=%**====*%%%=:<3333333334444333<<<<<3333443;%$%==*#%=====-;;====:<4323443<=*%%=;,44444<;@+++@%;;%@@+@$;344444<:==%%%-<4444443<:;;;===:,<:=%@@%=;%$@$;<33<<<<<<<<333<<<<<33333443333,;==;,:;;::=*:<<=%=<<,;%=;:==*===*;:=",
"%%%;==%*=;==;,:%@%=;=%%*::=%==;==;:=*==:<<<<<<<<<33333334444334443<=$@%%*$@@#%;<3<<==:,,>:<<333333<:=****;,3<<<<3<=%@@@$===%@@+@$;<44333<:%%%%=:<<<33<<:=======****==%$%%%$@$;,<33333333333333433<3334443343<;=*%*===%%%====*$@@$@@@@@@@$%*%%=:==*%*====%%@+X@+X+@@++$%%%=*%$$%*%$%%*=,443344433344443333334444433<:%$$%%%@@%=======;=====:<444444<,=%$%=;,<3443,*$@@+@*:=%@@++$;<<<3343<:==*%=:<<33<<<<:==;:::::::;*@@@@%%%@%=<<<33333<3334444433333433343:===%*==%%%;;==*%%@@%%@@$$$%%=;::;==;:========%@@@@@@@@@@%=:;==%%%==*%%%*=:<3334433334444333<<<<<<33333<;%$$%*%$%=;====;;===;:<3333443<;=*%==:34444<=@+++@%;;%@@++@=<44444:===%%*:<4444443,======;=;;==*%@%==%$@%:333<<<<<<<<3<<<<<<334444443344,:;=;,:;;::-*=<<=*=::;=%*:<:=======;:",
"%%*:====;=*=,<:*$%$$$@%=:;=%*==*==:*%*=:<<<<<3<<2233333344433344433;%@@%=*%@@%=:<<:=======:<3333343<;*%%*=:<<333<:%@@++@%:=%+Xo+$;<3333<:=*%%=;,<3333<,:=======%%%%==%%$@@@@$=;:<<33<<<333333333<<3334443344<:=*%%===%%%==$%%$@@@@@@@$$@@$%%%=;=%@@*=;=%$@@++@@@@%$X@$$@%=*%$@%%%@%%=:<44334433334444333333444443<:=%@@@@@@%=;;=%@*=:;;;;=:,333444<<;*%*=;:<344<,%$@@@@%:;%@@+@@=<33334<:==*%%=,33333<<:;=;==;:=====*@@%**%@+%:3<<33333<<334443333333344444<;==%%==%$%===%%%%@%*%%$%$$$%==::::==:=::====%@@@@@@#%$@$%=****%$%==%@%%=:<<<333333334444333<<<<<<3333<:=%$@@$%%=====*===;:::::<<3443<,;=%&==:<4433,=@X+@@%==%@@++@=<4443<;===**=,3444334<:-;;==;:=%%==;=$$%%%$@*:443<<<<<<334<<<<<<333444444444,;==:,:::::;==:<:=**%**%%:<<:=======:",
"%%%=%*=====,<:***%@@@@%=:;*%==;=;;=**==,<<<<33332233333344433344433:%@%%==%@@%==;;;=======;<3333333<,=%%*==><333<:%@+++@%:;%@+++@=,3333<:==%%%=:,3443,;=====*%%%*%%$%**%$@@@@@%=,<33<<<333333333<34444433344<,:======*%=::%%%$@@@+@@#@@$+@%=*==*%$@&=:=%@X@@+@@@@$@X$*=%=-*%%%%**%%%;<344333443334444333333444444,*@@@@@@@%=;=%$@@$*-;=;:;==:<344<<;=%%%*==,<44<:$@@++@$*%$@@+X@*:33333,;===*=:<33333<:==;;=======*%%$$%==%@@=,3<<33333<<3333333443333344333,;=*==*%%==;:=***@@%%%%=%%%@%*=:::*%**;;===*$@@@@@@$$@+@$%$%%%@$%*%%%%%=:<<<<<3333333444433<<<33<333<;%$@@@@%=:;=$*==*%%%=::;==:<33<:==*%%&*=<3333:%+XX+@@@$@@XX+@%:443<,;===**=:<4443<,:==;;==;;%%%==;=%@@@@@@%=,343<<<333443<<<<<233344444444<;==;:,::::;==:,:*%$%%*;==:<<:=*=;*=:",
"=***%*=;===:;=%%%$@@@@%;:=***======**=:<333<<3333333333444433334433:=$%%**%@%=;==**=;;==;;=:<<<3333<:=%%*==:<<33<:%@+++@$=*%@++X+%:333<,;=*%%%*=:<3<<==*====%$$$%%%$%===%@@@@@@%=:<3<<<3333343333344444333443<,:=======:::%%$$@@@@@@%@@%@@%;=*==*%%*=:=%@@$$+$$@@$$@%**%=;;=***==**;,<3443<33444444444333333333<<=$@@@@@@%==;=%@@@@%====;====;,34<:=%%%%%==:<44<;@@@++@@$@@@@+X@%:3333<:====*=:,<<33<:====;=%%%%*=%%%$@$=%@@@=,3<<33333<<3333334444333444333<,;========::====%$%%%%=%%%$$%=:::*%%*=====%@@@@@@@@@@+@@$$==*%%%%%%%%=:,<<<<<33334344444333333333<:=*%@@$%%=::;*%%*%%$@$==;===*;<3<:==%%%**=:<33<:$XXX++@@@@@+@@@$;<43<:==**%*==:<43,:====-=*===%$$%%=;=%$@@@@@%=<33<<3333343<<<<<233334444444<:===;:::::===::,=%$$%%=%%*:::=*=;**=",
":;=%*==;===%%$$@@@@@@@*===**%%===*%*==,<<<<<<<33333333333333333333<:=$$%%%@$=;;=%$%=;;==;:==;:<<33<>-=%%%*=;:<33<;$@@+X+@@@@@+XX+%;333<:=*%%%%%*;<<,=%%*===%@@@@$%%%%*;;=%%%@@@@@=:333343333333333444444444443<<:::==;:<,;%$@$@@@@$%=@@$@@%:=**;=%===;:=%@%%@%*%+$%%%%%%*;,:;=====:<33344<<33333344444333333333<;%@@@$%$@%;;=*$@@@@$%*%%====%%=<3<:=%%%%%%=:<4<:*@@@@+@@@@@@@@++%;<333<:===*%*=;,<<<;=%*===%@@$%%%%%%%#$%@@@@*:<<<<3333<<343334444444444433343<:;=;==;:,:=*===*%$%%=%%*%%*::::=*====*==%+@#X@$@+@@@@@$%=::=**%%*==;,<<<<<<<<344444443334433333<=%%%$%%==;::=%%%%%%%$$%*==;=%%;<<:==%%%***:<33<=@XXX@+@@$@@+@@@@*:33<:=*%%%**=:<4,=%*====*%%%%$#@@$%=;=*@@@@@@%;<333333333<<33<<3<<<34443344<,====::::==*=;::=%@@$%%$@$%*=====*%*",
"::=%==;;=*$@@$$@@@%$+%%%$*=*@@%*%$$%=;<<<<<<<<<3333333333333333333:=$@@@@@$*;=*%%$@%==%*=;=*%%:<33<;*%%%%%*=:<33:*@@@@++@@@@++X++%=33<<;=**%%%==:<<=$%*==%%%@@@@@@@%%%=;===*%@@@+=:3333444333333334444444444443<<<<,<<<<:==%@$@@@@%:<=%@@@%:=*%=*%====,;%@@%*::=@$%%@+@*==:<<,,<<<33333443<33333344444433333333,=@@@@%=%%*;;*%@@@@@@$%%%%%=:;%%=<<,====%%%=;<4<=$@@@@@@@%%$@@@++@*,<33,;*=%%%%*=:<<:%%%==**%@@$$@@%%%%%*%+X@@@%=,<<<333<<3433344444444444333444<<>::,<3,==%@$===%%=:=*=**=<:=:-=;:=**:=%@$@X@$@@$$@@@@@*:<:=%%*=;:,<<<<<<<<<344334443334443334<=$@%%*=;;::;*%%%$@$$%$%%%=;;%%%:::===*==*=;,<<:%+XXX@+@%=$@++@++@=,<<:=*%*====:<<=%$=:;==*%$$$$#@@$%=;;=@%%@@@$%:<333334433<33333<<<344433443<;========%%=====*$$$$@@@$$$%=;;====",
"==**=;;==%@@@@$@@%%@@%$@%==*%%%*%%%*=,3<<<<<<<<<<333<333333<<,333<*$@@@@@%=;;=%@@@$%%%%%=====%%=,3<:=*==%%*=:<<,=$+@@@@@@%$@++oXX@%:<<,;==**=====:=%@%==*%$@@@++++@$%%===*===%$@@*:<3444433344333444444444444433333<<3<:=**%$#@@@@=<4:=%**==*%%=*%====:=%%%%=<<:@@@$@@@%==*:<<<33344333343334443444444443334443,=$@%*==%$%==%@+@@$@@@$%%%%=:,*$%*;::===%%*=::,=%$$@@@+@%:=*%@@@@$%%:<<,;=%%*====::;*@%=;*%%$@@@@@+@@$%===@@@@@@=:<<<333<<34333334444444443333443333334,:=;%@@%%%%*:3<;%%%=,:;::==;=**:=%@@$$=;=$@@@@@@%*=,<<,::,<<<<<<<<<<<<<33344443334443333,=%$%==;===::=%%%$@@@@@$%%*;:=%@%*======*==;:>;%@@@+X@@%=:*@++@@@$%=:::;=**===;::=%$%::=*%%%$@@@@@@@$%==*@*=%$$##=,333334433333333<<2344433443<,;======%%%==*%**%$%%%$$%$$%*======",
"%%%*;:;=%$@@@@%$@%$@$*%%%==***%%***=:<3<<<33<3<<<33<<33333<<>>33<;%@@@$$#&;:;=%@@@$@$%%%%**;:=%%=,,:====%&*=;:<=%@@@++@@%=%$@@+o+@$*:::;==*===*===%#@=;;%%@@@@+@@@@@%%==*%*===%@$%=,3443333344444444433333444443334443<-&%%%$#@@%%;,<:=%===*%%%***===*====**=<<:%@@@@@@%**@=,334444333334334444444444444333444<:*$$%=*%%@$*=%@+@$%@@@@$$%%=:<=%@$%=:;==%*=;;;=%%%%$@@@$*:;=*$@@%%%$*:<::=%%=;=====*$@%:;*$@@@@@@@+@@%%=;=%$$@@@%=:<<333<<33333333333444433334444444443====%@@@$%%=,4<:**==:;;::=*===%==**%%%,<:%@@@@@@%%*;<3<<<<<<<<<<33<<<<<3334433333344334<:%%%%===*%*::=%%%%%@@@@$$%%:<:%@@%%*====*===;=%@@%%@@@%=;:=%@@@%%%%%==;:======;==%@$*,:=%%%%@@@@$$@@$%==%@%==*%$@=:3333344333344433334444444443<:======*%*===%*=%$%*%%%%%%%$%*=::=",
"%%%*::;=%@$$@@%$@$$%%==*=:;====*===:<333333444433333334433<<,,3<:%$@@@**%*=:;%@@@@@@@@%%%%*:::%$%=:::===%*=;;::%@@@@+X+@%:=*%@@@%$@$*=::;=*===%**%$#$=::%$@@@@+@%$@$%%*=%@$$%*%$@@%:<44334334444444443<<3334444333444<,*%$@$$@@%=::;===%%=;*@@%%===*%%%=:<;=:<<:=%%@@@@@%%@*:334444333334334433334444444433344<;@@$%%%@@@$*;=%@$%%@$$@@@%%=:4;%@@@$=::=*==;=*%%**%%$@%*===;;%%%==*%%*;::;===;===*%$@@=:=%@@@@@+@$@@@%%===%%%@@@@%=<<<<<<33333334333344443344444444444<*%=*%@@@$%%=<4<:=::===;:;=====%*=;;=*=<3:%@@@@@$$$%%:<<<<<<<<<<<<<<<2233333333443344444,=$$%%=*%@$*;=*%%%%%$@@$$$@%:<,%@@%%%===**===*%%%%*=%$%=;==;=%$%*=*%%%%;:;=*==:=%$%@@=<:=%%$@@@@@$%$@%%=&#@%*==*%@=:<3333443334444333344444444433<:========;:;&==*%%%$%%%%%%@$%=::=",
"====;:::*$*%%%==%@%=*%%%*;:,:::;::<<333333344443333333443443<<3<:%@$%===*%*;;%@@$%%@@@@%%%%=:<%@$%%=::==*=;;==%$%%%$@@%*=====%$%==%%$%====*====*%$@$%:<:%@@#@XX@@@@@$%==*$@@@%$@@%=:<33344334444444443<<33444443334443<;=;;:-%&=;:=*%==%%*=*%$%%%%==%$%*==%%===*=;:=%%*=;;=:<333443333344334433334444444433444<=@@@$$@@@@%==%$@@@@X@@+@@$%*:4,=@@@@%::;%%*=*%%=;===%%%======%%%=;==%%%=;:=======%%@@%;<:%@@@@+X@$@@@$%==%%*=%$@@%:<<<<<<33333334444444444444444444444<::::=%%%=:;::<,:=;::=%*=====*%@%=:=**=:::==%@@@$$@@@;<<<<<<<<<<<<<<<2233333333443344444<:*%$$%%$@%=:;=%%$$$@@@@@@@%:<<=%@@%*:;=%%%*%%%=====*%%*=====%%%=====%%===%%=::%$$$@%:<,*%%$@@@@@@$$@@%=*%@@$%%%$@%=<33334433344443333444444444333<,:-====:,:======*%$%%%$%%@%=:::;",
";==:=;::=$%%=;:=%@%*%$$%==;,<<<<<<<33333333334433333<33444333<<<:%@%===*%$&=;*$@%%%@@@@$%%%=:<=$@%%%;::=**===%%****%%$%*=====%%*;==*%%%***%*===*%@$%=:<:@@@@@XX@@@@@$%===$@@@$$@@%;<<33<<<3334333444433333444443334443<<<<<<<:====*%%%%%%%%%$$$%%*=*%%%%%%@$%%%%%====;:<<<<<<333443333334334433334444443<,<<<3<=@@$@@@@@@%=;=%@@@@+@@@@@@%*;<,;%@@@%;::*%*%%%*::===*%%%*===*%%%=;;==*%%===**=:;=%@@%*:<:%@@@+XX@@@@@@%=*$%%%%%@@%=,<<<<<344333444444433444444444444444<<<<>:==:,:===;;===;=%%=====%%@%==*%%====;:;*%%===*%:<<<<<<<<<<<<<<<33333333333333334444<=%$$%%$@%=::=*%$$$$@@@@@@@=<<:*%@%*;==***%$%=:====%%%%%===%**=;;;::*%%*==%=::%$@$%=:<:*%%$@@@@@@$%@@%==%@@$$%$@@$=,3444443334444333344444444444443<,::::,,:;;*%*=*%%=:;=*%$=:,:;:",
"=*=:==::=%%%;<<;%@%%%@$%=**;<<3333333333<<<333333333<<3433333<<<=$@%==%%%$&=;*$@%%$@@@@$$%%=:<:%@$#$*::=%%**%%%;===*%%%%%==*&%%%=====%$%%%%%====%@%*=::=@@@@@@@@@@@@$*;;*$@@@$$$%%;<<<<:::<<33333444433343334443334443334433<<=%%%%%$%%$$$%$$$@$%==%%%$$$$@@$$@$%%%*=,<333333334444333<<<33333333444444<:===;:,=$%$$@@@@@%=;=%@@@@@@@@@@@%==:::=@@@%==;==*%@%:<:=:;=%%%%==*%%%%=:;*;=%%%%*&*;:;=%@$%=:<=$@@@@+++@@@@@*==$@@@%$@@@%;<<<<<3333<<44434443334<<<344444444444444<,:::-&%%*=%%%*%%%*====%%%%%*%%%*%%%=;;==;:,,::<<<<<<<<3<<<<<<<<33333333343<<:,<<<3<=%$%%%$@%=:::=%$$$%$$%$%%@*,<:=%$%%==*===%@%;,==:=%%=%%*=*%**=;:;;<:*$%==*===%@@%*;,:;%%$@@@@@@@$$@$=;=%@@$$$@@@$=,333<333<3444333444444444444444443<<<<<::::&%%%%%%:<<:=*%=:,;;:",
"*%*;==;=====;<<:%@@@@@$%*%%%,<3333333333<<<333333333<<343333334:&+@%%%$$$$*;;%@@$@@X@@@@$%%=:<,=$@@#%;:;*==%$%=:==:=%%%%%=*%%%%%===*;=%@%*=%%==*%@%*=<:%@$%$$$$$@@@@%=;=%@@++@@$%%=:===%$*:<33333334333443<<<44333444333433<<:=%%%%%@%*%%%%%%%$$*==*%@@#$$%%%@@$%%$$*:<<<<333334443333:;<<333333344444<;%@%$$%==%%%%%$@@%*====@@@$$$$@@@@@%==;;=$@$$%%%==*@@=<<:=:;=%%%%%**%====::*;:;$$%=======%$%==::%@@%@@@@@@@@@$*==%@++@@@@@$*,<<<33332<<34433344334<:<3444444444444443<=%%%%%%%%**%%%%%=====%%%%%%%%%%%%%%%%%:<<<<<<<<<<<<<<3<<,<<<<<33333333344<:%%===:,=%%%%$@@@%=::=$%%%%%%%%%=$%=<:=%$%%=%%==*$@=:,=->=*===%***%**=;:;=,,=$%*==*%%$@@%=:::=%$@@@@$%$@@@@%;;=%@@@@@@@@%=<<<<,:,<<3444333444444444444444443333<,=;:=%%%%$$%:44::;:==;;::",
"========::;=:,,:=**%@@@%==**<33333333333<<333333333333343333344:*@$%%%$$$@*;:=%@$$@@@$@@@$%*=::;%@@@$=====*$@%::==:=*%%%*%*%%*%%=::=;;=$%*=&%%=*%@%=;,;%@%%$@@@@@@@@%===*%@$%%%=;:;=%%%%$%=;:<333333333443,::<3<3444444333<:==%%%%%%*;;*%%%===%%%==*%%%%$$%%$%%%%%$$%=;:<<<<2334443<<<;=,<3333333344<>=%$@$@@$*=::::::====:;=*$@@$$$@@@$%$%===;=%$$$%%%===$%;<:==,;=*==%**%*==*=:,==::*%*;=====*%@%==::@$%*@@@@@@@@@$*=%%@@@@@@@@%=<<<<3333<<<34333444433,;:<33444444444443,:=%*%%%%%%=*%%%%%==;:=%%%%%%%%%*%%%%%%%=:<<<<33333<<<<3<:;;<<<<333344333<:=%@$%%$=:,::====%%=;::=%%%%%%%%$%;%%*,:=%$$%=%%==*%%::==:,=%=:=*%**==**=:;=:<:%%*=*%%%@@$%=;:;*$$$$@@$$$$@@@%====%$$%%%$%%*:====*=,<3444433444444444444444443333<:%*==%%%%%%=:<<:;-:;=*==;",
"==;==*%=::===:====;=%%%=;:::<333<333333<<3343333333443343<<<<<3:*$%%%%$$$%*=;=%@$$$$%%%@@@$%=;:;*%$$$%&*==*$%=<:==:=**=*%%%%*==%=::==::%%%;=%%=%$@%=;:=%%=*@@@@@@@@$*=::;=%=;;;:<<:%#@$%$%%%=:<333333<334<:;::::<44444432<<=%%%%%%%%*:=*%%%=:=%%%==%%%**%%%%%==*%%$$%%%=:<<<<33344<,::==:<3333343343:=%%$@%$@@%=,<<<3<,;=:<,:=%$@@$$$$$%=%%%====%$$$%%%*==%=:<:=;,=**;;==%*=:=%*:<:==:=**:==%%*%$@%==:;@%==@@@@@@@@@%===%@@@@@@@@%;<3<<<333<<<3444444443<:=;:,<3444444444<:==**=***=====%%**===:;=%%*=*%%%*==%%%%%%*=:<<3333333<<<<,:==><<<<3334444<:*%$@@@@@%=<3<<<<:*=;:<,:%%%%%%%$$%:*%%::=*%$%=====*%=::=::,=%=:;=%*==;*%=::==<,=%=;*%%%$@@%==;=%@%%%@@$$$$@@@%==::=*=;=======%$$%$%;,<334444444444444444444333333<:==;==*%%==;;:::==;;=%%*=",
"====*%%**&%%**%$%;:;=;:<<<<<<333<<333<<<<333443333333333<,:,>,<:=%%$$%$@@*====%@$%%%%%%$$$@%==;=*%$%%%%%===%*:<:=-,=%%;=*%%%=:=%=:<:==:=%%:==**%@$%===%$%==@@@@@@@@%=:<<,:=:<<<34<;%@@@$@@$$%=<33333<<<34<:;;===<34444422<,=%$%%%$$$%*%%%%%;;=%%*==%$%======;:=%%%%%%@@$;<<3<<<344<;*==;;<4333344443:%%%%$%$@@@*,3444<,==:34<:=%@@$%%@$%==%%====%$@$%*===;%:<<==::=%*;:;=*=::;%%;<<;==:=*;;=%%%%$$%==;=@%==@@@@@@@@$=:::=$@++@@@@%=<<<<<<<3<<<3333444443<:;;==:<344444444:=%%*====::;===**========%*;:=%=*=:;=%%%%%%%*:<343333<<<:;====:<2333334444:=$$$$$@@@@*,44444,=;><3<:=%%$$$@@@%:=%%;;;=%%%=====*%:;==,<:**=::=**=::=%*:::=:<:*=:==*%$@@*====%@%==@@$%$@@$%=:,<<==:<<<<<<;%@@@$$$%=:<34444444444444344444333333<<:<<<,:==;:;==========**=",
"====*%%%%%%%%%$$%*%*=:<<<<<<<333<<333<,:,3334433333333<<:=%=%%;==%===;=*%;::==*%$%%%%%%%%=$%%====%$$%%&*===%=:<==::*%*:;=%%=:;=*%:<>===;*%;==*=%@$*===%%%==$@@+XX@$%=:<<<,==:<333,=@$%%%$$$$=:<33333<<344<:;;===:<44<,<33<,=%$%%%%$$$%*%%%*=*%@$%*%$$%=;:=%%===%%%%%%$@%:<<3<::<44,;===;;<4333344444<;%%%$%%%%%%:<443,;=:<34<;%%$@@@@@@%==%%=%===%%%%======:,;=:,:=%*:::===::;*%=,3:===*%===%*%%@$%===*@%==@@+++X+@$*:,::%%*%%%=%%=::;;==:<<<<3333344444<:;;===,<44<<<444:*%%*=**===::;;==:=*%*=;*%%=::====;=*%$%%%$%=;<343<<<<<<:=%==;:<2333344444<;%$$$%%%%#%:4444<;=:<34<:*%%@@@@$%=:==*==;:%%%===%%%%===;<<;%*=::=%*;::=%%;,:=;:<==;==*%$@$===*=%%===@@@$@@%%%=:<3<:=;<<<<3,=$@@@$@$%%=:<34444444444443344443344344333333<:=================",
"=;==%%%%%%%%%%$$$%%%*:,<<<<<<333<<<<<<;;:33333333<<33<:;%%$%$@%=::,<<<:=*:<<<:=%%$@#%%%%*=%%%=**=%%$%%**===%:,:*;:;%%=::=%%=::==%;,<;===%%=**==%@$===*%%===%$@+XX@%%=:33<<:==:<34:*$%=*%@@$%;<33333333343<:;====:<4<:;:<33<:*%%%%%$$$%*%%%*=%%@@@$@@$%%=:=%%==%%%%%%%$$*:<<<:=;<33:;=====:<3334433443,=%$@%*==%%=<43,;=;<<33<:*%$@@@@@@%=====%===%%%%======::=:,<=%%=;;====:::=*=:3<:==%%%==*=%$@$*;=*%%*==%@@XXXX$%=:<<,==:;;::::;=%%%$%*:<<<3333344443<:;;===:<43,:<344:=%%*======::===::=*%%==*%%*;;=====%%%$%%%$%*;,343<:<<<<;=**=;:<<<<<3444443,=%$@%%==%%;<43<:=;<334<:=*%@@@%%*=::==%=;:%%%===%%%%===,<,=%*=:;*%%*=:=%$=:<:=:,=====%%@@%===*======$@@@@@@%%=,33<,==:<<<3:=$$%%%%$$$%;<3344444444444<<<4444444344344443<:=*********=**=***",
";:;*%%%%%%%%**%%%%%%%=;:<<<<<333<<<<::==:<<333333<<3<:=%$@$%@@@*:44444<:=,344<=%%@@@$$@$*;=%%=%%==%@@%*%===%::==::=&%=;==%%=::==*=:3:;==%%%%%=*%@$===%%*===*%$@@@@%=;,<<<<<;*=:<3:%$*==%@@%=,33333333443<:;====;:<3<;==:<33,;=*%%$$%%%%%%%%%%%@++@+@@%$%=*%%%%%%%%%%%%%=,<<,:==:<,:;;=====,4444433444<:=%@#%==%%*,<<;==<<333<:;*%@%$@@%=;;::=**==%$%%====*=;;=,<<*%*;==%*===:::**=<<,;=%%@%**=%@@$*;=%%%===*%$XX+@%*=,<<<;;:<<<<3<:%@@@@@%*:,<333334443<::;;;;=:<4<:;:344<;*%%*=====;=**=;:=*%%*=%%%*===%*==%$%%%%%$%*;<34<:=:<<<===*==;:<3<<33333343:*$@$%;=%%=,<,===:<33<<,==*%%%%===:::=%=;=%%%*==%@$%*=:3<:*%===*%@@@%;=*$%;<<;=;=%%==%%@@%======:;;=%@@@$$$%%;,33<<:==:<<3:%$%*=*%$%%=:<3344444444444<,,344344333334444<:=**%%%%*%%%*%%%%%*",
"===**===*%=*====*%%%%%%*:<<<<333<<<:====:<<333333<33,=%%%$%%@@@$=<443<:=;<444<=%%@@@@@@$*;====%*==%@@%*%==*====:,:%%%==%@@@%*===%&;<<,==%@@@%=%$@$*==%%=:;====*%*===;:::<<<:=%*=;*%$%*%%@$=<<33333333444<;==**=;;,<:=**;<443<<:=%%%%%$$$%$@%$@+XX++o+$@@%%%%$@@$$$%%=::<<3<:===;:===;%====:444443344444<=@@@@@@$%===%=:333333<;====%%==::,,:====%$%%===%$%*=;:3<:%*=;=%@$$$%=::%*=:<<,;=%@@%%=%@@@%==%%====***%%%%=;:,<<<:==<<<33:%@@@@@@@@%*:<33333443,======;=;,:;=:<444<:==***===========*%%%%%%%*===***=%$@%%%%%%=:<33:=*=,<<;==%%*$=<3<<<3333333<:*@@%*%%%%===%*;<33<:::=;;;=====:<,:=%==%%%%*==%%%**:<4,=%%=;=%@@@@@===%%=:3:;=%%$%%%%$@$%*===;,::=*%%%%%*==:<33<<<:*=:<3;%%===$@@%*:<33444444444444<:::<<34444444444<;==***===:=*%%%*====",
"===%**=;===;:;==*%%%%%$%;<<<<<<<<<,=**==:<<333333333<;%%%%%%%%%$*<44<:=;,3444<:*%%$$$$%%=;::==*==*%$@%%%%%%%===<:=%%=:=%@++@$===%%=<3<:;=%@$%=%%@$%==*%=:,,:=====*%%*===:<<:=====*%$$%$@@%;<3443<<<344443:;======;:;=*%=:<,<<<:;%%*==%%%%%$%%$@+@@++@$@@@#$$#@%%%%%%:,,<,,,:=*%===**=%*==;<4443333444443:*%%@@$%%*==*;,443<,::;===;===:<<<<:-**=%%%%*=;%%%==:<3,=%==:*%@$$$%==;=**=,<<,:=%%$%=%$$$%==%%=:,:===*==*%*=;;:,,:==:<3<:%@$$@@@@@$%:<33333343<;=-======:;===<343<<<:=%=**%%%=***%%%%@@@@$%%%%%*%%%%$@$$%%=::<<<<:=*=:,:===*=*%;<3<<<<<<33333,=$@@$@%%*=====;<3<:===%%*===;;:<3,:=%==*%%%*==%%*=:<<<;*%%==%@@@@@@%===%*;<<,;=%%%**%%$$%*===;,<<:;=*=====;:<<<<<<,=*=;:=%$%%%@@$=:<344444444444444<:;;;:,3444444443:=%*==*===;:;===::=*=",
"===%%*=:;===;:=**%%%%%$%;<<<,::<<<:=====;:<3333333333,=%%%$%==*$%,3<,==:<4444<,===*%%%===:<:;====%%$@$%%%$$%==:<:*%*=:*$++X+@%==%&=:<<<,;=%%*=%%$$%==%%*:<<,:===%%$@%*%%=:<:======%$@@@@%=:<3333<::<43443::====*====*%%=;:=::::;==;:;*%%=*%%%%@@$$@@@%%$@$$$$%*=:=%*::::::>:=%%===%%%%*==:<4333<<<444443<:;==*%%%*==*;,44<:====**=;==;,<44<:=*%%%%%%*==%%==:<3<:=%=;;%$$@@@%%=::=**:<<<,;*%%%=%$$$%==*%=:<<:;===*%$%*=*=;<:=*=,<<;%%%%%@@@$%=,<3<<<4443<:;-*===*======><<,<<<:=%===%%%*&%%%%%$@@@@@$%%%%%%%$%%%%%%=:,<<<<:=*%=;:==**%*=*:<3<<<<::<3333<:*%$@@%%==;:;=;<<:=%*%%$%%*=::<34<:=%===%%%%=;*==:<<<,=%%===%@@@@@@@*=;*%=:<<,:=%%==%%$$%%**=;:<3<:;======;::,<<<3<:=*==%%$$@@@@%:<3344444444444444<:;===:<34433444<;%%%*****==::==:::=%%",
"%==%%&=:;=%%==%****%%%%=:<<<:==,<<;=======,<3333333443,=%$@%===%%;,:==:<44333<<;::;====:,<4,==***@$$$$%*$%%*=,3<=%%===%@@@+@@%*==*&=:<3<,;=*==%%@@%**%%=;<<<<:=%@@@$%%@#%;<:%=:::=%@$%*=:<<33333:==,43333,;=**%%====%$%*;:==*%===;,<:;=%;::;=%@$*=%@$%%%%%%%$=:<<:===*%==;:=*%%%=:%%%%*%=:<3333<::44433<<<43<<=%@*;;%*:33,=$%%%@@%*==:<444,;=*%$%%%%%==%%=,<33,;==;;=$$%@@@%$*:::=%=:<3<,=*%==%$$@%=%%%%;<3<,;=%$@@$%%%%=<<:%%=<,=%%===$@@$=:<33<:<4443<:;=*==%======%:,:====:=*=:>=*%%%%%%%%%$%%%$$%%%%%%%%%=====::::;;;;=%%%==*%%%%%==,<<<3<<==<3333<<,:=%%%%*:<<;==<,=%$%%*%%$$=:<344<;=====%%%%=;==:33<,=%%=;:=@@@@@@@@%=:=%*=<33<:*%==%%$$%%%%=;:<333:;===*%====:,<3<:===***%%$$%%:443334444444444443,:;;==;<343<<344<:*%%%%%%=*%==**=::=%%",
"%**%**%===%%%%%%*%%%%==:<2<<:==;::=;=**===:<33333333333<=%@@$%%%%=====,344<,:::;===:;;:<<<4:==%%%@@$$%%*%%=:,<3:=%%==*@@@+X+@@%=;=%%=:<<<,;===%$@@%==%*==,<<<,=$$%=*%@@@%;:=@@%=:=%@%;,<<<,<<333:*%:34333:=*%**%====%@@&:,;;=%**==,<3,;=<<<<=%@%==%@$%*;:<:=%:<3<:=*=**=;:<=%@%%*;==*%*==;,3344,=:344<,;==<33<=$@**%@$%:<:*@@$%@@@@$=<344<:==**=*%%%%*====<33<:===::%$$%$@@%$%:,:=%=:<33<:=*==%@@@%=*%%%=,<<<,=%@%%*%$@$*,<<=%%==%@$%%%@+@%:<<3<,;,3443<:==%==*====*%%:,,:;=====:34<:==;===*%%%*==%%%*====*%=;::;=:==*==;;%$$%*==%%%%%%%:<<<3<:*=,<333<<<<<:;%$*::=%$%:,;%@$%=;:=%*:<344:;====%%%%%==%=:33<:&%%=::*@@@@@@@@$=:=**=:<4<:=*==%%@@%==*==:<333<:%%$@@$%%%*;<<,=%=;:%%%=;;:,<4433344444447744<,;==;;;;:<3<::<443:=%*%%%%%%*==**=:=*%%",
"$$%%%%%***%%%$%%%%%%=;:,<<<,=**=;=%==%%===,<333<<<<33333:=%%$$%%%*====:344<;===*%%*==:<3333:==%%%$@@$%%=%*;<<3<=%%*==%@@@+X+@@%=:=*%%;<<<<;*==%$@@%*=%***:<2<:=%=::=%$@@*:;%@@@%==%@%:<3<:;;,<33,=%=,3443,;=*=====:=%@@%:<;;=%%%*=:<<:==<344:&@@%%@@@%=:<43:=;,<<:=%&%%=:,<=%@%%=====%*==:<333<:=:<43<;=**:<4<=%%%%$%@$*::=@@%%$%*%$%:<44<:=%%%=%%%%%*;==;<3<,==;:,:*$@@@@@%$%;,:=%%=:<3<<====%@@@%**%%%=:<<<,*%%;;=*%@%=,<<=%%*%%@@@$@@+@=,2<3<:=:<3443:;=%*======%%$;<<:;=*==;:474<:;<<::=*%%===%%%=:,,;=*:,<<:===**=::;%@@$*==%%*%%%=:<<<<,=%=<<3<<::<33<:%$=:=%$$%=::*%%*=:<<=*=<343:==*==%%%%%==*=:3<:=%%*;::=$@@@@@@@%=::=*%;<4<:=*==%%#@%==%%==<343:=%$%%$%%$@%=<>=%$%=;%$%:,<<<<<<34444444444444<:====-;;:<<:=-,344<:;;=%%%%%*=***==*%%%",
"@@@@$%%%%%%%$@$%%%%*::,,:,,:=%%===%***%=::<<<<3<:<<33333<,:;=*=%%=:;=%;<43:*%%%$@@#@%;<33<<:==%*=%@@$%*=%=:<4<:*%%=;=%@@@@++@@%=::=%%=:<3<;*==%%$$$%=%%*=:<2<=%=,<<==***=:=%@%@@$==%%:<3:=**:<33<;%%=,<33<:;====%=::%@+%:<;=*%%%%=:::==;:<34<-$@@@@@@%:<333,=*;<,;=%%%%&:<3=$@$======%*=:<<<<<:==:<42>=***=:3<===%$$*%@$;:=@%%=*;<;%%%:<4<:*%$%%%%%%%=:==;<3<;*=:<<>-%@@@@@$$%=:::=%*:<3<<;**=*$@@$%=*%*=:<<<;$&:<,;==%*:<<:**==%$@@@@@@@@=<3343,==:<444<:;=*====;=%$@=<4:==%==;:<74,:,444<;=%%%==%%%;<44,;=:<3<;=%*===:,:%@+$=;=**=*==;,<<<<;%%=<33<;===<<<;**:=%$**%%:::=;==:<4<=%:34<:==%==%%%%%=;==:3<:*%%=:::=%@@@@@@@*::,;=%=:3<:=*==%%%$%**$%*=,33<=%%%=:=*%@@%=<=%$%$%=%%$:<4<::;:<4444444444444<:===*==;=::===:<343<<,:=%==**%%%***%%$@",
"@@$@%%%%%%%%$$*=:=*=:====::;=%%**=*%*=%==:<<<<3<=:<333<<<<3<<,:%$*:=%@%=<<:%@$$$@@@@$*:<33<:=%%%*%@@$%==*=;<<<=%%=:::=@+X+++@@%;::=%%%;<3<;===*%$$$%=*%*=;,<:*%:<<<===:<<:%@$*$@@=::=:<3:-;==:33<,=%%*=:::::=%%%%=:<=@X%:<:==%%%%%========,4<:%@@@@@$=<3<::=*%*=:==**%%&:<4;$@%;:=*%*%*=::::;===:,34<:%=;:=:<<:::=%$%%@@=::*=;=*:4<:*@=:3<:=%**=%%*%%=:==;<<:=*=:<,:;*%@@@@$%%*=::=**=><3<=*==*%$$$%=*%*=:<<:=%=,<,;=;:<<<:=@@%;=%@@%%%%%*:<333<<===:<<<<,:=**===::%@@=<4:=*%*==;<4,;:<4443:=%%%%%$%=,344<:=:<2,;=%%*=*:,:%++%;:=****=:,<<<:=%@%:24<:*===:<<;;:<*$$==%$=<4<:==:<43:==<3,;=====%%%%%=:=;<3<=%%*=:;==*%@@@@@%=;::==*=;<<:==;-*%%%%%%%%*=:<<:%%=,<<:=*%@%;,%$%%%$%*%%:<<:====,344444<<444443<::=*====::===:<<<,<<<:=*===%%%%%%%%%%@",
"$%*%%%***==%%=:<<:=======::;%%%%=*=%%*%==;<<<<<:=:<33<<:::<34<:%@%*%%%%%;<:%@%%%*;:=%%%:<3,;=%%%%%$@$%*=**-<<:*%*=::;=$@++X+@$%=;:;=%%=><<:==;=%@@@%===*==:<=%=<<<<;==,<<,%@@%$@@*:,:,<3<,,:=;333<:%$%==**==*%$%%%=::=$=<3<:===*%%%=;:;=*%*::=%@@@@@%=<,;%**%=====****==,34:*%=::=%%*%%*==%%==**:<44<:%=,<::::;;=%%%%@@$=:<<<,=*:44<:%%=<:;===;=%%*%%=:==;<<:*=:,<:=*%%%%$$%*%%=;::=**;<3<:==;*%$@@$==**=;,<;%=:<<,;=;<44<=$@@@%*%@%=::::,<<3333<:=========*****=:<;*%:<4,;=%====:,:==:::<4<:%$@@@$%;<33<:===:,:=**%%*=:<,%@@=::%%%%%======*%@%;<34<:*:,:,<<:,,,*%%**%%:<44,==<344<;*:<:====;=%%%%&;:==,3:*%%*===*%%%%@@$%%%*=;:;=*=:<:==:;*%%%$%=====:<,=%=:34<;=;:=:::%@%%$@%=;=:<<;====:<4344<:;344444<:;=&***=;==*==,,::::::==:<,;****%%%%%$",
"%===%%==;::==;<3<:=***==-,,;%$$**===**%=;:<<<<<:=:<33<:===;<3<:%%*%%%*%$%,:*$*=*;<<:=%$=,<:=*%==%%%$@%==**;3<;%*=;:-=%%@@@+@%%%%=;;=%%&;<<:==;=%@@@%===**=;,**;<<<<:==,<3<=%@$@@@%=:>,<<<<<:==<33<:=%===%*===*%**===:;==,33,;==*%%%=::;=*$$*==%@@@$$%=:=%@%**=;;*%%%%*=:<32:==::;====%*===%%===*:<34<:%=:<:;====%$%%%@@%=,344<=%:444<=%*::=**===%%%%%=:==;<,=*=:,,;*%%*%%%%*=%%*=::==%*:<3:==;=%#@@%===**=::=%:,<<<:==<44:*@$@@@%%%%;<3<<<,<<<33<:=*==%%%==****==;::=*:<4<:=======::;;===;<<:*%@@@$%;<<,=====;;=**=**==:<<*%%::=%%$$%*==%%%%%$%:<34<;*:3<<<<:::;%%%%%%%:444:=;<<<4<:%:::===;==%%%%%;:==:3:%%%===*%%%%%%%%%%%%*=::;**=,:=*===%%%@%=;=*=;::%%:<44<==:<<<<:%@@%$$%=;=:,<;;;;=;<4334:=*<44444<:==%***====%%=:,::======,44<;==:;==*%$",
"%=;=%%=:<44:;;<3<:=*%%*==<<=$@@*=======;:<343<:==:<44,=*=**:<<:=;:%$%*$@@:::=::=;<44<=$%;<:=%=:;*$%%@%=;*=:4,=%=::,=%@@$%%$%%%%$%===%%%=,<:==;=%@@@%;;=%%*=:%=:<,:,,==:<33:%@@@@$$%===;,<<,==;<3<:*=:<:==,<<,,,:::=%==;=;,3<:**%%%=:<:=%%%@+%%$@@@%%%==%@%*===::=*%$$%=:,<:=*====:::==;:<:;=,<:==;<44<=====%%===%@@$@@@$:<444<=*:4443<%%;;*%%%%%@%%%%=;==;<:=*=:::=*==**=;;==*%===::=*%;<3:==;=%#@$%;:====::=%<<<<<,==,33=%@%%@+$%%$=<3<:==;,<44<;==::=%=::=***=;==;;=;<44<:=****=:3,:=*%%::;*%%@@#%=::*$%=;:;*%%%====:<3<;=::;**%%%%=;;*%*;=*%=:33<;*:<4<:;===%%%%%%%*<433:=::::<<,%=;=*%%**%$$%%%::==:<=*%===**%%%========%%*;::=*=::=*===%%%@%%==%%=;=$=<444<:=:3333<=%@%%%%%*==;::<<,*=,4443:*%:44444<;==%=======%$%:<,::====;,474:::44<:=%%",
"@%*%$%=<<33,;=;,<:=*%%%*=<<;$@%;;=***===:::::===;,<33:=*::::<<:::;%%%%$#%:<<<<:*;<443,*%=:=*%%=*%@$$@%=;%=:<;*%==:=%%%%%**=**%%%%*==*%%*:,:*=;=%$@@$%%%%%%*%%=::======:<3<:%@@@@$@$*=======%=,3<:==,<3:==,<3333<3<<:==%%=====%%$$&=:<:=**%%@%**$$%%%*;=%@%****;::=%%%%*====*%*=:<<<<<<<34<:=,34<:=;<4<:==*%*=:,,;%$$@@@$:<333<=%=,<<32=%%=%%%%$@@$%%*=:==:<;==:::;=====;::::;=%%%*;:;=%;,3;**==%$@@$%**%%*=%%*<,;=;===,33=$@%$@+%;:;:<3,;%%%=,<<;=:<3<;=:<<<<<<<<<:;=*==:::=%%%*=:<<:;;=%%%==%%$$$$%==%%%*==:::%%%*==;<<<:==:===:::::,<<:==:<:==-,2<:===;=====*$$%%%$$%<433:=====;,,=%%==*%%%$$$%%*;:=;:,=%*===*%%*====;;;;=*===;:;=*::;==;=*%$@@%%%%%==%%:<443<:=:<344<=%@@$$@%*=====:,:*=<4444,=%=,34444<:======;;=%@%:<<:;=%*==:34,;:<444,=%%",
"@$$$$%:<<,::=*=::==*=**=;<<:%%*::=%%***=======*=:<<33:=%:<,:::===*%%%%@$*<<<3<:%;<334<;%%==%%%%%$@@@@%=;%=:,=%%===**%**=======*%%%%==*%*;::==;=%$$@$%%%%%*%$$;:;=***%=:<33,*@@@@$$%;::;=%%*=:<3<;=:<33,;=:<44<<::,<<:=%*===;=%%%%*=:,=*==*%$%=;%$$$%=:=%%****=:,:=*%%%*;;=;=**;<<<:::<344<:=<444<:=,34<:;=%=:,<<<=%$@@$%:<<:,:=%*=;,<3;%%*%%%$@@$%%%*=;=:,<=*=:::======::::<;==%%%*;;=*=:3:====*$@@@$%%$%%%$%=,:=%=**=,33:%+@@@+%;<::<<,;==*=:<:=:<34<:=,<33<<,,<<<:=%==::;=%%%*=:<<:=;=*%%==*%%%%$%=*%$*===:::=%%%%%=:::=====;:::,<<<33:==,<<,==;<<<;=***=;::;%%%%%$%=<433:=**===::=%%==*%%$$$$%%=;;=:,:=%====%%%===;::::;======::=*;::=;;=%%%$$$%%%%=%%%,34<::==;,<<<<=%@@$$@%=:;=**===*:<4444<;%%=:<<33<,;=**==::;%@$:<<:==%%*=:<<;=:<<44<:*%",
"@@@@$=,3:=%*=====**====;:<<:**=:;=%***%==*%%==**;<<<<:=%:<<:====%$$%%$@%=<3<3<:%=,<<43:%%%=%$%@@@+@@@%=;=;::=%%;=*%%*===;;==;==*%%%*==*%=:<;=;=%$@$$%%%%*=%$%=:====%%*:,<4<=$@@@@*:<<<,;**=:<<3:==<<<<<:=;<3<:=%%=:,:=*=;:,,:==***=-:*%*=*%%*:<=$@@$=,=%%***==:,:===%*=:,<<:;=;,,;**=:<34<:=<4444,*:<443<=*=:::<3,=%$%*:<<:===%%%**=,3:%%*%$$$$%%%%%*===:<,=*=::;;======:::<===%%$%=;=*=:<:;=;=*$@@$$%%%%%%@%=:====%%=:<3:%o@@@@$=::::<::::=*:::*<344<:=:<44<:==:<<,;%:::::=%%**=:<<:===*%%=;=%%%$$%;*%%*===;::=%$@@%%===**%*;:,::::,<<<;==<<33:==<3<<:=%*=<<<<:=%%%%%:<4<<:=%=;;=;:=%%===%%$$%%%%=;;=<<:*%=:=*%%*===;:;::=======::=*=,<:===%%%%%%%%%%=%%%<3<;==%*=:::,<;%$@$%%=:<,:=%%%*=:<44443:*$%%;:::<,;%%%*=:<,*$$:33:=*%%%*=::===;:,<4:=%",
"@@@@%=;:*%%===::=%%%%==:<<,:*=====;===;:,:=;:<:;=;,<<,=%=;=%%=;:=$@$$$@$*<3<<<:%*==:<3<*%%=%@%$$@@@@@%==;:<:*%=;=*%%=====:::;===%@@%-=*%=:4:===*$@$$%%%%*=*%%;:=;:,=%%%=:<3:=@@@$:<<:,,,==:<<<3:==<<<<<<<,<<,=*%$$%*===:<<4<:=**=**=;==*%*%%%;:&@@+@=,=%%=**===;-====*=,<33<<:==*%$$%%=,4<<<33<44<==<444<======;<<:%@%=<<,;==%%%*==*;<;*%*%$%%%$%%%%===%;<:===::;=====*%*==:==;=%%==;;==:<<:===%@@@$$%%%%*%@%=;=;:;=%%=:,:%X+@@@@@%%%%=:<<<;=::;=<3443<,<34<;*%%%*===;<444<:======:<:;;=*%%=::%$$$%;:*%%*==*=;:==*=*==::::=*=:::*%%*;<<,==,<<<3<;%:<3<<<;=:<,<<3:=%%%=33<:=*%%:<<=;:=&*====*%$%%%==;;=,>;*==:;=%%==**=====%======;:=%=:,===;%%%%%%%%%$%*%%,<:===*%*===;<<:%%%%=,<<<::=**;:<344443<:%$%=%%%*=*%%%**;,3:==,44,;=%%%%%=:,;=*%%=<:=%",
"$@@@%*=&%%*===::;*%%$%=;;;==*==;:,<:,,<<<<::,33<:=:<3<:===*%=:,<:=%$$$%*;<<:::=%%===:<<%$%*%@%%$@@@@@*===:<;%%=;=%%%*=***====%*=%$$%===*=:3:===*$@$%$%%%%**%%=:==::=%$%*;,<:=@@@%:<:=:,<=;:<<<3:==<<,:<<<<3<:*%%@@$=;:,<<<3<;%%%%*=;:===**&%%%=$@@+@%=*%%=**=*=::==*%*=:<333<<::=%@@$%%;<<333<><4<==<444<===::;;:<:*@%;<3<;==%@%=:;==:=*==%%%%%$%%**==*%=,:=*=::;====*%%*=;:**==%%%=;:==;<<:*==%@@$%%%%%%*%%%=;=;::=%$%=;:=@++@@@$*==**=;::==::;=<3<<<3<33<=*%%$%*;::<3444<:**====::;=;==*%=::%@@@*:<=%%*============;<<<<:====*%$$%=:<<,,<<<<3<;*:<433<:;:<::,<,=%$%=<<,==*%%;::=;:=**===*=%$$%%*=;==::=%=;;=%%%**%*=;===%%*====;;=%=:,===;%%%%%%%*%%*=*%::;=;;=%%*==;<<:%$%%:<<:;;;==;<<3444333<;%*=;**=;;==**===;::;=:<42:;*%%%%=,<:==%%%;:=%",
"%$@@%%*$%%*===:::=%%%%*=====*=;:<<,:,<333<::,444<;=:33<,;=*=;:<<<,=%$$%;<<:===*%*==*;:,%%%%%$%%$@@@@$==%*:,=%%=;=%%%**%%%*==%$%*%%%%===*=;3;*%=%$@%$%%*%%%**%=====;=%%*==:<:*%@@=<,;*:,,=;:<<<3,=*:::=,3<<3<:*%%@@%:<<<<<<<<:%%%%*;:,====*%%$$$@@$@@@%$%%=**=*=:,:=%%%=:<333333<:=$$%%*;<2333:;:<:=:<444<:==:<:;:<,=%*;<4<::;*@%=::===%%==%%%*%$%%**==*%;,:=*=::;;=**%%%==;;**==%%%=;:===<<:%==*@@$$$%*%%%*%*====::=%@%==::%@+@@@*:,:;=**===;<:;=<<::<4443,*%%%$%=,<344444<;**===:::======%*=:$@@@%=:*%%=======**=====<443<::;=%@@%%%:<3333<::<,;*:<443<:::<:=;<<;%%%=<<:=:=%*=;==;;=*==*%%=%$$%%%=;==::=%===%%%%==**=;;==%%*====;;=%=:,===;*%%%%%*==%===%===;::=%%*;;:<<:%%%=,<:===;==:33444333<:==:,:==:<<,::::,::;;===:<<,;*$$%%:<<;===%$%;=%",
"%%%%%%=%%*====:::==*%%=;::,:==:<,:===:<33<;:<4444:;;<334<:;;;==:<<;%@@%:3<:==%%%=;:==:;%%=*%%=%$@@@@$==%%;:=%%=;=**%%%%*====*$$%%%%%*=;*%=3;*%=*$@$$@**%%%=*%*======%%;:::,:==%%=<:==:<:=;,3334<;&*===<3<<<<<;*%%*:<3333<<<<:=&*==:,<;===*%%$@@@$$$@@@@%==*=;=:<<:==**=,<33333343,====:<44333:=****:<444<,==:<:;:<<,:==,33<<:*@%*====%%%==%%%==%$%%*::=*:<:==:::===*==***==*=;:;%$%=::===<<:%==*@$%$$%*%%%****===*=*%%=:=,<:@@@@%:44<,:=%%%=:<,;*::==<4444<:=%%%=<44444444<:*====:<,======%%%%$$%%%%%%%*=====::==*=%%=<34443<<:*@$%%%:<3333<:=,:=*<3333<;=:<<==<<:%==;:<,:<;*========*===**=*%$%%%-::;<,-&*==%%$*;:;=**==**===*===:;*=:,=*=;*%%%%%===*===*%*=:::=$$*:::3>;=%%=3<:=:,:==:3344433<:==<33,=;,4443344443<;=%%====*$$%==:,:=*==%%%;=%",
"@$$$=;;%%*====::=%==**=:<<<<::===*%%%*;<<<,<33334,;=<334<:=====;:<,=@@%:<<:;:=%$*::===*%%*%%%&=%@@@#$==%%:,=%%;==**%%*%%%%*%%%*==%@$===%%=3:===%$@@$$==%%*=*%%=;==:;%%;,<<,;=::::<,==-;==:<<333<:====:<3<<<<<<::::<<33333<<<:=====:<<;=**=*%%$$%%%$%$@%===**=*;<<:===*=:<333333443,::,<344333<:*%*;<34443<:==;==:<<<<;=:<333:=@%===*%@%*==*%%==*%%%&;::;,<:==;:;=======%=====;:==*%=::=*=<<:*==*@@$@%*=%%*==%%====;=%%:,:<<:@@@@=,<<:::===;:<3<:*===:<44443<::=::<44444444<:====;:<<:=;===*%%%@$%$$%%%%=*====:<:=*=%*=<34433<<<:*%%=:<33333<:====;<3<33<:=;::==<<,:,:;;<<<<;%*::::=*%*===**==%$%%%=:::<,=%%*&*%%*;:;*%*==*===*====;=*=:<:;=:=%%%%*=======*%%=;===%%=:<<3:=;:::3<:=,<:=;:334443<<==:<3<<==:343<<:;:<<3:=%=;:;==%%%==:::=*==*%%::=",
"@@@@;::%%=====;;=%****=:<333<<::=%@$%%*:<3333<,<4,;=<334<:=;:::=:<<;%*=;,<<:,=%@*=;==%$%%**%%&=*$@@#%====,<=%%;==**%%**%%%%%%*===%$%===%%;<<:==%$@@$%==%%*=**%%=::<:*$;<<<:==,<<<<<:=====:<<3333<::::<<3<<<<<<<<<<<<3333333<:=====:<<:=%===%&%%*%%%%%%%==**==*=,<:=====:<3334334443<<33333333<<;=;<344433<,:===;,<3<<:;=,<33<=@*=:=*%@%*==*%%===%$%%=:::<3:==;::========::::;====*=;:;=*=<<,===%@@@@%==%%*==%%%=::,:%%:<<<,=$@@%:<<:::<===,<<3<<:==:<3444444<<<<<444444444<:===;;,<,;======*%%$%%%%%%%*=*===;,<:===*=;<34433333<::::<344333<,;==;:<3<33<:=====;<<<<<,:=<<3<=%=:<<,=%%*===**===%%%%=:::<,=%%*=*%%*=====;::;==**===;;=*=:<<:;:=%%%*=;===-===$$%===:%%=<33<;=:<<<4<:=:::=:,334443<:==<<<<<:::<3<,:=%*=:::==:,<,:=***==:::====*%%::;",
"+@@@=;=%*===*==;;=*%%*=:<<33344<:%@@$%%;<444<:;:3:;=<333<,;=,<<=;<3:;::;:<<<<;%@*=**%%@%*==*&*==%@@$%===:<<=%%;;=**%%%**=========%%%===%%=<<:==%$@@%==*%$%=**$@*,<<,=$=,<<:==<<3<<<,-===:<3333333<<<<333<<<<<3<<<33333<3333<,==;::<<<:=*;=======%%%*===*%%=====,4,:;;==:<34334444444444333333<<,:,3443<<<<<<:;;:<<334<:=:<33<;%=:<:=%+%*==&%$%=;%$@$=:::<<>==;::;===%%*:<<<4:=****=;:-=*=<<<:==%@@@@==*%%%=*%%@=:<<:*%;<4<:=*%%=<<:;:,,==;<<3333<::<3333344444444444444444<:===;:<<:===**==*%%%%%%*****=====;<<:;====;<334334444433334444333<,::,<<<333<<:====:<<3<<<:=:<4<=*=<33<*@%*===**=;=%%%%=;;-::=%*==*%%*==%;,<,<<=%%*===:;=*=,<<:;;*%%%=;;=%*;===$@$=::,*%=<43,=;<3444<:=====:<334444<:=;<<<<<<<,<3<;=%%$%%*==:<333,;=%**==;====**%%;::",
"+@@@%*%%*=====:::==*%&=:<<333444<:*%%=:<<4443<=====:<333<<:=:::=;<3<<<:;=<<3<:%%=;=*%@@%===%$$===@@$%==;,<<=%%=;=%%%%%%*:,:::=*%*%%%==*%*;<:=*=*$@@%====*==**$@%:<4<=%=,<<==;<<<<<<<:==:<<3333333<<<<333<<<<<3<<<3333<<33333<::<<<<<<<:::=======%%%*=;========:<3<<<,;=:<44334444444444333333<:===:<3<:==,33<,,<<<334<:=;,33<:%*:3<:%+%*==&%%===%@@#*;:;:::==;::===*%*=::::3,;**%%%=::=*=<<,===*$@@%===%**=*%$+%:33>=%=,4<:=:==:<<:=:<,==:<<<3333<<<3333444433443334443344<:==:,,<<:==;==&%**%=%%*==****;===;<3<;====;<3343344444333344433333<<<<<<<<<<<<<:;::<<33<<<:=;<4<;==<33:*$**==;==;:=%%%%===*=;;%%==%%%%*=*:,:=,<==**%*=;;==;:>;===*%%%=;:=*%=;==%$%:<<,*%;<3<-=:<3444<:=*==;,<334444<:=;<<::<33<3<:%%%@@%=::,<<<33:=%%%%=::=*%%**%@*==",
"@$$@$$%%==%===:,,;==**=:<3333443<<::::<<34443<:=*=:<33333<:;====:<3<<3<:=:<33:=%:::;%@@%===%$%=;=$@@$===;>,:=*=:=%%%%%%=::;:<;*%%%%%*==%*=:==*=%$@@%===*%==**$@$;<4,=%=:<:==:33<<<<<<,,<<33343333<<<<3<<<<<<<3<<<3333<<344333<<<33333<<<:======%%%%*=;==:;===:<33333<::<344444444444444333433,;====::;*=;,<333<<33333<<;=:<3<:%%;34:%+$*===%$*==$@@@*=:==;::==::;=**===;:::<:=***%%=:;=*=<:;=*=%@@@%===%*==*%$@%;<3,=%=:<,;=:,<<<<:=:,:==:<<<333333<3333443333443344444444<:=:<3<33<:;;========%%*======;;==:<3<>:::::<3333333444433344433<<<:;;:<<,:;:<3<<<,<<333<<<<=;,3<;==<3<:%%**=;==*=;=%%%%===%==;%%=;*%%%**%:::;::====**=;===::;*===%%$$%=:=**;;==%%*,<<:**;,<,==:34444<<:;::,<33344443<==::=;<3333<:*%%@@*:<<<<<<<<,=%%%*=:::=*%%*%$%%%",
"@$%@@$%*==%===:,,;==*==:<33<344<<<<<<333333333<:=:<332<<3<<:;==;,33333<,==,33:=%:<<,=$@%===%%%===$@@$=====::=*=:=%%%%%%*=;=:<;=%%%%%**%%*=:*%*=%$@@%*==%%==%%$@@=<4:=%*;::=;<33<<<3<<<<333333333<<<<<3<<3<<3333<<<3333334443444333333343:=====&%*======;::==:<3444443<<3444444444444444444443:=;:;*===&;,<<34443333<<3<:==,3<:%%=<4:%@$%*==*@*=*@@@@%=:==;,:;=:::======;:<<<:=%****;:;=*=<:=%**%@@$%===%*==*%%@$=<3:=%=:<:==<<333<:==;===,<<<33333<<33334433334444444444443<:<44443<,:;=;:;==;=*%*==;;===::;:<32<<<,,<<33333334444443333333<:=*==:,:==:<333<<33333<<3<:;:<:=**,<<=%%%*=;=&%===%%%%*==*==:*%*;==****%=:,::=**==*==:===::=%===%%$$%*:=*=;;=*%%=,3<:*%=:::=:<444443<<<<<<333344443<:====:<3433<<:=*%*;<43333<<<,;%%%=;,<:;==%*=%@@$",
"$%%%%%*========:<:===;;:<3<<344<<<<<34432<<<33<<33333<<<<33<::;:<443334<==:<<:=$:<4<=%@%===*%%==%@@@$*==%*=:==*;=*%=*%%%*=;::=*%%%%%==%%*=:%%==%$$@$%==%%==%%@@@=,3:=%@*===:<<33333<<<<333<<<333<::,<3<<333333<<<<333333444334433343333<<:;,:=%*=::====;::==:<444444444444444444444444444444<:;<<<=*%&;<43344444443<<33,==;<<:*%=<3:%@$%*=*%%==*$@$$%=::::<,:=:::==***=:<443:=%*===::-*=;<;*%==%@@@$*==%%==*%$@$=<<:%%%*,==;<<343<:=%%==:,,::<<3<<<<<34444333444444334444444444444444<==;::;;:=****=;;;;=:,44333333333333334444444443333333,;=:==*===:<33333343333<<3<<=;,=%%*:<<=%%%*====*;=*%%%%%;:==::=%%======%%=:44,=%*==*==:===,:=*=;=%%%%%*;=**===*%%*:<<:*%%::;=:<4444444333333333344334<;**=,44433333<:::<344433<<<,;*%*==<<:==*%%*%%$%",
"%%%****========,<,:::==:<<<<333<<<<<333333<<<::::<<<:==:<333<<<<3443333<:*=,:=%$=<3<=%@%*=;=%%==%@@$$%=;**=:;=*===%==*%%=:<<,=%%%=*&==%%=;:====%@$@$%===*==%%@@@=:<=*%%=;=;,333<<<3<<<<33<,::<<:;===:<<<3<<<<3<<<<<<3333444333333444333<<<<<<:==;::;===:<<,,<3444334444444444444444444444443<:==:,,=*=<343344444443<<33<;==<:=%%=,3:*@@%*===%%%=%$@@%*::::<<:==;:=****=:4444:=*&*==::=*=:<:=*==%@@@@*==**==%%@+@=:<:%%%*:==:<3343<<;===::,=*%=:<<:===,<444333344444444444444444444444<:=::======;-=**=;;=:<4433333<<<3333333344444433333333,;=:::=%=:<<333333333333<3<<;=:;==*:<<=%%%*==;====*$%%%%=::;:<=%%%=====*%;<44<:%*====;:===<:==;;=%%%%%*;======*%%*:<<=*%*:;=;<344333333333<<<333333343<::<<433333333<<<<3333<33<3,:====;<<===*%%%%%%%",
"%%%======;=;;;:<<<<<,;:><<333333<<33333<<33<:===-:::===:<33334444443333<,==::=%%=,3<=%$%*=;=%%==%@$$$%=:===,:=%===%===%%;<<<<=%%%**==*%%=::====%@$@$%==*===%%@@@=:<=%%*===;<333<<<3<<<<<<<:==::;====;<<<<<<<<3<<<<<<333344433333344443333<<<<,:=;::;;;:<33<<33444334444444444444444444444444<:==:<<;=;344444444444333333:==:;=%%=:3,=$@%%===%%%=%%@$$%=:::<<:======*&*=:4444:-=%%*=:;=%=:3:====%@@@@*==*==*%$@+@=:,;%%%==*=,<33333<,:::,<,=*%%=::====:<444333344444444443334444444444<<:,<:====:::===;::;:<3333333<<<33333333444444<<333444<:=;<<;%=:3333333333333333<<:;;:==*;,<=%%%*==:==*==%%%%%=::;:<;%%%*=**=*%;<343,*==%*=;;*=:<,;;:=*%%%%%========*%%=:<,====;;;:<33333333333<<<<<<<<<<<33<<<3443333333333<<<33<<3333<:==;::<<====*%%%%==",
"=%%====:::==:,<<<<<<<,,<333334333333333<<33<;==;===**=:<<333334334433333<:==:=%%*:3<=%$%%====%*&%@$%$%=;;=;,:;%===%%**%=:<3<<:=%%%*=*%%*:::==;*$@$@%**%%===%@@@%=:<=%%====:<<<<<<<333<<<<<<;=**=;::==<<3<<<<<3<<<<<<3333444333333334433333<<<<:=;::::,<4444333444444444433444444444444444443<,:=:<4:;:444434444433333333,:=;;=%%*:<,=%@$%===%%%==%$$$%=;;:,<<:===;=%%*=;<443:==***=-==%;<<:==-&$@@@$*=**==*%$@+$=::=%%====;<<<<<33<<<<3<<<::;*%%*=::=:<44333334433334444333334444444444<<<,:;=;;::==:<<<<<3<3333333<333433333444444<<<33444<:=:<<,==,3333333333<<333<<<,:=;==*=:,=%%%*==:=*%==*%%%%=;:=:<,=%%%%*****=>33<:===%%==**=,<,;:;=%%%%%===%%===*%%%=:,:======;:,<<<3334333333<<<,:::<<<,::,<343<<33333333<<33333333<:=:<<,<<:=====*%===",
"%%%*===:::==:<<33<<<<<<<333334333333333<<33,==;::=%%:<<43333334334433333<:;=;==*%:<<=%$%%====@%*=$$%$%*=;;:<<:*%==*%%*%=:<3<<;=*%%%=%%%=:<:===%@@@$%==%%==*%@@@%=::*%*==**===:<<<<333<<<<<<<;*%=:,;=;<<3<<<<<3<<<<<<33334443333333344333333<<<<==::;:<344433334444444444334444444444444444<:<<<<<34:;:443<::<43<,<333333<:==;;=%*=<,=%@@%*==%%%==%@$$%%=;;:<<,=%*;=*%*==,34<:==**===*%*:<<:===%@@@@%=*%%==%%@@@%=::=%*==*==:=;:<<<<<<<3<<<<<,=%%*:,,;:,433333344333344443333334444444443<<<<,:;;::=:<343433<<333333<<3344333<444443<<<333333<<<33<=;,34444333<<<<33<:=;;=====*=;,;*%%%*=:=*%===*%%%%=:;:<<;****=****=:<3<:===*===%=:<<,;:;=%%$%*=;=**===*%%%=:,:%***======;:<334333333<<<;=*=:<,;===:<43<<33333333<<33333333<<,<3333<<,;=*==*===",
"=**=*==:,:;:,3333<<333333333333333333333333,=*=:<=%%,<343333334334443<:::;=====*%=<<;%$$%*===%%==%%$$%%=;;:<<<=%*==%%**=;<3<,==*%***%%*=<<:===%@@$%===%%==%$@@$%;::%%%*%%%*===:<<<<<<<<<<<<<:=%:,<:;:<33<<<<<<<<<3333<<3333<<33<<<34433334433<<====;:3334433334444444444334444444444444443:=;><,,<4,=:43,=%*;<3<:<<33<<:::=====*%=<,=%@@%%===%*==%$@$%%=;;;<<<;*%;==&**=:<3,=*%*==:=%%;<<<:===%@@@%==*%*=*%$@@#%=,=%%%**%*=:==;<<<<<<<3<<<<3<:*%=,,:=;,3333333443333444433334444444434433<<<<,;;;;=:<443433<33333<<<<3344333344444333333<<,<<<<3<<=;<43<<<<33<,:<<<;=====*===**;::=%%%%=;==*==;==%$%*:::<<:=**===***=:<3,;==*====%=,3<,;:=%%%%%=;;======%$%*;::;%**%========:<333444333<<:==&=;;====:<433333333333<<33<<33333<<3333332<:=%======",
";;;;**=:<<:,<333333333<<32<<<333333333<<<33<:=:,3:==<<<3234433433343<:====**=***%=:,:=$@%%*==**=;=%$@$%=;=;,<<:%%*=*%%*==,3<:=%%*==*%%=,<<;==%@@$*=;==%%=*%@@@%*::=%%%%%%%=::=;:<<<<<<<<<<<<:=*:<<,,<<<<<<<22<<<<<<<<<<<<<<<<<<<<<344333344443<=*===:3333343333444444444334444444444444443:==;-==:3,=;4,=@+@=<3<:<<3<:;====%*=**%*,:;*$@$%==;=*=;=%@@$%====<<<:=*===***=;<<:=%%*=::=*=,<3<:==*$@@%*==%%**%$@@@%%=:=%$%%%%*;,:==:<<<<<<33<<33<:==;<:=*:<333<<34444333444433344344444333433<<<<<;====:<33343<<33<333<233444334444444333333,:;:<<,<<<=;,<<:;:,<3<:=:<:==;:;=****%%=::=*%%%%===*==::;=%%%=::,<,:=====*%%*;,<:==**====*:<<<:;=*%%%%=;:;==;==*%@%=:::=%****==:::;==:<3333333<<<<:;&%%==;:=;,333333333333<<33<<<<334443<333333:=%=:====",
";;;;===,<3<<<333333333<<<<<<<333333344<<<333<,<<3:==<<<3<<44<<<<333<:**===*%**%%%==,:=%@$%*===*==;=%@@$%===:<<<=%%=*%%*==:<<=*%%*==*%*;<<:==*$+$=::;=====%%@@$%*:;%$%%%%=:<33:;:<<<<<<<<<<<<:;=,<<33<<:,<<<22<<<<<<<<<<<<<<<<<<<<<34433<<3444<:%%%=*;3433343333344444444334444444444444444<:;=*%=:<:;;<=$+@%:443,<<<<=*%*%%%%*%%%%:::=%@@%*=;==*;;=%@@$*===:<<<:=%==*%*==::==%%%=:=%*;<<<<;==$@@%===*%%*%%$@@@%==:%$$$$%%:<44:==,<<<<<333333<,==:<<:;<34<<<<34444333344433333334444334433<<<<<=====:<33443<<3<<344<234444344444444433333:;=====:<<::::=%$%;<34<=::;=,<<<,;=*%%%%=:==*%%%======:;::=%$%-:;=:::==**%%%%=:::==*===*=;::==;=*$@%*===;;=;;=*%$@%=:,;*%****;,<3<<==:<3333333<<<<<<=%%=:<,-;:33333333<<33<<33<<<<334443<<3333<,:=:,;===",
":;;:=;,<33333<<<<<<<<3<<<<<<<3333344443<<,,<<<<<3,;=<<<<,<<3<<::<33,;*;:<::=**%%%%*::=%@@%%*=;=*===%%%@@%=====;:=%%&&%%*==::=%%%%%%%=-::;;==%@%=;=;=====%%@@@%%===%%%%%=,<3<<<::<:,<<<,::::<:;=,<<<::===:<<<33<<<<<<<<<<<<<<<<<<<<<343<<<34443<=%%*=:343343334444444444433444444444444444<:======;::=%=*%@@%;,<,:,<<:==;::=*%%%%%%=::=%@@%%====%===%%$@$%=====::;%%%%%***===***=;=**;<<:;;==%@#%=;;=*%&=%%$@@$%===%$$%%=:<<<3:==<<:,<33<<<<<<:==:<<:,,,::,<<334443<<<44444433333444334443<<<<<=%%*%=<344443<3334443334444444444444443334,:;;;==:,<:;:=%%$*:<44<=;;;:,<33<<:=*%%%=;;==%%%%*====;==;:=%$*==*==;%%*%%%%%==;===***%%*===*===%$%*==*====;==*%%$*;::=*%*==;<3333<:=;<33<<<33<<<<3<:*%;,:==;,33333333<<333<<<<<<334444<<<<33<<<<<<<,::=",
";;;;=:<333333<<<<<<<<<<<<<33333333444443<:;:::,<4<;=<<:;=;:<<<;=:33:==,<3<<:=*%%%%%;:;*#@$%*===**==*=*%@$%=*%%*;=%%%%%%&==;;*%%%%%%%%==*%*=%%@%=;=======%$@@@%*==*%%%*;:<3<<,<:::;:<3<:*%%=::==,<,;=====:<<333<<<<<<<<<<<<<<<<<<<<<<43<<<34433<:=%=:<334443334444444444444444444444444444,=*========*%*=%@@%=====,<<===,<<,:=*%%%%*;:=%$@@%*===%===%*%$@$%=*%%=::%%%%*%&*%*=*==:;=%=:<:=%==*%@%=====****%%$@@%%==%$$%%=:<<:;<:;;,:=:<3<,:;:<<:==,<,:::;=;,<<<<3443<<<34444433333343334443<<<<<=*%*%=<344443<3444444433344444444444443334:;=;:;=;:<;===%%%=:<<<:=::;::,<33<<:=*%%==;;=*%%%%=====**=:=%$%*=***=%%*%%%%*=======*%%%*====***%$%===*======**%%%=::;=***=;,<43<<<:==<3<<<<3333333<,==:<:==:<333333333<<<<<<<333344333<<<<333333333<<::",
"=====:<333333<<<<<<<<<3<<<<333333344433<,======:3<:=<:=$@%=<33:==<<:=;<33333<-*%%%%=::=%@@%%*==*%==*==%@@%%%%$%**%%%%%%%*****%%%$%%%%%*$$%%$@@*==%***==%@@@@%%*=*%%%*;<<3<,::<:::;:33<;@@@$====,<;%%%==;,<<3<33<<<<<<<<<<<<<<<<<<<<<443<<344333<:=:<3334443<34444444444444444444444444444:=%%%%%%%%*%%:;*@$%%%%%*:<<==;<<<3<:=%%%$%=::=%@@%%*==*%==%==*@@%*%%@%===%$%%%**%%=*=::==%=:,=%@%%%$$*====*%*=%%$@@%%%==%%%%=:<3<;*::;:,:=,<3<=%@%:<,==,,;=====;<22<<3443<<333444433333333<<344<<<<<<;====;<344433334444443333444444443444333<<:===;:;;::=**=%%*;:::;==,:;::::<3<<<:=***=;:==%%$$%====%%==*%%%%*=***%%*%%%%%*%===*=*%%%%%====*%%$%===***=;==*%%%*=::*====;,343<;=::==<<<,<<3333333<<==,<,;:<<<<<333333<<<<<<<<3333333<<<<333333333<<<,:",
"%====:2333333<<<<<<<<<3<<<<333333344433<<;======,,:=:=@@@%:<43:==<<:=:<,:<33<,:=*%%%=:;*$@@%*===%***==%@$%%%===%%%%%$%%%**%%%%%%@@$%%%%%%%@@@@%*=%%%*=%@+@@%%===%%%=:<<<3<:;=:::::<443,*@@@$%==,:=*=====:<<<<33<<<<<<<<<<<<<<<<<<<<3443<<<343333:=:<433444<<<3444444334444444444444444444,;===%%%$$%%*=%@@%=:;=*%;<<===:;:<<<:=*%%%*=:;*$@@%*===%**%==%@@%%%**%%%%%%%%%%**%%&=;======*%%%%%$@$%==**==*%%$@@@%*=**%%%=:<<3<;*==;<<;*:<3<=@X+%-:==,:=*====:<2<<<3333<<33344443333333<<<343<<<<34<:==:<<3444333344444433<<<34444433444333<,:::======;===;=*%*==*%*=<<:;===<3<<<<,;=%%=;==*%@@@$&==%%***%%$$%%%*==**%%%%%%%=*%&=%%****;;=%%%$$%===*%*===*%$%*=::=%*==:<3343<==:;-:<<:=,<33<<<<3<:==<<<,<,:;:,333333<<<33<<<33<<333<<33333333333<<<<<",
"%%===:<343<<<<<<<3<<<<3<<<<<<<<3<344433<,;======::;==%$@$=:<<<;=;<<:=;::=:<33<<:==%%==:=%$@$%*==*%***%%$$$$%*===%%%%$%%%%*%%%%%%%%%%%%**%$@@@$%%*%%%*%@++@%%===*%$%;,<<<3<,;==:,:::<<<:=@@@$%%=::*======;,<<<<<<<<<3<<<<<<<<<<<<<333443<<<343333:;:<3334443333444443334444344444444444444<:=;=%%%%$%%*%@@+$=<<,:==::=*=;==:<<<,;==%%=::=%@@$%*==*%%%=*%$@@$%*==*%%**%%%%%**%========*%*%%$@@@$%**%%==%%@@@$%%==%%$%=,<<<<<:===:3<:*:<<<=$++@%===:;=====*=:<<333333<<34444333333333<<<343<<<<<43<:=,<3334444334444443333<<333443<4444443<:::===***===;=*%%==;==*=:<<;===<3333<<:=%%*=;==*%@@@$%%%*=%*%%%%%#$%=====%%%%%*=*%%*&%====;=%%%%%%%**==*****%%%*=::=***=;,<3343<;===:,<<:=<33<:;=:,<:==<<:;::;=;,3333333<<<3<<<3333333333333<<<<3333<<<,",
"%%%%%=<333<<<<<<<3<<<<3<<<<<<<<<<344333<:========:=%=*%%%==;;=*=:<<,;====:<3333<:=%%%*::=%%@$%**=%**%%%%$#$$%*===**%%%%%%**%$%%%%%%%*=*%@@@@$%%%%*%%%@+X@%*====%%%*:<<<<3<<:-;<2<:;::==*$@@%%%%==%=***===:<<<<<<<<33<<<<<<<<<<<<<344443<<<333333:;:<33344443333344433344443444444444444443,;;=%$**$$%%%%$@@=<44<:==::=%=%=:3333,:=%%%=:;=%$@%%*=**%*%%%$@@$$%===**==*%%%%**%===*==;=*%=%$@@@@%%%%%%%%$@@@$%*==*%%@%:<<<<<<,:;:<4<:==:<:=%@@$%**=;==**%%%*;,<333333<<34344333333333333443<<<<<33<:;<<<<33444334444443<<3<<3<3343<43344443:::;=*=**%===*%%%=:<<:;==:<:==:<<33333<:%%*=;;;=*%@+@@$%*=%**%=**$$%*=;==*%$%%*=*%$%*=;;===%%%%*%%%**===*%%%%%*=::==*===:<333443:===><<:;=<33<=$@%=,,==<,;*====:<3333433<<<33333333333333343<<<<333333<:",
"%**%%;<433<<<<<<<3<<<<3<<<<<<<<<<344333:;==*%%%%*=*%===%%%%%%%%=:33<:=*==,<33344<=**&%*=:;=$@$%*====%%%%%%%$@$%=====*%%%%=*%%%$@%*=*=%$@@$%%%%%%*=%@+XX@%==:=*%%&=:<<<<<3<<<<<344:=%%%%%$$%%%%%%%$%%%%=;;,<<<<<<<<<3<<<<<333<<<33344443<<<333333,::<33344433333333433444444444444444444444<:=*%$=*$@$=:<,;$%;332<===,=*%%=:33333,=%%*%=;:=%$@$%*=*==%%%%%%%@@$*===;:=%%%%%*%==*%=;;===%@@@$%%%%%&&%%@+X+@%====%%%%:<<<<<<<<<<<343,=%*==%%$%===%*==%%%%*==:<<<<3333<334333333333333334443<<<<<33<;;<<<<33334334444443<<<<<3<<333343344334<:===*;==%====%%%*:<44<;=:<<<,<<<333<<<,;=*===::;=%@+XX@%***%%==;=%$@%==:;*%%%**%%$%*;;=*%$%%=;=%%%*===%%%%%%=;::=***=;:,<333443<<:,<<<:=*<33<=@+@%;:==<:===;;=:<3333433<<3333333333333334443333333333<:",
";;==:,<43333<<<<<<<<<333<33333<<<344333<:===%%%%%%%*==%$%*=;==%*;<<<<::::<333344<:;==*%*=;;=%$%%%*===%%%%%*=%%$%%==;=%$$%%**%$$%===*%$@%%*=%%%%%%$@XXX@%=;;==*%*;:,<<<<3333<<<3<<;===;;=%@@%%%%%$$$%%==;:<<<<<<<<<<<<<<<<333333333333443<<333333,::<33344433333333444444444444444444444444<;===%*%@@%=:<<<===:<<<-==<,:;;:<33333<:==**%*=:=*%$$%*%==*%%%%%*%%$$%*==::=%%$%%%==%*;:;=%$$$%**&%%%%%%@@XX@%==;==%%&=:,<<<<<<<<<<<<<<:*%%%%%%$$%==*%*&%%%===;:<<<<333333343333333333334444433333333<::<<<<333344444444433<333433343343344334<:====;==%%=:<,;=*;<34<:=;,<<<<<<<333<<,::;====;;==%@XX+@@$%*%=====*%%%%=;=%%%%%%%%%=:=%%$%%=;;=%%%%%%%@@@@%=;;==*==::::<<<<33333<<<<<<,:=:<<<=$@@$%===:;=====*=;,<334333333<<3<<333333333433333333333<<",
",:;:<<333333<<<<<<<<<333<333<<<<<233333<:===%%%%%%%==%%@$*:<,:=*=:<3<<<<<3433343<,:::;=%*=;==%$$$%%%*%%%%%===%@@$%%=;=%@@%%%%%%*;=%%$$%*===*%%%$@XXXXX@*=======;:::;::<<<33<<<<<:=;:<<:=$@@%%%$$%%%%%==:<33<<<<<<<<<<<<<<<<3333333333443333333<<:::<34444433333334444444444444444444444443<:====*%@@$*=:,<<:;=:<<-==<<<,<<333343<,:;-=*%*=;==%$$%%%**%%%%%===%@$%%*=:=*$@$%%**%=::=%%@$%===*%%%%$@+XXX@*=;======:::::<<<<<<<<<<<:=%*====%@@$%==%%%&*%===:<3333333333343344443333444444444333444<::<3<<34344444444444333334334433433444443,;=====*%%=<43<:==,<<<<==:<33<<<<<<<::::::,:;====*%@@@@@@@%%%*====*=%%%%==*%%%%%%%===%$@%%%====%%%%%%%@@@@%======:,<,:=:::,<<33333<<<<<:==:::=%@@%%*%*;==*&&&**=:<333<<<<<<<<3<<33333333343333333343333",
"<:;:<3<<<3<<3<<<<<<<<<3<<<<<<<<<<33<<33<<:=*%%**%%%%**%@@%;<4<:=*=<<3333333433<<<::,<<:=*%*===$@@@@@%%%%$%%===%%#@@*=;*$@@$%%*==;*$@%%====**%%$@XX+@@@@$%%%=:,<<=%$$%=:<<33<<<<:=;,344,%@$%=*%$$%%*%$%=:<3333<<<<<<<<<<<<<33<<<<<<<<<4433<3333<<::<<344444443<<<44444444444444444444444433<<:;=;=%@@@$%%=:<3<==:,==;<<<<<<33323<<<:,,,;*%%=;:=%@@@@@%%%%%%%==*%$@@@*:=*$$#$%*==:;=%$$%*====*%%%@XXX+X+@%%%%=;::,:=%%*=:<<<<<<<<<=%%=:<<:=@+@$%*%%%**%*==,<3334333333443344443333444444444333444<::<44444444444344443333334334433433333343<:::;=%%%%=:<<34:;:::<,==:<3333<<<,:%%%%=,33<:=%$@$$@@%%%%$$%%***%*===%$%==*%%%%%%*=%$$%%%**==%%$$%%%%%$@@$%%=;:<<3<:*%%$%=:<3333<<<<<<:=%*=%%%$%=;=%%=%%%%&*==:<<333<<<<<<3333333333334333333333333333",
"<;=:<32<23<<3<<<<<<<<<33<<<<<<333333333<<:=%%%**%$%=:::;%%=<3<<;==,<33333344<:;****=,33<::=*%%@@@@@$%%$$$%*==*%=%@@$%=*%@$$%%%==*$$%**%%**%%$@@$@@@$@@@@@@%=,<<;%@@@@$%:<33<<<,:=,344<:@%;,<,=$@@%%%%==;<<333<<<<<<<<<<<<<33<<<<<,:::<333<<3333<::<344444443<:=;:<44444444444444444444<,<<33<<::=%%%%%====<3<:=*=*=,<<<33334<,:===*=,3<,;===*%$++@@@@@@$%%*===%%%@@$*=*%%$%====;=%@%%=%%*=%%%@@@@@@@@@@@@$%=,<<;%@@@@$=:<<<<<<<<=*=,<<<=%@%=;=%%%%%**===,<3334333334443444433333444444433333444<::<4444444443<::<2433334443<<3344433<<<343<,::;=%%%=;;:<4<,,;;;;==:<3333<<<=%$$$$%=<3<:=%$$%%%%*==*%%@@$%%%%**==%%%***%%%*%*%%%%%%%%**%%@@%====*%%$$$$%;<33<:%$@@@@%=,33333<<<<,;%%%%**%$$%===*%%%*&===;,333333<<<333344444333334433333443333333",
"<:;<<32233<33<<<33<<<3333<<3<33333333333<,==*%%%%$%=:<<<;**:<<3:==,<33334444,=%$@$$$=<43<,=%$%$$%%%%*%%$@%%==*%*%%%$%%%%%%$%%%%%%%%%%%%%%%@@@@%%%%%%%%%%%@$%:<:%@@@@@@#=:<<<<<,:=<343<;%:<3<:=%@@%%===;:<<<<<<<<<<<<<<<<233<<<<<,;===:<33<<3333<,,344444444<:===*:<444444444444444444<:;;,<343<<=%%%%%*===<33<:==;:<<<<33344,=%$$$@%;<43<:=%$$$@@@$%%%%$$%%*==*&%$$%%*%%%%%=*==*%$%%%*%%%%$@@@$$%%%%%%%%$@@*:<:%@+@@@@$=,<<<<3<<==:<<<,*%%:<,;*%$$%====;<3333333333443343333344443<<<<<33333444<:,<444444444<:==;:3333344433<3334333<:;<3443<,:==**=;;::<<<<,;===:<33333<<:*$@%%%$%;<:=%%%==========&%#@@%%%*%===%%%**%%%%%%***&&&**%%%@@%*==========*%=:<<,=$@$$@@$*:<<<33<<<<:=%==::=%@@$%==*%%**%===:<44444333333333444433333443433333<343334",
",::<<3<<3<<<<<<<<33<<33<<33333333333<<33<<:==*%%$@%*::<4,;=:::<:==,<33333343:%@@@@@@%;<3<:=%%%*==**===*%@@$%**%%%%=%%%%%%%%%*&%@@*=%%%%$$@@+@%%%%====::;=$@$=:=$@$%$@@$%:<<<<<,:=,<<<,:=<3<:=*$@@%=;:::<<<::<<3<<<<<<<<<<<<<<3<<:===*:<33333333<,,344444444<:===*=,444444444444444443<:*%=,<4443=%%*%%%**=<333<,:,<333333344:%@@@@@@%:<4<,=%@$%%%%*===*$@@$%=**%%%*%$%%%%%%*%%*$$%=%%%$$$@@++$%%%%*=====%@@%;,=$@@@@@@@%:<<<<3<<==:<:::**:<<,:*$@$%==;:,<333<<33333443333333444443<:;:,<3333344<::<433444443:====;<2344444433433433<,=*;<4444<:======:=;<<34<:==;:<<3333<<=%$@%**%%*:=%@%=:,<,:::;;;==%$@$%%=%*===%%%%%*%%%%===*****%%$@%*=;;;;::::,:;%%%:<:%$%%%$$%%=:<<<<<<<,=%*:,<<:%+@$%%%%%%*%%*==,<3333333333343333343333333343<<3<<344334",
"==:<33<<33<<:;;:<3<<<<<<<3333333<<33<:,<<<<:;=*%%@@%==;<<,:<:=====<3333333<,=%$@$$$@@*,<:%$%;,<,:;======%$@@%%%%%%*%%*%@@$%%%%$#*==%%%*%$@@@%====::,<<:=%@@@%%%$**&$@@$*:<<<<<<:=;::,<<<4<:=*%@@@%=:<<<<<,=*:<3<<<<<<<<<<<<<33<:==::=:,33333333<::334444444<:=:<:;:<,,<47444444444444,=%$%;<<43<*%%%$$@%==:<333343333333333<=%@@$%@@@*:<,=%%=:::;;=====*%@@$%**%%%%%%%%%$%%*%%%@%==%$%%%%@+@$%***=::,,,;*@+@%=$%%*%$@@@%;<<<<33<===:==:::<<;==%$@%%==:<333<,<<3333344334443344444,;===:<3333344<::<433344443:=;:;=:<3444444344434333:=%=,3444<;==****===,<343<<<<<<<33333<=%$@%*==*%*%%@$%*;<<<<<<<,::;=%@#%=***%**%%%**%%%*==%*=*%%%$%%===;;;:<<<3<:=%@$*==%===%%$%%=:<<<<<3<,=*;<<<<=$$=::=%%%%*==*==,<33333333333433333333333333<<<<3<<<33334",
"=;:3333<33<:=**=:<<<<<<<<33333333333,:=:<<<<<<:=%%%%===:<<<<:==*=:<3333334<:%$@@$%%%%%=;*@@%=:<<<>::;;===*%@@$%%***%%=%$@$%%%$$%*%%%%%%$@$%==:::,<<<<<=%@@@@$$$%*%$@@%;:<33333<:===;<<34<:===*$%%%=,<<<<<;**:<3<<<33<<<<<<<<,<<:=:::*:,33333343<::<333444443<;:<,;=;==;34744444444444,=%@$=,<4<:===%$$%===:<44444333333333<:%$@@$%%%%%=:=$$%=:<<<::;=====%@@@$%%**%%%=*%$%%*%%@%**&%%%%$@@$%==;::,<<<,;%$@+@$%@%*%$@@$*;<<33333<;*%%*;<<<<:===%%%%*;<<343<,=:<333333344433334443<:=,:==<3333344<::<3<<<34444:==,,:=:,,<<443344444443:=%%:<443,====**=;=;:<33443<333333333<<:=$$%%==%%%$@@$%*:,<3443<<<<:;%$%=*%%$%%%$%%%%$%%*=%***%%%%=:::,<<<<3<<<:=%$$$%%%%==%%$$$*:<<<<<<3<:==:<<:,=*=,<,;%$$%%====:<<33333<3333<<<3<<<333<<<<<:::<<<<<<33334",
"=:,43343<<3:=**==<<<<<3333333344333<:=*;,33333:=%%%%====,333<:==:<<3333334<:&%@@$%*=%%%%$@@$%=,<3<<,::::::=%@@%%==*%**%$@$$%%@@%*%%%%%%@%*:::,<<333<<;%@@@@$@@@%%$@@%;<<333433<<:=;:<334,=*==*%%%*=:<<<<:=%*;<3<<<333<<<<<<:=;;==:::=:<33333344<::<<333444443<,::=%%%%=<4744444444444>=$@@*:<4<=;:;%%%%===;<44444333443<<3<;%@@@$%**%$%%$@@%%;<4<<,::::::;*$@@%%*=*%%=%%$$%*%$@*=%%%%%%$@%=:::,<<<33<:%@@+@@@@@%%%@@$*:<<3333333:=%%=:33<,===*%%*%*:33443,;%=:<<<33334433333<<<<,;;3:;;<3333444<<:<33<<34444<:=:::*===;<443344444333:=*%=,44<:=;=====;:::,<3444444333333333<:*%$$%%%$$%%$$$%*:<344<<3<<<<;%%*=*%$%%%%%%$$$%%%=***=*%%=:<<<<<<<<43<,=%@@$%%$$%*%%@$%%:<<<<<<<<<:==:<:=:;;,<<:=%$$$%=;;:<<3<<<<3<<<<3<<<<<<<<<33<<<:==;:<<<<<33333",
"%;<43343<<3:==:;=;,<3<333333334433<<:=%*:<<3<<=%%%%%%===:<<3<<<<<<<3333<<<3<>*@@@$%&%$@@@$$@@$=:<<33<<<<3<,;%$%***=*%%$@@@$$@@@%%%%%*%$$=,3<<<<<<<<<:%@@@$%%@@@@@@@$;<3<<3333333<<<33<<3:=***%%%%**;<<3<=%%%=<23333333333<:*%%%%%=:::<<44334444<:=,<3444444444,=%%$@*==,4744444444444,=@+@%:33,=,<:===%%===,44444334443<<<3<;%@@@@%%%$$@@@@@@%=<33<<<<<<<,:=$@%%****%%%%@@%%$@@**%$%%%$$%:<<<<<<<<33:%@@@@$$@@@@@@@$=,<<<3333334<:=;,<3<<,===*%%%%%;<<33<;%%*;<<<3333443223<:==::;:3::,343334443<::<433444443<:==*%%%%=:<33344444333:=%$*:34<:::;==;:;::;><33333443333443333<:*%$%$@@$%=*%@@%=<33<:,<<<<<<;*%;=*%%%**%%$$$%%%==*===%%,343<<::::<3<;%@@@%%%$$$$$@@$*:<<<<<<<<<<:======,,,<:;==%$$%*=;,<43<<::<3<<<<3333<<<<<<333<:====;<<<<<<333<",
"=:<43343333:==>:;=::;:<3<3333344333<:%$%=,<3<,=*=%%%%*==:<33<<<<3<<3333<<<33<:=$@@#$$@@@%%%@@@%;<<<:==:<33<<=%$*=*%**%$@@@@$$%%%%$%==%$=,343<<:;;:<,;%@@@%%%@@$$%%%=:33<<333333333333333:===*%$%=**=:<<,=%$%=,23333333333<:;==%%%==:<<34444443<:=*=,<44444443<:==%%=:<<<4444444444444<=@+@%:3<:=<3<<,:&=;;=,44444434443<<<33<:%$@@$%%#@@%%$@@@%:<<<,:::<3<<,=@%%=****%%$@@@%%$$%%$$%=%@*:333<<,::,<<;%@@@$%%@@@@@@$*:<<<<33333344<<<<<3<<:==%%%%%%%=<<33:=%$%;<<3333344322<<=**====;:<<33333344<:==:<33444444<:===%*=:,<<33344444333:=%$%:33,;:,:======;=:<33<<34333334443333<:=%%%%%$%**%@@$=,<:===:<<<<<:;%:::=%%*=*%$%%*****=;:**=>,,<<:====,<<=%@@@%%%$$%%%%%=:<3<<<<<<<<<<=*%%=:<<<:====%%%%*:<<343<:=;,3<<<<33333<33<<<<<,:;:;==,<<<<<333<",
"=:<3<333333:;=;-=%==*=,<<3333344333<:%@@%:<3<:;==%%%%===;<33<<333333333<<<233<:=&%$$$@@@%%%@@+@=,<:=*%=:<<,:;*$*===**%%$@@@@$%%%$%*:;*%:<333<:=**=::=$@$@$$@%%%%*=::<<3<<33333344443343<;=;==*%*====:<<:*$@%=,23333333333<,,,:=*=:;:<344444433<;*%=:<44444443<:=,==:<<,<3444447444444<;%o@%:3<;;<43<<<::<<:<44444444443<<<33<<;*%$$$$@@@%%%@@@$=,<,;===:<<<,;%%%===*%%%%@@@@%%%$$$%==*%-<333<:==*-:<=$@$@$%@$$@%%*=:<<<<<33333333333<<3<<:;=%%%%%===:<33:*$$*:<23333333333<<====%**=:<433333344<=**=,<4444444<:=;:==:<33333344444333:=%@%:3<:;:<<,::;:::;:<33<<333<2334444443<<:;=*%*%%%%%@@@*:,;=**=,<,;:::=;:<:=%*=*%$%%==*%=:::*%=;==::=*=*=:<,=%@@@%%%%%*===;,<33<<<<<<<<<<:=**;<<3<:===*%%%%*:<334<:=%=:3<<3333333<<3<<::<:;:<:=;<<<<<3343<",
"*:,<<<33322<,:*%%%%%*=:<<<333344333<:%@@%;<3<;:::**======,33334433333333<<<333<<:=*%%%%%%%%$@@@*:<:*=%%*::=*=*%%;::=**%%$@@@%**%%=:<;==:::,<,=%%%%::*@@@@+@@=*%%=:<<<<<<<33333334433343,==;====*=,:=;<<:%@@$=<33333333333<<<<<:;:<::<334444433<;%%=,<44444443<::4:;::;=:<4444776444444,=++%:<:;:33<,<<<3444444444444444<<<33<<<:;=%%%@@@$%%@@@@%:,:**%%=::;;==%%=:;=%%%%$@@@%**$$%;:;%*:<,<<<=%%$%;,%@@$@@+@%*%%=:,<<<<<<<33333333<<<<3<<;==*%**%;::=,33;%@@*:<233333333333<:,:=%===:<443333344,=%%=:<4444444<:=<<;:<333333433333333<=%@%:4<::<443<<,<<<,,<22<<33<<<<3444444433<,;*%===%%$$$@%:::====:,;%*=;==:<,;*%=*%@%*=*%%;,,=%%=*%*;;=====;::*%@$@@%%===;:,<3333<<<<<<3<<3<,::<33<<,=*%%%%%%*:<333,=%$%:3<<333333<<<<<:==;==:<::,<33<<3343<",
"*=:<<3333223<:**=%*=<<<<<<3333444333:%@@$=<<:=:<<=*=*====:<333443<<33333<<<333333<<:=*==*$%$@@@%=:=*====:=%%%%%$=<3:=%**%$@@%*%$*:<<=*==*%%::;======%@@@@@$=:=%@@%:<<<<<<33333334433343,========:<,;=<<;$@@%=<33333333333<>::::::3,:<334444433<=%%=<3444444444<<4,==%*=;<44477777744444:%@%,<:;<<:=%*;<444444444444444333333<3333<:;=%*%%$$$@@@%::;===*===%%%%$$=<<:****%@@@%*%$%:<:=%=;=%=:,======;%@@@@+X%;;$@$=:<<<<<<333333333<<<<3<,===**===:,:=:<<=%@@*:<2333333333333<<<<=::::<443333344<=%%=<34444444<,;<<::::::<33433333333<:=$=,4<::33<<<<<44343222<<33<<<<<<34444433<=%$%=::=%%$$@%*;::;:::::=%*=;*=::;=%***$%==%%%=::%%%**==:::;======%%@@@@%;;=%%=,<33<3<<<<<3443343<<<33<<:==&%$%%%%=,<33:*$$%:3<<333332<<<<,*%%%%%&=,<4333<<<33<:",
"$%=:<333<<<3<:=::==:333<<<3333444444:*@+@=<<:=,<<:::=;;;;:<33<3<<<<33333333333334<,*%%=:=$@@@@$%*=======:;==*%$$*::-*$%%%$@@=%$@=;:;**=***=::;===**%%%$%%*=:,=$@@$=,<<<<<<<33333333334<,::::::,<<3<:=:<:$++%:<3333333333<<======:<<<333<<<<44<,*$$%;,<4<<,<<44444:*%====,34444444444444<:%=<<:;<:=%$%=,444444444444443333333334333,=%$===$@@@@@%========;;=%%%@$%::;%%%%%$@@%%$$*:<;*%==%%=::;===***$@@@$%%::;$@@$=,<<<<<333333433<<<<3<:=====:::<<,=:<3=$@$=<33333344<<333<:;::=:,<<<444344443,=%$*:<43<,:,<3<,<<:=====:<34333333344<,=:<4,:,<>;==:,34444322<<33<<<<<<<444443<:%$$%*:<,:=%%%%*========;:;====*=;==%%%*%%*%%%*==*%%*=;;;;=========%%%%@$*:=*%%*;<<3<<<<,<<<3333333<<34<,:;=*%%%%===:<<<=%@@%:3333333333<<<,===%%%*=:<4333<<<33,=",
"@%=:<433<<<<<:=,<=::<<<<<33333443334<=@+@=<<;=<3<<,:::,:,<<33<3<<3333333333334333<;%@$%:;%@@@$%%%============%%%%*==%$$%%$@$*$@%===%*==*=;:;;===*%***%%%*=:<,=$$@@%:<<<<<<<333<33<<3333<,,<<<,<<<3<:;:<:%X@*,<3334333333<:*===%*;<<<33<:;;:<4<;%@@$%=<2,:;:,<4443;**::;=,344444444444444<;;<,:;<=%$$%=<34444444444444333333333433<:*$@*;;%@@@$%%%==*====;;===%$$%===%$$%%$@@%%@%*=;**===*==;:===*%%*%%%%%=;<,=@@@@%:<<<<<<<<233333<<<<3<:=:::;><<33<;:<4=$@*:<33333344<<33<:=*===;,<<344<<<343,;%@@%=<3<:===,<4<3<=*=:;=:<3333333333443::<3::,,-***=:344443333333<<<<<<<344444<;%%%%%:<<:;=%*====*====*=::;;:==%=;==%%%%%%%%*==*%$*==:;==*=====;:;===*%%=,=%%%%=:<33<<<,<<<<<<333<<<33<:===*%***::;;,<<=%@@%:3<<3333<33<<<<:,:=%*==;,433<<<333:=",
"$%=,34443333<,;<<::;==;,<33334443333<:$+@;<,=;<<,::,<3333333333333333333333334433:%$%%%::=%%=====:=====***====%%%%%==%@$%%$$%@%===%@====:::*%*===%;::=%%==;,:*$%%$@;<3<<<<<3<<<<<<<333443344<:==:,<,::<,*@%:343334333333<:=:::%%=<<33<:==%=:<,*$@@##%:,;==*=,444<;=,4<:=<4444444444444444::,,;=,%@@%=,44444444444444444333333344<:%$$$%;<=%%*****==**======;==%%%%%==%%$%$@%$@@==*%%*;*=:,:=****%%===*%%*=:<:=@$$@%=<<<<33<<<33333<<<33<<<<<<<<<<<4<::,4:%%:<3333333444444<:===%%=,4444<:==,<<=%@@@@%:<,=*%%:<443,*=:<<::<3333333333333<::<::,:=%*=:<4444433334443<<<33<<44444:=@%%%%:<:;=*%=:<<:=;<<;**==::<:==;:,<=%%%%%%=;:;=%%;:;===**=::==,<<:;====-:=***%%=<33<<<<<<<<<<<3333333<:===%%===:,:=:<<*@@@*:3<<3333<<<<<<<<<<<=;:::,433<<<344<:",
"@@%:<3<,:;:<3<<<<=**===:<<33344433333<;%%:<:=:,:==*=:<<<<3333333333333<<3<<<3344<=%%%%%========:<<:==:::%%***===%%==;;%%$$%%@$=:;=*%;::;===%=:,;==,<:=======:*%%*%@=<3<<<<<3<<<233<33334444<:=%%%=,,:=<,==:3444333333333<,=:<<:==,<33,;=,,:::=$@@@@@%=:::<:;;343:==:3<,>2444444444444:==:==;:====*==,344444444444444444333333343,=%%%%%=:======::<:==:,=*%**====%$*===%$%%%%@@%:;=*%=:;;;=*%%:::*=:<:=**===:;=@%%$@=<3<<<<<<<22333<<<<<<<333<,;==:<<:;:4:==<33333444444333<:=::;*=:3332:=%*=::%$@@@@%=:::::==:33<:=:<4<,:<<3333333<,:;::::,:::;====:<44444333334433<<333344444:*@=*%%;:==;;==;,<:==:<:==::==:,:=;,33:=%$$%=:<<:=**====;:==:<:;:<<<;=;:;===%%=**%*:<33<<,<<<<<<<<333<<<<:=====:::<<,=:<<*@@$=<3<<3332<<<<<<:===:=;:<<<433<<344<:=",
"@@$=<<,;==*:<3<<,**=::=;<<<<33333<<333<;=:,:=,:=%%%*:<<<<3333333333333<<<<<<<334:=%**%$%===::;=:,3<:=:<:====*&==%%*;:,:*$@@@$=:<:;=*::;====%=,,;=:<<:=;::;===%$%*%@=,33<<<<3332233333334444<:=%%%%;::=,:=:<3<<3343333333<<:<<<:==:<33:;:<<<:=%@@@@@@%=:<<3<:=<3<=%*=:<<<444444444444<*%%%%%*==*=::,<34444444444444444443<<33333<:*%%%%%%===;:==;<<<=;:<;=*==**==*$*;::;%$@$%$%:<:===;,;====**:::=;:<:==:;;===%@%*%@*<33<<<<<2223333<<<<<3443<:=%%=:<,;:4:;:333333344444333<:=<<,==;<33<==:::::%@@@@@@%*:<<<;=:<<:==:<33<<<<3333<34<:======:;;::::::<4444443<<333333<<<3<334434:*@=*%%===::,:==:<<:=:,,=;::===::=;<44<:%@@%:<<<:=%*==%=::==:<:::<<:=;:,::-=%%%=*%%:<33<<,,<<<<<<<333<<<<:;::::,<<<<<=:<3=$@=:<3<<3332<<<<<,;*%*=%=,<<<4<,::<<<:=%",
"+@@%,<:==*%=,33<:%=:<<:;<<<<<3<<<<<<33<:;;::;,=%$$%=:<3<<<<<<<33333333<<<<<<<333:*%==%@%*=;,<:==:<<:=:,,==::=%%=%%%;<3<:%@X@%:<<<:==::=%;::=;,:;;,<:==:<3:;=*%@$%%@=,33<<3333322334433344443<:=%%%=::=::=::::,<4443333333<<<<:;=*=,33-;,44<:%@@@@@$@%=<333<:=<<:*%%%=:34444447444443:$@@@@@$%%%;<44444444444444444444433<<33333<:%%**%$%*=;:<:==:<<:;:<:==:;*%*==%*;<3<=$@@@%;<<<:==::===:;==,:==:<:==;<<:==%%@%%%@*<33<3333333333333<<<3444<:=%%%=:<;:<::,3<<<33334444333<<:<<<=*=,33:=:343<:%@@@@@@@%;44<:=:<<====;,<<<43333<<23<:=%%*%%===;<<<<344444444<<3333333<<3<<23333:%$=%%%*==:<<<:==:<<;:,<;;:<;======,344,*@@*<<3<:=%%***:<<==:,:::<,:=:,<<:;=%%%=*%%:<<<<,,::<<<<<<333<<<<<<<<<<<::<<<::,4=%%:<33333333333<<,;===%%=,3334<=*=:<,%@@",
"XX@@=;;:,:==:33:==,<3,::<<<<33<<<<<:;=;===::;:=%%%=:<33<<<<<<<333333333333<<<344:*%**%%%=;<<<<;=;<<,=:,,=;:<=**=%$%;,3<,=+X$:<<<<;===*%=:,:=:<;;:<,;=;<<<:=**%@$%$@=<33<333333223344344444443<,;======;=%%%%%;<44433333333<<:*%%%%=,3=;,43<:%@@@@@$$%*<333<,;,:=;,<:=:<44444744474<;%$@@@@@@$%=<344443444444444444444433<333333<:%%**%$%=;,<3:==;<<:;:<:;=::;%*%%#%;<<<,*+X+=<<<<:===*%=:<:=::;=:<<;==:3<:==%%@$%$@=<3<<33333333333333<<34443<:=%%%=:;:<:;:;==:<333444444343<<:=%%%:<<::<443<;$@@@@@@@%;33<:=;,==*====<3443333<<<,:=*%%%%%%%=:3444444444444334433333<333<33333:*@%%$$*==;:,<,:=:<<:::<:;:,:=;;=%=:<44<:%%=<<<<;*%%===:<,*=;:==:<:;;:,,:==*%%%**%%:<<<<<,:,<<<<<<333<<<<<<<<<:=%%;,<:::4:=;<333333333333<<:;=::=%=:<3<<=%%*==;%@@",
"X+@@$*;<<<;=:<<;==;:<<<<<<<<33<<<<<;%%%%%%=====;;::<33<<<<<<<<333<3<<<3433333333;*%=%%%%*=;:,<:;=,<:=;::==:<;===%$%=:33<=@@=<<<<:=%%*===:,=;:,=;:<:::,<,:==**%@@$$$;<3333443333333444444444444<<:::=%*=%@$$$$=,344333333443<:=;:;==;:=;<33<:%@@$@@%@$=<333<,--=;<33<=:344444774444;%$%@@@@@@@%:444<:::<<34444444444444333333334<:%%%%$%%*=;:<,:;;:<:==::==:::*==%#%=,<3<=@+%:<<<,=%*==*=:<:;::;=:<,;;:,<:==%%%@@$$$=<4<<3<<333444433333333343<,:=;;====:=*%%$%=<2334444444444<;=====:,::<443,=$@@@@@@@%:33<:==;==:,:;=,<433333<<<;=%%%%**%%*;,4444<<34444443344333333333<<3334:=@%$$%*====;:<,;:::;==:===:;;::=%=;<33<:%%=<<<:=%%*::=:,:**====;:;;:,:;====*%%%%%&:<<<<<<,,<<<<<23<<<<<<<<<<<:=%%*;,:::<:::332<333343333<<<:;,<:===<3<:==::::;%@@",
"+@@@@%:<3<:=;,:=%**=:<<<<<<<<3<<<<:=$@@@@@%*==:<<<<333<<<<<<<<3<<<<<<<3433333333:*%*%$%%*===;<<:=::;====*=;,;=;:=%%=:<<<=@%=<<<<:%$%=;==::==::=;:::::<,:=====%%@@$%:<33<333333334444444444444443<<<=%%%$@@@@@%=:<3444333444<:=,<<,;===;,33<,*$@$$$%@$=<333<:=*-,44<:;,444444744444=%$$@@@%$@$=,43<:%%%=:<4444444444443333333334<:%%%%@%%**==:<<:;:::==-==*:::=:;=$%=:<3<=@@=<<<<:=@%=;=;:,==::==:::;:,,:===**%$$@@%=<43<<<<33344444333333<<333<<,<<:=**=%$@@@@%;,244444444444:==,<:=::::<443:*$@@@@@@@*:44<:=*==:<<<:=,<3333443<<=%%%%%==%%*:<33<,:::,<<333<333333333<<<<<<<<3<=$$$%=*=;====:,:;======**=;==::=%*=:<<,;%%%:<,;*%*=::=::=*========;:::===::=%%%%%=,<<<<<<<<<<<<<<<<<<<<<<<<<<:=%%%*::;:<;::<,,<<<<3433<<33<<:<,:=%=:<<;=:<<<,=$@@",
"+@@@@%:33<:==:**==**=<<<<<3333<<<,;%@@@@@@$%=:<3<<3443<<<<<<<33<<><<<<3433333443:=%%@@%=;:===:<,=======*%%=:==;,;%%%=<<,=+#=<<<<;%@%::==;=%*========::;=;:::===%@@%,333<<33333334444444444444444444,=%@@@@@@@$$%:<444333444<:=:,<<,;*%=:3444;%@$%%%@%=<444<:%=:44<:*=<444444744444<;%@@@%*%$$;<<:=%@@@@*:44444444444433333333343:*%%%@%*===**:<<;===****%%=::=::=%%*;<3<=@$=<<<<;%@%=,==::=*=======:,,:==;;;=**%@@%:33<<<<<33444444333333<<33333334<:=%%@@@@@@@%=<44444444444:;:44<:;;::<444,=$@@@@@@$=<44<;%%=,<<<;=;<<333344<<3:=%%%%;:=%*:<<::=%%**:<33<<<33333333<<<<<<<<3<:$#%===;<::========;::;====**=::===;<<:*$$%:,:=***=::*=====;;;:;===;;==;:<<=*%@@%:<4<<<<<<<,,<<<<<<<<<<33333<<:=%%%=;=;,==;=*=:<333433<<3343<,;%%%%=<<=:<433,*@@@",
"+@@@@%:33<:===*;:<:;=,<<<<3<<<<<>=$$@@@@@@$%=:<<<<<<33<<<<<<<<3,::<<<<3433333333<=%@@%%=:<:;=;;=====:;;===*=**=:=**%=:<:%+@%=,<:=%%*::=%====;;;;;;======;:<,====**=<333333333333443334444444<,:<444<:*$@$%@@@@$%:<444433444<:==-,<<,-%%:<344<=$@@@@@%:3<<<:=$=,44<:;,34443344444443:%@@$$%%@@=:=*%$@@@@=<44444444433333333333343,=$@@$%=:,:==;:==========%%==*=;=%%%*:<,%@@%;,<:=%%*;:**==**=;;;;=======;:<,=***%%=,44<<<<<<<344444333333<<33334444<,=%$@$$@@@@%=<34444444444:==:<<<:=*=:334<:%@@@@@@=,3<<,=$%:<2<:==:<3433344<<3<:%%%%===%*::==*%%%**:<333<<343333333<<<<<<<3<:======:<,:;;==;:::=;:<,::==*===;;==,,;%$$%::;%=;;=;=%==::,,:::::====;:;:<4;**%%=,<<<3<<<<<<<<<<<<<<<<<3<<<3<<<:=;;;===;%%%$@%=,334443333343<:=*====::=:<43<:%@@@",
"@@@@@=,33<;%%=;,<<:;=,<<<<3<<<33:=$@@@@%%@$%=,<<<:==::,3<<<<<<<::,<<<<3444433333<:*%%%%;,<:;::====;:=:::::;=*%*;====*=,:%+@%*::;%*==;=*%==::,:==:,:;===;=:<<====;:,33333333333<<3333344443<:-=%=,<3<:*$$%%@+@@%=<34444333443<;=;<34<:%%=<<<<<:%@@@@@%::::;=%%=,44<<<<<<<,:<44444443:%@@@@@@@%==%$@@@@@@=<44444444433333333333343<:%%$%%=<<:;:;=*==;;;::::===*%=====*%=::%@@$=:<;*%===;%*===;::;-::;=====;:<<;*===;:<443<<<<<<34434433343<<<3<<:,<333<;%$%%%@@@$=:<44444444444<:==:<4,=%%=:,<<,*@@@+@$;,<::;%@%;<<<,;:<<<<,<<33<<4<:%%%%%*%%=;;%%%%%%%%:<43<<<332<<<<33<<<<<<<3<<:::===:<:;;:==;:<:%=:<<,:=======:=*::;%%$%;;=%=:;===*=;:,<<<;=;::=*=;:=:,4;=*=;:<3<33<<<<<<<<<<<<<<<<<<<<<333<<,<<:=*%%$@@@@@%=:<44433333333:=-<<:=;:=:<33<:%@@@",
"@@@@%;<33,=$%=<3<:===<<<<<<<<<<<<;%$@@@%*%$%;,,::%$@%%;<<<<<<<<,,<3<<334443334444<:;==%:,,==:,=*=:::%=:<<<::=*%===:=*%;;%+@$%::=%=;===*==:,<<<=*=<<:==;;=;:<:===:<334444333333<<<34444444<:%$@@%=;:<:%$%%%@@@@*,34444443<<<33<<<<44<;=%*:::::=%@@@+$%======*==:44444<,;**=<44444443:%$@@@@$%=*%@@@@@@@@*,444444444334433333333433<;==%%;<,:;,:=*=:::=;,<<,:;=%====;=%*=:%@@$%;:*%=;===*==;:<<:=*;,,:==;;=;:,:===:<<344333333344433333333<<<<,;**;<<<<:*%**%@@@%:<4444444334433<::<34<=$%*==;::=%@@+@%=;=;==%%%=,<<<<<<,:;=:<33333<:%%%%%%%*===%%%%%%%%:<4<<<<332<<<<<<<<<<<<<3<<<<:===:,;=;:===,<:%%;<<:=%=;==*=;=%=:;*%%%;=*%=:====;:==:<<:=%=<,;%;:===:<;=*:<<33<<<<<,,,<<<<<<<<<<<<<<<<<3333333<;*%@@@@@@@@%=<3433333333<:=:<4<:;==:<33<:%$@@",
"@++@;,<<<:%@%:<3<=*=:<3<<<<<<<<<<<;%@@@%%%$%::=*%@@@@%=<<<<<<<<<333<<<344333344443<,:=*:::==;,=%*<<=@%:<<:;;:;=*==,;=%==%@@%=:=%%==%*==:==:<3<*%=<<;%=;;=;::;===:<334444333333<<<34444444<:$@@@$$$%;:%$@@$@@@@%:3444444<:==:,<34444<=;:;*====%%@@@@$%**===:,<;:4443<:=*%=:444444444<,:=%%*:,:%@$@@$%$@@=<4444444443344333333334333<,;%=;,:==::=%=,<;%*:<<<::;==*==:;*%==%@@$=;:%%=;=*==;;=><4<=%=<<:%=;;==:,:===;<3344333333344433333333<<<:*$@@%==:,:*@%%$@@@$:<4444444<,,<<<333444:=**%%&**=%%@@+@%**====::==<233<,:==*=,<33333<<:=%%%%=;=*%%$$%%%%%:<43<<<332<<<<<<<<<<<<<3<<<<:===;,;=;:;=%:,:%=;::=%$=>:===;===::=%%*:=*%=:=%=:,:=%;::;%%=<:=%=;==;:<;=*:<333<<<<<,,,<<<<<<<<<<<<<<<<<33<<333<:=%@@@@@@@@%=<333333333<<:=*=:<<:=%=:<<4<;%@@",
"XX@%;::::=%@%=<<<:::<<,::,<333<<<<;$@@@@@@$*;=%@$@@@@$=<<<<<<<3333<<<<3433333433333<:=%:::;=;:=%%:,=@%=;:==%:::=*=:;=*==*@@%;:=%%==%=;::=%=:::==;<:=%;:;=;::;===:<3344433<<33<<<<34444444<:$@@@@@@$*==%$@@@@@%=:<444444<:=%*=:<<444<=:<<=**==%%$@@%%*=%*==<43:<443,==*%=:<44444444444<,::<<3:%@%@$*%@@$:344444444433444444444443333<:*=;>:==;:=%%:<=%%=:::*=;:;=*=::**==*@@%=:;%*==**=::=%=:<:=%=<,=%=:;=-;:;===:<3444333<<33333<<3<<333<<<:%@@@@%%%==*$@@@@@%%:<4444443<:===:<<4444:=:,;*%%%=%%$@@@%**%*=:<:=;<3<<::==*=,<33<<33<<<;=*=::,=%$$%%*%%%*:<33<<<<32<<<<<<<<333<<3<<3<;===;,;==:;=%=::*******%=:<:;======::%%=;===;;=*;,<;=*=***%%=,;*%=;==::,=**:<333<<<<<,,,<<<<<<3<<<<<3<<<<<:;;,<3<,=%$%%$@@@@=,<3333333333<<:==:<<:*@%=::,<:%@+",
"X+@%======%%%=<<<<<<,:;==:<333<<<<=%@@@@@@%*=%@@@@@@@$=<<<<<<<33<<<,,<3433333433333<:=%;:::;;:=%%::;@%%%**%%;,<;==:======@@*::=*===*;:<:*%*===*=:<:=*;::=:::====:<34444333<<3<<3334444344<:$@@@@@@@%%==*%$@@%=:,<4444443<;%%*=:,<44<=:<4<=%*=*%%$$====%%=:444<344<;%%%%:<44444444<<<4<<<444<;%@%%%=%@@%<444444444433344444444333333<:=*=::;;;;=%%:,=%%*===%%=<,;==:;=====$@%;;=====*=:<:*$*======,:**=:;;;;:====:<3444433<<33333<<3<<333<<<:%@@@@@@$%==%$@@@%=:<<4444443<:=%%=::<344::<4<=%%%=**%$$%%%%%%;<3:;:33<:===%=:443<<<33<<<:==:<<<;%$%%==%%%=,333<<<<<33<<<3<<<<<<<<<<33<:===;::;;:==%=::=%%$%%=*=;<<:=*====;:%%*========><,===%%$$$%;:=*&=;==:::=*=:<343<<<<<<,,<<<<<<3<<<<<<<<<,:=%%=:<<,;%$%%@@@@$:<333333<<<<<<<<::<33:*@%%===::*$@",
"@@@%%%==*=,:=*<<<4<:==%%=<3333<<<<,;%@@@@*=*%@@@@@@@@@=<<<<<3333<<<,:<3444444444444<:=*=;:;;::=%%=::%@@$$%*==:3<:==;;===*$%=:=====*=,<<;==*%%$$*:<;=*;:,:::;====:<34444334443333344443344<:$@$%@+X@@@%:,:=%$=<44444444444<=%*;=;,44<<,<44,=%%%%**=;=*$@$=<4444444:%$$%=<44444444<==;:===,<<;*$@%===#@$=<444444443334444444444333333<:=%=::==:==*%;,:%@$$%%*%=,<<:==;=====%$=:;*===*=:<3:%%%%$$%=;::**=:::::;====:334444333333333333333333<<=%@@@@@@$$%=;;===:<444444444444,=%*==:<44<:<4<:=%%%%=;===%$@$*:3<<<<3<:====%;<44333333<<<:==:<<<=%$%===%%%;<333<<<<<33<<<3333<<<<<<<3<<:====;::::====:,=%@@@%==%%;<,:%*==%=:=%%**=====:::==;;$@@@@*::=======;;;===:<34<<<<<<<,,,<<<<<3<<<<<<<<<;%@@@@%==:;%@$@@@@@@=<333333<<::::<344433;*==%%%%%%%%%",
"@@@%%%%%=:<;==<3<<:==%*=<<3333<<333,=%%*=::=@@@@%%@@@%:<<<<<<<<<<<<<:,<333333433443<:;*========**=::%$@@@%%=%=:::======*%@%=:**=*==:<,;%*=%$#@$=:<:=*=;::::====;<<344443344333333444444343<*$@$$@@@@@%:<3,=%*:<<<344444443,=%===;<3444444,*@@@@%==;*$@+#=<444444<=**%*:44444444<:========;;==%$@*=%@@%:<444444443334444443344333333<:=**====;===%=:,%@@@@%====:::======*%@$=:=%=*&=;,<:=*=%$@@$*:::=*=;::::====:,<344443333333333333333<<<<;%@@@%@@@@%=:<<,:<<3<<<34333344<:%%%%=:<4<<34<:*@@@$*;==%@@@@%:333333,=%%%%=:3433333<:;======::;=%%%==*%%%:<<<<<<<<333<<<<<<<<<<<<<<<<<:=====::===*==;:;*$@@$$$@$%==;====*=;:======*===***%%%@@@@@=::============;,<343<<<<<<,,,<<<<<3<<<<<<<<<;%@@@@@$%==*@@@++@%%:<333333<<;*%=;:<<33<;=::=*%%%=%%%",
"$%%%%%$%:<3:;:<<<:===%=:<33333<<<34,=%=:,<:=@@@$*%@+@=:<<<<<<<<<<<<<,,<333334433333<,:============::=$@@@@%*%%===;=====*%@*;=%*=**=;:=%$%%%#@@%=::;=%%==;======><<344443333333334444444334<=$@@%%%@@@%;<<,=%==:::<<34443333:*%%*=:<444444,&@@@@%=::%@++@=<444443:==**=:4444443<:;=====;=%%*=;=%@%%#@@%;:<44444444444444443334443344<>==**=======*=:<*@@@@@%%%%==;;=****%$@%:==%=*%=;::=%%*%@@@$=::;=%*=;::-====:<<34443<33333322<<33333<<<<:=@@@%%$@@%=,<33<::,,,,<33333443,=%%%*;<433343,%@+@@%;:=%+++@%:33333<:=%%%%;<4333343<;============*%**%%%%;,<<<<<<<3433<<<<<<<<<<<<<<<<,:=======*%%*====*%@$$@@@@$$%========::========%%%%%%@@$$@$=:;==*======*==;<<343<<<<<<,,<<<<<<3<<<<<<<<<;%@+@@@@$%*=*%$@@%=:<<333333<<:=%%*=:<<3<::<<:=%%%*%*=",
"*=*$$@@*,33<<33<:%%%%%:<333<33<<<<<:==;,<<:=%@@%=%@X$=<<<<<<<<<<<<<<<,<3<3444433333<<:=*%%====**==;:=$@%$@@$$$%$*=;======*;;=&=====*%%%@@@@@@@&=====%$%==*%%==;<<<334443333333333444444444<=%@@%*=$@@%=;:;==;==*=:<34443344<=$%%*=<444444:%@+@@@=,:%@++@%,47444<===%*=:<34443:===;:;=;;=%@$%;==%$@++@@$%;<4444444444444443334443333<,;=*%*=====**=;,=%@$@@@@$$%%%:=*****%%=:*%===*;=*%%@@@@@@@%==-==%%%===%*==;,<<34443<<<<333<<<<33333<<33<;%@@%*%%@%=::<<:=====;:<3333444<:*%*==:333344,%+X++$=,=@+++@%:<3333<;=*%%=:<43<344<:========%%====%$%%@@$*;,<<<<<<3333333<<<<<<<<<<<<<<:==******%%*=%%%%%@%%$@@$%@$%;======;;========%@$%%%$%%$@%%%*==%%*===**==:<3343<<<<<<<<<<<<<<3<<<<<<<<<;%++@@@@@@%=::=*=:<23333<333333:=%%%*:<<<,,<3<:%%$%%=:",
"==%+++@%:43<<33:=%%$%=,<3<<<33<:=======;:==%%@$%=%@@%:<<<<<<<<<<<<<<<<33<3444433333<<:=*%%===*%%%*%%%$$%%%$$$$$@%*;=**;;===;=======%@@%$@$%%$@%%%*==%%%==*%%=:,33<3344433333333334444444444,=$@%==@@%====*=;:;===::34443344<:*%*==:<44442=$@++@@*==$@++@$=37443:**%%%*==<44<:%$%=;:;==*%@@@@=;:;*$++@@@$=<4444444444444443334443333<<:=*%%===*%%%****%@%%%@@$$$$%=======*==:=======%@@$@@@$$@@%%%%==%$%==*%%==,<<<33443<<<<<<<<<<<33333<<33<:%@@%==%@%=:==========;:<333444<,=**==:<3334<:%+X@@$*;%@XX+@@;<333<:==*%==:<<3<<3,;=======*%@@%====%$@@@$$*:<<<<<<<333333<<<<<<<<<<<<<<,:=******%%*==%%%%@$%%$%%%%$$====;;====;;=*=*%@@%%%%$%@@@$%%*=*%%*=**===:,<3343<<<<<<<<<<<<<<3<<<<<<<<<:%@@@%@@@@%=<<<<<,<<<<<<<<33333<;%%%%*:<<<<<3<:%@++@%=",
":*@XXX+%:43333<:=%%%%:<33<<<43,========**===%@@%*%@@*:<<<<<<<<<<<<<<<<33<34443<<33<<<<:=**====%%*=%%%$@@%$@$%%$@@$=***;;=====;====%@@$%%%%*$@$*%%=;=***===*=;,<333334433334433333444444443<:*@@%%%@%*;=*%%*;:-==:;;:<44444<:=*%*==:<4444,*@@+X+@$%%@@++@@*<744<:**%%%%==,43:%$%*====%%%@@@@@%=::=%+++++@%;<444444344433333334333333<<,;=**===%%%**%%%%@$%$@$%$$@@%==*==;=======*==*$@@$$$%%$@$%%$*=;*%&===**=:<<3333443<<<<<<<<<<<<<<<33333<:=@@#%%%@%===%%==;=;;;==;:<433<::=*%*==,<334<=@+X+@@$%$@XXX@@=<433<;=**%%==:<4<<:======%*%%@@@$%===*%@$$$$%=,<<<<<<333<<<33<<<<<<<<<<<<<<:=*****%*=;=*%==%%%%@%%$%$@%===;======;==;*@@$%%%%$$@@@$%%===%*==*===;:<<3443<<<<<<<<<<<3333333<<<<<<:=@@@%%$@@%=,<<<:::::::<<<33333<:=%%%%;<<3334<:$@X+@%=",
";%@XXX+$:3333<:==%%%=:<333333<:========%%*===@@@@@@@%=:<<<3<<<<<<<<<<<<<33333<<<33<<3<,:===**====;*%%$@@@@@@%%%$@@%***;=*=%%=:;==%$@$$$%%%*@@%==*;::=======;<<333333343<34444433334444444<:=$@@@@@$*;;*%$@%=;===:;==:<3443,=&%%%*==:4444:%@@XXX@@@@@@+@@@%<444<===%%%%==,<:%@%;===*%$@@@@@@@@%=:=%@@@+@@@%<44334334443333333333<3333<<:;===*=*%%==*$%$@@@@@$%%$$@@%**====**%=;;==*$$@@%%%%%$+%==%=::========:<<33333443333333333<<<<<<33333<:*@+@$%$$==*%$@%====;;=%%%:<3<:==*%%%%=;<<34,*@XXX@@@@@+XXX++%:43<,=%%%%%%%=,3<:*%*===%@%$@@@@@$%===*%*%%%%%::<<<<<33<<<<33<<<<<<<<<<<<<<<:====*===:;=*==%%%@@%%$%%$$=;;==========;%@@%%%*%$$$@@$%%=::========:<333443<<<<<<<<<<<333<<33<<<<33<;@+@%*%%@%=:::,=======:<<33333<<;%%%*=:<<<24<:@+X++$=",
"%@@XXX@@=<332<:==&%%=:,<<33<:========*@@$%%==*@X++++@%=<<<33<<<<<<<<<<<<333333<333<<333,:=======::=%%$$#%$@@$$@%$@%=====*=**=:;==%@@$@@%$$%%%*==*=:::;===::<33333333333<<4444433334444444:%@@@@X@$=;;=#@@@@%=***;;==%=:343:=%%%%%%=:4444=%@@++@@$$@@@@@@@$;<44,====%%%==:;*@$*,;*%%$@@@@++@$@%=:*%$*%@@@@%<44334334443333333333<333333<:;;======:;=%%$@@@@+@$$@$$@%=====***%=;===%@$@@$%%$$$@%==*=;:;=====:,<3333333333333333333<<<<<<333<<;%$@+o@%%*==%@+@@%%%*===*%+*:<<:**%%%%%*=:<44:%XXXXX@@%@@+XX++$=<3<:=%%%%=**;,3;%@*==*%%@@@@@+++$%*==*%==%%%%=:<<<<<33<<<<<3<<<<<<<<<<<<<<<<,:;===:,:;=*%%*=%$%==%%%%%=:;=====;=*=::%@%$%%=*%%%%$$%%=;::====;:,<<4444433<<<<<<<<<<333<<<<<<<<33<:$@@%==%+%=;===========:<33333<<:=%%==;<<<22<;@+X++@%",
"@@+XXX+@=,33<<=*%%%%%*;<4<,;%*====%%%$@@@@%=;=&$++++@@%:<<3<<<3<<<<<<<<<333333333333333<<,:::;::::=*@$$$%%$%=*%%$$%;:=*========::%%%%%%=*%%**%%%==;:<<<<<<<333333333343<3333443333444444<;$@@@@@@*;;=%@@@@@$%%%%*==:=%*:<3:==*=*%%=:<4<:%@@@@@@$=:%@@@@@@@%=<<:===*=%===*%@@%;<:%$@@@@@@+X@@$%=;%@%%%%@@@%:343344444433333443333333334<<,::;==;:::=%%@@@%%@$%%$$%@%=:==========;=*@%%@%*&#%%*%%*==;:<<,:,,<<333333333333333333333<<<<<33<<,*@@@@+@%===*$@+@@@$%%%%===$$*:<:=*%%%=**=:<3,=@+XXX+@%:*@XX+@@@%=<<:=*%%*===;:;%@@=;=$$@@@@+++++@@%==%%===*%%*:<<<<<<<<<<<<<<<<<<<<<<<<<<<<<<<,:,:::=;:*%$%%%%=:,:=%%%=::==;===;==:=%$%$*:,;%%%%$$%&;;:,::::<<<<<4444443<<<<<<<<33333<<<<<<<<<<<:%@+@%%$@%==%%%*=======*=;<3<<:==&%%%%=:<<22:*@XX++@@",
"@@+XXXX+%:33<:=%%%%%%%;<3,=%%====*%%@@+++@$%===%@@@@@@$=:<<<<<3<<<<<<<<<333333<<<23333<<<<<,,:<,:;-=$$$$%$%=::*%$%%=:;%=;======::*%%%=;,=%$%%%$%=:=;<33333333333333344333333443333443443:%@@@@%$%=;;=$@@@@@@$%%%%%=<:*$=:<,:====%*=:,<:*$@@@@@$%::=%$@@@$@@%=::===*=*=;=%@@@%:4:%@@@+@@@@++@@%=;%@@@%%$@@$=<433444443333333333333333343<<<<,:::,::;=%@$$%%@*=;%$$$%=:==========::=$%%%=:=$%%*%%%==;:<<3<<<33333333<<333333333<<3<<<<<<<<<:=%@@@@@$=;;=%@@@@@@@$%%%*;;=@$=::=*%%*====:,,=%@@+XX@%=,=$+X@@$@@%::;==*%======%@@$::=@@@@@@+++@@@@%=*%%%*==%%%=,<<<<<<<<<<<<<<<<<<<<<<<<<<<<<<<<<<:===:%%$$$$$=<<<======;==;===:=====*%%=<<:=%%%%%%%===:<<<<<<3<<3443333<<<<<<<333<<<<<<<<<<<3<:=%@X@@$%$==%@@@%%**====%$%;<3<:*%%%%%%*=,<33:%+XXX+@@",
"%@++XX+X@=<<<:*%%%%*==:<<=$@*==*%%%$@@XXX+@$%==*$%%%@@@@;<<<<<3<<<<<<<<<333<<3<<<<<<3333<<<<<<<:=-=*%%$$$@%:<<:%$%%==;*=:*%===::=*%%*:33:*@$$@@%=:==:343333333<<22333443333444333333333<=@+@$%=%%*;;*@@@@@@@@$%%$%=,,=@%=:,:;===*==;::=@%%%$@@%=;:==*@@%%%@$%%=;:=*==;;%$@@@=<4,*@@@++$%@+@@@$%:*$+X@$$@@@%:4444444333333333333<333<3333<<33<<<<=;:=%$$$$$%=<<=%@$%=,===;=*====::=%%*;<<:%%%%@@%=::=:<443333333<3<<<<<33333<<<<3<<<<<<<<<=@@@@@@@$*;=%$@@@@@@@@$%%%;::$@@%==*%%**==;:;=@@@$@++*=;:=%@@@$%%$@%=====**===%$@@@%,:=@@@@@@@+@@@+@%=*%$@$%*%@@*:<<<<3<<<<<<<<<<<<<<<<<<<<<<<<<<<<<:*%==%$$$$@$;<<<==;:;**==;=====**=::==;,<,=%%%$$$%*%%=,<<<<<3<<333<<<<<<<<<<<<<<<<<<<<<<<<33<=@@+XX+@%*=*@++@+@%$%===%$X%:3<;%%%%%%%%=:<<<;%+XXXX@@",
":%@+XX@+@%=,<:=*%%*===;;=%@@=;=%$$%@@+X+++@@%==%@%*=%$@@=<3<<<3<<<<<<<<<33<<<3<<<<<<3333<<<<<<<;%&%%%$$%%%%;::;%*=:;=*=============;=:<4,=@@$$$$%=%%=<43333333<<<<333333333343333333333<=@@$*==%$$===@@@@$@@@@@$%%=<<;@$%%*;:;===;:;=%*===*%$%*=;;===%%==*%%%$%=*%%*=:;%@@$%;<4;%@@@XXX@+@@@@%=:=$+@@@@@@@=<4444444433333333333<<<<<<333<<<<<<<:%*=%%$$$$$%;,<;*%==:;;===**==========;<3,%$@%$$$%=*%;<43333333<<3<<<<<33333<<<<3<<<<<<33<;@@@@%&&$%==%%@@+@+@@@@@$%:<<%@@@%==****==;=%$$%%*%@@=;====%%%===*%@$*==**%=:=%@@@@*<:*@@@@X++XX+@X@%=*%$$$%%%$@*:<<<<3<<<<<<<<<<<<<<<<<<<<<<<<<<<<<:=*==%%$$%==;;;:=====*$%*=;===%%%=;;**=;===:=*$$%%%%*=,<<<<<3<<333<<<<<<<<<<<<<<<<<<<<<<<<<<:%@@++X$*===%@++@@@@@%%%===@@%:<:*%$$%*%%=:<<:%@+XXX+@%",
":*@@X+@@@@$;:;;=%%*====*%@@$::=%@@@@@++@@+@@%=*%@$%*=%@@*:3<<<333333<<<<22<<<<<<<<<<333<<<<<<<<:***%*%$%*======%*=:;*%%*=====*%%*====;:>:;=%%%%%*;==:<33333333<<<33333333<<343333333<3<,%@@%*=%%@$==*@@@@@@@@@@@$%=:<:%@@$$=::=*%===%%=:;;=*%%*=====*%%=;====%%%*%%*=;=%@@%=:<<=@@@@+XX++@@@$=::=$+@@@@@@@=<4<<,::<443333444333<<<<<<333<<<<<<<:%%%%%%@%%**=;:=**=;==%%======*%%*=;===<<:=*%%%%%%==*:<4333333<<<333<<<33333<<<333<<<<<3<,=$@@$%&%@%*=%$@+X+@@@@@@@%:<<=$@@$%===***==%$%%**=%%$======*%*=====%$%%%%%=;:=%@@@%=,;%@@@@X++XX+@X@%=*%$$$%%%$$%;<<<<<<<<<<<<<<<<<<<<<<<<<<<<<<<<<<,:::::==**=;=====*%===%%%====*%%%===*======:==%*=;;;::<<<<<<<<<<<<<<<3<<<<<<<<<33<<<<<<<<<<:=%@+@@+%*==%$@++@@@@@$$$%=;*@@%;=*%%%%%**=:::%@@@+XX@%=",
"==%@@@%%%%@%=====%%===%$@@@%,:=%@@@@@@@@@@@@%=*$+$%%%$@@%:3333433333<<<<<<<<<<<3<<<<33<<<33<<<<,::;;:=%%=;=***=%*=;=*$$%====%%$$*==*====-::=**=;::,<<34333<<<3223344333333<343333343<4<;$@@%%%$@@$==*@@@@++@@++@@$%;<<=$@@@=:<;*%**&$*:<:::****===**%%%=:-=;:*%$***%*==%@@*=:<:%@$@@@++@@@@@%=::*$@@@@#$@@=:<:;=%*:<<3333333334<<<<<<443<<<<<<<:=====%$&===*&**%%*==%$$%===*%%$$*==**=::=:;=%%*==:::<<333<<<<<<3<<333<<<<<3333<<<<<<<<3<:%@@@%%$@@%==%@@++@@@++@@@%:<3;%@@@%=:==%%%%@%=====%%%%*==*%*%*=:==:=%@@%%%=::=$@@$*;;=%$@@+X+@+++@+$===%%$%%%%%$%=,,::::,<<<<<<<<<<<<<<<<<<<<<<<<<<<<<<<<<<:====*%*=**%*%%%%%*===%%&%===**==**=====:,<<<<<<<<<<<<<<<<<<<<<<<<<<<<<<33<<<<<<<<<:=$@@+@$@$%==%@@+++X+@@@@@%;:;$@@%%*&%%%%*==:=%@@@%@+@&==",
"*==%%%**==%$$%==*%*=:=%@@@$=<:*@@@+XXXXX+@+@$=*%@$$@@@@@@=3333433333<<<<<<<<<<333<<<33<<<33<<<<<<<<<3>=*===***=***=*%%%%*==*%&%%%*=*===%*=:==;<<<3<3344333<<<322<<44333333334333334334<=@+@$@@@@@%=;=@@@@+++@+@@@$%*:<:%@@@*:,:===%$$:<<;::******==*%%%=::==:;%@%==%%%=$@@%=:,=@@%%@@@+@@$@@%===*%@@@#%*%$===@@@@@*:,34333333343<<<<<443<<<<<<<<<<<<,:%&===****&%%**%%%%=***%%%%%%%%%=*%%=:;==:<<<<<33333<<<<<<3<<333<<<<<3333<<<<<<<<3:=@@@@$@++@*==%@@@@+$@X++@@@=,3:=%@@%;:;===%@@*:=;==%%%%%==%%**==:==::=@+%**===%@++%===%$$@@++@@@+@@@%===%%%%*%%%$$=:;=%%%=<<<<<<<<<<<<<<<<<<<<<<<<<<<<<<<<<<,=%%*%%%%%%%%%%%%%%*==*%%%%%%%%%%%*=====:<<<33<<<<<<<<<<<:,<<<<<<<<<<<<<<3<<<<<<<<<,=$@+@%*%@%==%@@+++XX+@@@@%:<:%@@@%%**%%%*==%$@$%%=%#$=;=",
"**%%%%====;%@$%%%%=:,=$@@@%;:=%$@@++X+XX+@+@%;*$+@@@@@@@$=33<<<<3<<<33<<<<<<<33333<<333<<33<<<<<<<<<<:====*%%%%%%%%%%%%%*==%%%%%%%%%%%%%%*=*==,33433444433<<<<<<<<33433<<3334333444334<=$@@@@@@@@%=:;%@@@@@@@@@@@$%%;::=$@@%=;====%$%<<:;,:*%%%%%%**==%=:,==;:=%%*=%%%%$@$%=::%@$;%$@@@@%@@$*=::;=%====:,::*@+@@@@%%=:<3333<<<4333<<<3<<<<<<<<<<<<<3<:====*%%%%%%%%%%%%%*=**%%*%%%%%%%%%%*=*==,<<<23444333<<33<<<<333<<<<<333<<<<<<<<<<<=$@@@@@@@@%==*$@@@@@@@@@@@@%:<:=%@@%==**=*%@%;:*=:=%%=*%**%%====:;=;<:%+$%=%%%%@@+%===%$$$@@@@@@@@@@%==;=*=:::::;;;=%$$$@%=:<<<<<<<<<<<<<:::<<<<<<<<<<<<<<<:=*%%%%%%%%%%%%%$%*%***%*%**%%%%**%%*%*===:<<<<<<<<<<<<<<,=;,3<<<<<<<<<<<<<<<<<<<<<<:*@@@%%%$@$*%%@@+X+XXXX@@@%:<,*@@@@%===%%%&%$@%%%*=%$$*==",
"%%%%%*=:==>=%@@%%%=;:*@@@$=:;*$$@@+@+@+++@@$=;=%+@@@@@@@$=<,::::<<<<33<<<<333<<33<<,<<3<<3333333<<<<:;==*%%%%**%%%%%%%%%%=**%*%%%%%%%%%%%%%%%=:,<3334444433<<<::<<33333<<333333<<,,<,<,*$@@@@@@@%%=:;=@@$$@@@@@@$@$%=::=%@@$%*====%%;<<;:<:%%%%%%%%==;%*:<:==:;*%*=*%%%$@$==;=%#%:=%@@@@$@@%=:<<<:=:,<,<43:%+X+@@@$%%:<4333<<34333<<<<<<<<<3<<333<<<<:;=*%%%%%%%%%%%%%%%*==%*%%%%%%%%%%%%%%%%=:,<<34444433333<,::<<3333333333<<<<<<<<<<<:%@@@@@@@@%===%+@@@@@@@@%%@%=<:=%$$%%%%%=%%$;:;*:,=%%==*%%%=;=**,:==<,=@$%*%%%$@@@%=**%@%%%@@@@@@@@%*;:,:==:<<<<<<;%@@@@@@%*;<<<<<<<<<<<<:=;,,<<<<<<<<<<<<:=*%%%%%%*=%%*%%%%%%%***%%*==*%%==:=%*%%%%*=:<<<<<<<<<<<::;*=:<<<<<<<<<<<<<<<<<<<<<<,=@@@@%$@@@%*%$@@+Xo@XXX+@@$:<,=%@+@%===%%%%@@%=====%$%%%=",
"%%%%%=;:==::*@@%==*==%@@@%=;=%$@@@@@@@++@@@%===%$++@@@@@$=:=%%%%=<33333<33333<<3<<:=:<<<<3333333<<<:==*%%%%%*=:=%%%===*%%%%%%%%%%%%%%%%%%%%%%%%=:<344444443<<:==,<333333333433<,=*===::%$@@@$%$%*==;;=$@$$@@@$$$%$@%==;*%@$$%%%===%=<3,=<<:%*==***%=::**=3,;==:;%%===*%@@%===*$%*:=%@@@@@+@$;<44<:*;<44443=$@@@@+@@%=,34443333333<<::<<<<<33333333<,;=**&%%$%*==%%%%==*%%=*%%%%$@$%$$$%$@%%%%%*=:<3333333333<<:=;<<<<<<3333<<<<<<<<<<<<<;$@@@@@@+@$*==%+@@@@@@@@%=$$*::=%$$$%%%%=%%=::==,<=%%===%%*=:=%%,:=%:,:$%%=*%%$@@$**%%$@%=*@@@@@++@%=><<,==:<3344<=@@XX@@@@@%:<<<<<<<<<<<:====:<<<<<<<33<:%%%%%%*===;===*===%%%*==%$*::=**=;,===%%%%%%*:<<<<<<<<<:=%*==:<<<<<<<<<<<<<<<<<<<<<<:%@@@@@+++$*==%@@++o@+XXX+@@=:<:*$+@%===%%%%+$=:==;=%$%%%*",
"$%%=*==:==:<;$@@%=%%%$@@@%===%$$%$@@@@@@@+$%==:;*%======;==$@@$@%=:<33<<33333<<33<:=:::<<3333333<<,=%%%%%%%%*=:====::;*%%=*%%%%==*%**====*%%%%*%=<34444444<::;==:<33333333343<,=$@$%$*=;;;==:::==:,,:=%@@@$$$@$%=%@%*===%@$$%*==;=%=4<:;<<;%=;;=*%=::=%%=<<:====$%*===%@#%:==%%*=;=%@XX++@$*:<444<==:<344<%$%%%@+@@%:<44443333333<<:=:,<<<33333333<;=%%%%%%%*=;=*=*=:=*%%**%%%%%%%%%%*==%*%%%%%%=<333333333<<:===,<<<<<3333<<<<<<,::::::=$%%%$%%%%*===%@@@@@@@@@%=%%%::=*%$$%%%%=*%;:;*:<<*%%=;==%=;:=%%:::*=::%%%=&%%@@@%=*$%%$==%+++@@@+@%=,<<<:*=><333:%@@@@@@@@@%;<<<<<<<<<<<===*%=:<<<<<<33<:%%%%%%%%%*=====;:=%$%*==%%*::=*%==;=%%%%%%%%=:<<<,<<<<,:*%*==:<<<<<<<<<<<<<<<<<<<<<<:=@@@@@@@+@%==%$@@++@@+X@@@+%;<:=%@@$**%%*%@+*;=*=:=%%*%%*",
"%%*;=%*::==,:=@$%*%%$$@@@%=%%%@%*%+@@@@@@@%=::<,==:<<<<<:=$@@@@@@%=:<3<<<<33<<<33<:==;=:<4433333<<:*%%%%%%%%*===**=;;=%%%==%%%%=;====;=***%%%*%%=,<3333343<=====:<3333333333<:=%@@@@@@%:<<<<<<:=:<3<,;*$@@@@@@$*:=%%*=*=*%$%%===;==:3:::3:=*=::=&%;::=*%*:<<;==*$$%%==%@@%;=*%==;==*%@++@$%=:<444<:==:<43,$$%=%@+@%=<4444433333333<:=;;::<3443333<<;%%%%%%%%%*==*===:=%%%==%%%%=========%%%**%%%*:<33333333,:====:<33<<3333<<<<<,;%%%%*===;:;=;;==;:::=$@+@@@@@$*;=%%=;==%$$%%%%*%%;===<<,*%*====%=;;-*%=::==;:*%%=%%%@@@*=%$%**==%@XX@@@@%%=,<<<<===<<33=%@%%%$@@@@*:<<<<<<<<<<,===*%=;<<<,:,<<<:%%%%%%%%%%*==%*=;=%%%%**%%*=;=*%===%%%%%%%%%=:<<<:::<<:;=%%%=;:,<<<<<<<<<<<<<<<<<<<<,=@@@@@@@+@%==%$@@@++@@+@$%@$=,:=%@@@%%%$*%@$=:**::=%%=**%",
"**=:*%%::=%:,:$%**%%%$@@$**%%$@*=%@@@@@+@@%=,<3<==:<343<:%@@@@@@@@$=,333<<<<<<<44<:===*=,343<<33<<=%%%%%%%%%%%*=%%*==%%%%=*%%%%=:===;:=%*%%%%*%*=:<<<<<<4<,=%===:<333333333<,*$@@@@@@@$=<444<,;;,343<=*%@@@@@@$*:=%%==%==%$%%====%=:<=:<<:*=::;*%%;::==%%=<3<;=%$@@%==%@@%==*%=::====%$$%*=;,<4443<;==:<<:@@%*%@+@*:44444433333333,:====:<344<<<3<<;*%$%%%%%%%==*%*=;*%%%==%%%%;:;==;:==*%%%*%%%=:<3<<<<333:=*===:<43<<33<<<<<<:;%@@@@@%;<<<<:<,=:,<3<;%@++@@@@%=;=*%====%@@%**%%%%=*=:3<;%%*==*%%%==;=%%:,:===*%%=%%%@@@*=%$%=;==%$@@@$$%%*;,<<<<:=*;<<<=$@*=%@@@@%;<<<<<<<<<<::=======,<<:;:<<<:*%%%$$$%%%%=*%%==%%%$%%%%%%*==*%==*%%%%%%$%&=,<<,===,,:==%%%===,<<<<<<<<<<<<<<<<<<<<,=@@@@@@@@@%==*$+@@++@@+@%*@@%:;=%@@@%%$$*%$=:;%=::%%%===%",
"*=;:*%%;:;%=:>%%**%%%@@$==%$%%%==%@@@@@@@@%=,<3<:*=,343<=$+@$$$$@@@%:<33<<<<<<344<:=====:<4<:-<3<,;%$%%%*%%%%*==%%==*%%%%%%%%%%===*%======%%%%*=;<<<:=:<4<:=====:<3<3333333,=$##@@@@@@@%:<44<:*:<444<=%$$%@@@$%*;;===*%==%#$%**==%&===:4,=%;:;%@@@%%===*%*:34,-&%@@%==%$@%===%*:<<,:;==;::;:<444444<=%%==%@@@@@++@;344444433333334:;;====,<4<::<33<:*%$$%%%%%%=*%%*==%%%%*%%%%%===%%=====*%%%%%*=,<<<::<<3<:====;:<3<<<33<<<<,=%$@@@@@@@*,3<<<,:=:<33<;%%@XXX+%*==:======%@@%=*$@@$%*;<3:*$%%=%%#@@@%==%%;<<;*%%@@%*%%@@@%=*%%;::==*%$$%%*==:<<<<3<:=%=::%@@$%$@+@%:<<<<<<<<<<:;=%*=====:,:==;<<<<:===%%%%%%%*%%*==%%$@@$%%%%%%%%%%%%%%%%%*&==:<<<:*%*;::==%%%%%%:<<<<<<<<<<<<<<:===;::=$%%%@%%$%*===%@@@@@@@+@%=%@%;==%@@@%%%%=%%:;=%:,:$$%=;=*",
"%*=;=%%*::===:%%%%%%%@@@==%$**===%@@@@@@@%%=<<3<<===<34<=$@%%%$$@@%=<<3333333334<:==*==;:<4,;=:<3<:=$%%%%%%%%**%%%==%%$$$$$@@$%%==*%======%*==;:,<<,;=;,<::======:<<33<<<<<<:%#@@$%%%%$@:<3<:==:<444<:=%%%%$$%*=;::;=*%==%$$%*%%%$%==:<3:==::=%@@@@$&=**%%=<44<-%$$*==%@@%==*%*:343<,======;,:::<34<;*==*%@@@++@$*:3444433333333<<:==*==;,<3:=;:<3<,;=%%%%%%%%%%%%%%%%%$%%%$@$%%==%*======%%*=;::<<<,;=:<<,=======:<<<<<<<<<<:*$@@@@@@@@%:<<<<;==<<33<:**%@@@$*==;::=%===%@@%=*%@@%*;,4<;*%*==%@@@@@$===%=:<,=%%%$%*%%@@@%=*%*;,<,:;***=====:,<<<3<,;%%=*%@@@@@@@%;<<<<<<<<<<<,:=*%%%====:;**=:<<<,:::=%%%%%%%%%%%%%$@@$$$@$$%%$$%%%%%%%%%=;::,<<,=%%%===%*%%*&*=:<<<<<,<<<<<<<:=%%%%%=;;:::=:;%=:,,:=$+o+@@@X@*=%%%===*@@@%%%$%%%==*=<<;$%*===*",
"$%%==*%%;,:===%%%%%%%@+@*=*%==;==%%$@@$$%*=:<<334:=*;<<<*$$%*%@@@%=:<<333<333333:===**=;:<<:===:33,;==*%%%%%%%%%%%%%%%@@@@@@@@$%%*******=*%==:,<<3<:===:<=====*=*=<<3<<<<<<<<=%@@%%==%$@;,<:==:<3444<:;===*%%==;:<<:=%%=%%%%%=%%%%*=;<<<===::=$@@@@@%***%%*:343,=%%=;*$@@%==*%*:<744<;=*%$%*=*%%:<4<=%===%$@@@$%=:<4444333333334<:===%==;:<<:==;<<3<,:;=*%%%%%$%%%$%%%%@@$@@@@$%&=*******=**=:,<<<<<:===:,;===*===:<333<<<<<<:*@@@@@$%%@$:<<<:==:<333<:==*%%%*==;:<:=%===%@@%**%$%*;,<3:=%%=;=$@@@@@@=;=%%=<<:=*%%%**%@@@$%%%*;:33<:=====*%*=:::<33<:%**%%@@@@@@%:<<<<<<<<<<<<<:==*%%**====%%=:,,,,:::=**==*%%%%%%%%%$@%%%@$%%%%%%%%%*==*==:::::::*%%%*=*%%%%%%=;><<<<<::,<<<::=%@@@@@%;<<<<,,:=:,<<,=$+XXX+++%===%%====@@@%&%@@$%*%=:<:=$%*==%%",
"@@@%==%%=:<=%%$@$%%%$@@@%=*%=;::==*%$%*====:<3334<:*%=::%@@%%$@@#=,<333<<<<33344<;===*=;;::;=*=:<3<<::=%%%%%%$$%%%%%%%@@@@@@@$$$%%%%%%%*====:<<<<<,;**==:%%==%%===<<333<<<<3<:*@@$%=*%%@%==%*;<34443<::;::;===:,34<:=*%=*%%%%==%%==:<4<:%*=:=%@$@@$$%%==**%=,443,=%=;*@@@%==***;<7444:*@@+@@@@@@=,3:%$*::%@@*:,<<33344433<<<3334<:======;::>====:<<<3<<;=%=*%%%%%$$$%%$@@@@@@@$$%%%%%%%%*===;,<<<<<<==&%;=&==*%*==:,333<<<<<<<;%@@@%%==$$=,,:==:<<<333,========:<<<:=%==*$@@%**%%*;<33,=%%*;=*@+++@@@%=;%%*:<<<:=%%=*%@@@$$$$*=:<33<:=*%%@@@%%%=,33,;%=:=%@@@%%=:<3<<<<<<>,<<<<<:=*%%%%*==%%%=;::=;==;=**::=%%%%%%%*%%%%%%%%%**==*%%*=::;===%%**==%@@%%**%$$$$%=:,<<<<<=;:<<:=%@@@@@@@@=<<<<<:=*:<<<:=%@+XXX+$%==;=*%===$@@$&%@+@$%*:<<:%$%%*%$@",
"@+@$==*%%:<,=%%$$%%%%@@@%==%*;,<<:;======*=:<<<<43<=%%**%@+@@@@$=<<3333<<::<3334<:========:==%*;,:::::;=*===%%%%%%%%%%$$@@@$%%%$$%%%%%*=::=;;:==;::;%%%==*%%=%%==:<<333<<<<3<<:=$@@$%$$$%%=%=:4444<:;;===;;;;:,344<:=%@%%%%%%==%%=,<44,=%=;;%$@$@@$@$%===*%*;<43<=*=;*$@@@%=*&*=,7443=%@%%%%@@@@=:,*@@@*=%@$=<3<,:::<3443<:<33343<;;======::=*%=::,:<<<,:;::=*%%%%%***%$@@@@@$%%%%%%%%%=::;;::::::::==%%==****%==;:<333<<<<<<<:=%@@$%%%@@%==%%=,<<<<<<:=%*===;:<33<:=%%==%@@%*=%%;<33<:%%*===%+XXX+@@$=:=%%=<3<<;=%=*%$@@%%%%%=:<33<,=%@@@@@$$@%:3<=%@%=;$@%;:,<,,,<<<<<:;:<<<<,;=%%%%%%=*%%%%=::=;======,,:;=*=====*%%*==%%%*=::=**;:<,=*%%%%==;=%@@$%*=%%%%$%*:<<<<<:*=:<<=%@@@+@@@@@%:<<<,==;<<<<:==%$@@@$%%=;:=*%==*$@@$%%@@@%*:<3,=%%===$@+",
"@++@===%%=<<:=*%%%%%%@@@$%%%*;,34<,;====*%*=;;:<43<;%==*%@@@@@%=:333333<:=;<3333<:===**%====%%%=::::;;;==;:;=%%==*==*%%%%%%$%%%%%%*%*=;,<,=======::=%%%===%%=%%*=:<<<<3,::<333<:*%$@@$$@%*=*=:444<:=%%%%%*==:<<443<;=%%**%%%%==**:<44<:**=:;%@@$@@$@$%=;==***<33,===;=$@@@$**%%=:443:%%*:::=%$@$=:=$@@@%%%@%=<4<:=*=:<34<:=,<3233<:==**%*====%%%;:::::::::<,:;=*%;;;==%@$%%@@%%%%*=*%*=:,<:;;=====::=%%%*==%%*%*=;:<<<3<:,<<<<<:%@@@@@@@@%&*%%:<3<:-==*%@@%%=:<343,;=%*==$@@%==%%:<44,=%%===*$+XXXX@@@=:;%%%:<3<:=%==%@@@$%%$%=:<<3<:*$$%%%%$@+%:<:%@@@%=$@%:<<,:;;:<<<<:=:,<<<,;=%%%%%%=*%%$%=::=;=***=;,<,:==:,,:=%%%*==$$%=:,<:==;<<:=%%%%%*=:;$++@%==*%%%%%=:<<<<,=$=:<<;%@@@@@%%%@%;<<,===,<<<<,:==*%%%&*=;::=%%*=%@@@$%%@@%*;,<<;%%%==*@++",
"++@@%=;%%*:<<<:=%%**%@@@$$$%*=:<333,=%%%$@$%%%=,4<:=%=:=$@$%*=:,<333333<:%=<3<34<:=%%%%%====%@%=:::;=====:<,;=*=::::=%$%==%$$%===;;==:<33,====*=;::=%%%%==*%%%%*=:<<<<3:=:<3333<:;=%%%$@%=:*%=<43:%$$$@@@$%*:3444<:=*%==*%$%*====:<44:=*=:::*$@@@@@@$*=;===*%:<<,;==;=$@@@$=*%%*;34:%@%:44<==%%%::%@$%@@@%%%;<3,==%%=,33<;%:<323<<;=*%%%%====%$%;:::;===;:<22<:==<<,:=%@%=*%@%%%=;:===:<33:;==**=;::*%%%*==%%%%%*=:<<<3<;:,22<<<=$@+++++@#%*=*;<3<=$@@@++@@@=,444<:==*==*@@@%==**:<4<:%%*===*$+XXX++@%=::=%%=:<<:=*==%@@@@%%@%*;,<<,*$%=::=*%@+%;,%@@%@@%%$%:<<=*%%=:<<,:==:<<<<:==%%%%%==*%@@%:,:=*%%%==:<<:==<33<;%$@%%%@$%=,<<<===<<:=%%$$%%=:;@XX@=-=%%%%%=:,<<<<;%@=:<<,;$@@@%%**$%=,:=%=:<<<<<<:%=======:<<<=%$%*%@@@@**%%*;<<<:&$$%==%@+X",
"X+@@%=:=%%=,<<<:=%**%@@@%%%%%=:<333<=@@@@@@@$$*:4:=$@%==@@%:<<3<<<<3333<:%%:<344<:=====*=;:=%@%=,<::;===;:<3<:=,<33<:%$%*=%$%%=:<3<:=:23<:=*%%%=:<:=@@%%==**=%%==:<<<<<;=;<<<33<<<<,,=%X%==@@$=<<:%@@$@$%%$$*,344<;=%%*=%$$%%=;==:<4<=%&=:,:=%@@@@@@%======%%=<3<:=;:=%$@@%==***=<<=@%:343:==;;:,=@@$$@@%::::33<,<:==,32<-%=,3343<;=**==*====$@%;<<::;===;:<43:::43<:=$@%==%@$%=:<3,==<33<;=****=:,,*$$%%==***%%*=:<<<<,==:22<<<=%@@@@@++@==*$%;<:*@@@@%=*%+%:333<;=%%=*%@@@%==*=:<4<=%%%**==%@++XX+@=:<:;=%*:<<:=*==*@@@@$%%%%=:<<;$%=<<,=**%@=::$@@%@@%==*:<,%%%%%;<<<:===:<<<<:=*%%%%===%@@%:<:=%%%%%=:,:==:<333<=%@@$$@%=<<<<,;*%;::%%@@@%%=::$XX%::=$%%$%*======%@$:<<<<,=$@+@%%%@@%=*%%=,<<<,::;%$%***=:<<<>;%@%%*@@@@=*%%=<<<,=%%%==*@+XX",
"X+@+$=:=%%%;<<<:=*==%@@@%%%@%=:<33<;%@%==%%%@@*:<=%@%$%*$@%:<3<:=;:<443<<%%%:<<3<,:====*=;,=%@@=,<:==*%*=:<4:;=<<443,=$$%%$@$*:<44<<==,<<:=*%%%=:<:*@@%*;=***%%=:,<<<<:==:<<<<,::,<<3;$X%%$$$$$;,:$@$*%*::=%$=,44<=*%%=%$$%%*;:;;,33:=*===;=*%$@@@@$%%%=;:=%%%:<3:==:=%@@@%;;=*%=:=%@=<443:=;,<3<:$@@@@@%;:::<<334<==,3<<:%%=,<34<:;======::=$@$=<<;;=%*==:<<,;:<443<:%@%%%@@$%:<44<:=:<3<;*%%%%=:<,%@@%*==***%*=:<<<<<:==:<<<<<:;===*%@+@*%$@@%::*@@@$*:::*%=,33<=***=*$@@$%====,34:*%%====*%$@+XX@%=;:::;*%=,<,=%==*@$@@%*=%%=:<:*%=,<<,=*=:;:,:%@@%$@%=:::<,=;;=%=:<<:;=*=;;;::==%%%%=::=@@%,<:=%%%%%*:;=*==;:<34:%$@@@@%=<<:===**===%$@$%%*=::*+@=<;*$%$@@%%$$%%%@@=:<<<<<:%@X+@@@@@%%%%%:<<<:*%%%@@@@$*:<<<<:=%$%*%@@@@*=%%;<3<:%%%*==*@+XX",
"X+@@%=:;=%@=:<<:====%@@@@%%$%*;<3<:%$%:::==%#@=::%@@%$@%%%%,<<;=*=;<343<<=%%%=::,::==****=<:%@@=<<:===***;:<:=;:,<33<;%@@@$$%=:34<,:==;,:;=%%%%=:<,=@@%=:=***%*=::::::==;,<<<<;==;,34;%@%%@%%$@*::%%*;*=<3:=$%;33,=*%=;%$%%%*:::;<3<=*=====*%&%%$@$%%%$*;:=*%%=<4:==;=%@@@%=;=%%*=%$$:3443:==<444:%@+X@@$%===;:<<3:==,3<<,=$%=:<<<,:======::;%@@;<<;==%%*=;,<;=:,<<33,=@@$@@@%=,33<<:==:<:=*%%%%=:<,%@@%==****%=;::,,,:==:,<<<<<<,,:::*@@@%%@@@$=:=@@$%*:<<:=%;<3:=**==*$@@$%===;<4<=%%=;::=%%%@@+@@%==;:::=%*:<,=%==*%$@@%==*%*=:;%%:<<3,=*:<<<<:*@@%$@$=;:::::,:;%=:<<::*%%*%%&==%$%%%*;:;%%=<<,=*%%%%%====****;,3:=%$@@#%=::*$%%*==*%@@$%%*=:<,=%*::=%%%%$%%%%@$%%%%=:<<<<<<*@+X++++@$%**%=:<:=@@@@@@@@@%:<<<<==%%**%@@@@==%%:<3,=$%%*==*@+XX",
"+X+$=:,:=%%%;<<:====%@@@@@%%%*=:<<=$%:<<,===%%::=@@@%$@%===<<:*==**:<322<,=%@$%**===%%%%%*:,;$$;44<::======:;;;===,<<:%$@$%%=:<4<==========*%%%=:3<=$$=:,=%**%%=;=***%%=:<<3<;*%*=:<<:===%+%%$@%;<==::==<44<*%*<<:=*=::%%%%%*::::<3,=*=:::=%%%**%%*%%%%%=::;=%=:<;*=;=%$@@$==%%%%%@@%<4444,==,344<*@XX@@@@%%%%*=::=%=<333<:%$$*===;:=%%%%%;,<*@@:34:;======;;=::==:<4<;%@@@$%=:33,===*%=::==%&%*=:<<%@$=::*%**%=-:=======,<<<<<<:,<<,:*@@@@@%%@@%:;%%==%:<44:=%,<:*%=;;*$@@$%====<3:=%%;::=%$%%$@$$$%%*=:::=%%=,:=%*==$@@@%==%%%==*$=<<<3,=*:<<<<,=$@@@@@$%%%*=:,:=%=:<<<:%$%*%@@%$@@@@@%*=::==<3<:=*%$@@%=::=%*$%=<:*$@@@@%*=%@@%%=::=@+@$%*=;<<,==;;**=;====:::=*=:=*%;,<<<<<=$@@@@@++$;;%@%=<:%+XX@%**%X$=<<<,=%%$%%@+@@$==%%:<3:*@%%*%*%$@+X",
"XX@%*=:::=*%*:<:==;=%@@@@%*;=*=:<:%%;<3<,==;::<<:%@@%%%%:::,<<:,>=*:<432<,=%%*=%%*==*%%%%*=:::=:344<::;==*=:,,:;=**=;;%$@$%%=:,:*%*==;:==**%%*=:<4<;%=::=*%%%%%==%%*==%*:<<3<=%*:::<<:;:=%@%$@@%:3<<<:==<33<:%%;:;%%*=:%%%%%=:;==<<:*=;::==%*==*====*%%*=;::=%*:4:==;=%$@@@$%%%%%%@@=344<<,;=,444<=@+++@@@*====%%%*=<<333<,=%%=**%===%%%%%=;,:;=,44<>:;==**=:,,:=*==::=%$$%$%=:<:=%*==:;==*****=;<3<=*=:;=%%%%#%*=%%&=%%*,33<<:=%*=:,:=%%%@@$%@@%,<:::=%:<32<;%=;=%%%%*%$@@$%==%=,<;*%*===*%%%%%%%%%%%%%=;::*%=,:=%*==%$@@$%$@@%*%%%:<<<<,=*;<<<<,*@@@@@@$%==*%%**%%=:<,;*%=::=*=::;===;:===*%%=:,:=%@@@%%::;=*&%@$==%@@@@@$%*@@#%%%=:;*$@@@%=::;=%%%==::::,,,<<:===:,:===<<<<<,:;=:;%@@%=%@+@%:;%+X+$*:::*%%:<<:=%%$%%@@@@$%**=:<<=%$%===*%%$@X",
"@@@%%*=::;*%%;<:=%==%@@@@%*=*%*::=%=,343,==:<<<<:%$@$%%%=;;::,:<<;=;<43<<;===:;*=;:::;;::;==::=;:44<:===**=<<,;==*%%==%$$%%%=::=%%===:::=%%%%%=:,<:=%====;;;===;:=%=;:==;:<<<=%=<::::;==%$$%@@@=,443<:=;<<33<*%*;=%%%%=%$$$%=:==;3:=*=;:==**==;;;;;-=****=::;*%=4:==:=%$@@@@$$$%*%@%=3<,::;==:<34<;%@++@@%:,,,;=%*;,3333<<:===:===;:;=======;::=:<43<:===%*=,<:;=*%%===%@%%%%=::=%%*==:::*%%%%*=:<<:=*=======*&==;*&=:==*:<<<:=%%%=:,::=*%@@$$@@*<<<<:=%:<<<<:%%*=%%%%%$@@@$%==%=,<=**===*%%%%==****%%%%%=::=%*:,:%===%$@@@@@@@%*%$%,<<,::=%=:,,,,=%@@@@$=;::=*$%%%=:,<:=%=:<<;=;<<,,:::,:;==%$%====%@@$%=::=***%$$==%@@@@@%==@@$%%%*::=%$@@%*===%$$%=:::;:::<<<:==;,<<:==:<<<<<,<,<,=$@%%@@@@@=-*@@$%%:<<:=%=,,;*%%%*%@@@@%**%=,<:*$%=;;=%%%$@@",
"%%%%$%=;;=*%%=<:=%==*@@@@$%%%%%;=%%:<443,==:<<33<=%@@$$$%%====:<,==:<43<:**:<<:*;<33<<<<<<:======:,:=*%%%*:3<:====%%*=%%%%%*=:=%%*====:,;*%@@%=;::=%%%==:<<<,,,<<,==,<<:==:<<=*=<,:===*%@@$@@@%;<433<;=;<<344=%$==*%%%@$@$$%=:;=:3:===::*%%*==;,,::;===***::;**=<<:=:=%$$$$$@@$*==$%:3,=*%%%*;,,33,=@@@@%:<3<3<;=:<44433<:==:<<;=:<<<<<<<<,:==;==:<<:;%*%%=:<<:===%%%==$@%%%%=:=%%=====:,=%%$$%=::;=%%**=:<,:::,<<:=;<<:==;<<:*%===:,,:;*$$@@@@%;<<<<:=%=:,<3<*$%*=%%%@@@@$%*-=*;,,=*==**%%%%=======*%%%%*;,-*%=,,====%%@@@@$$$%=%%*<<:===%%*=;;:,:*@@@@*:<<<:=%%%=:,<<=%*<44<;=:<<<<,:::<<,=%%%*=*%%@$%=;::*%***%%=;=@@@$$=;=%$%%%%%;;=*%%%%%*==*%$%;:;=%%*;,<,=%=:,<<<=*=,<<:::<<<<=%%%@@@%@@$==%***%:<<<:*$::=%%%==%@@@@%**%=:<;%%%=;;=%@%%%%",
"%%%%%%%*===%%*::=%==*@@@++@@@%%=%%%,33<<:==:<<33<*@@@@$$%=;==**=*%=:343,==:<<<:*=,3333<<<33<:=%*====**%%%=:<<:====%%=:=*%%%==,-%%=====:<:=*%$$%****%%=:<4<,,<<<<3<==,44<:*=,<:*%=%%%===%@@@@@@%:<3<<<;**=:<44:*@%**%%%$%%$$%=:;:<3:==::;%%%*===,:::==;=**====**=<<:*;=%$$$$$%%*===%=:<:===%$%%==:<3=@+@$=33:;<<:*,344333:==:<<<;=;<33343<33<:==*===;=*%%%*=:<<:===*%%;;=%%%%*;:=%%=====:,;=%%$%*====%%=:<<<<<<<<<3:;=<33<==;<;**:<,:==%%@@@@@@@%:<<<<;%%%*=,<<=$%==*%%@@$$$%====<<:%%*===%%**=======%*%%%%=:;=%=:<:;==%%@@@@$$$%=%%*,:;***%%%%**=<<=$@@%=<,;=:;*=:,<<<<==:344<:==,<<:=%%%=:;=*=:,::=*%%*==::===**%%=:=@@@@$::=$$%%*%%==%%%%%*=;<<:=*%**%@+@%*:,,;;:,::<<===::;%%%=<<<====@+@%@@@=:,,;*%:<<<:=@%*%%$$*=%@@+@%**%%::=%%%*=*%$@%%**",
"===****%&=;*%%:::=-=*@@@++@@$%%=%$*<3<::=%*;,,<<<=%@@@$%;,<,:=%%*=:<44<:==:<<<,;=:<3<<:==:,,:=*=::::;=====:,:=====*%=<:=$$$%:<;%*====;:<;==%%%=::::;==;:,;==;:<<<,=:<443<==:<<;=%%*=::::%$@@@$%:<:=;;=%%==:<4,*@%*%%%%$%%%%%=:=:<<;**::=**===%%=;;=**===*====*%=:,:%==%$$$@$%*%%**%*=:==:;=%$%%*:<<=$@@*:4,==<,;*:34443<:==<<33:==,<32<:;:>,:==*=;:::=**===:::====**%:::%%%%*:,=%*=====:,==*%%*=:;::=*=:,,:=;:<<3<:;:<444:==<;**:<:=*%%%%$@@@@$*:<3<<=%%*==:<<=%%==*=*$$$$$%====<<:%==;==%%*=**====%$%%%%*=::=%*:,:===*%$$@@$%%%=*%%;;====*%%%**=,,=$@@%:,:==;:==:<<<<<=;<443<,::,:;%%@@@%*==::<<<:=*%%%*===**%%*%%%:=@X+@#=:=$%%%**%==%%%%%%==<<<::=**@X.@@$=:,::,,;::<;==:;*%%*=,<:;:;=@@@$@@%:<<<;*%:<<<<=@@$%%@@%%$@++@%==%*::%%%%%%%%%%*===",
":;=*==*%%=:=%%=:,====$@@@@@@%%%=%$*<<:==*%%=;=:,<:=@$@%;<3<<,:*==:<344<:*;,<<<<<:,<3,;%%$%=====:<33<:======::======%=<:*@@@%:,=%=====;::====**;,333<:====%$%%=:<<<:<<<<3<:=;<3<:**=:,<<2:*@$@%=<<=***%%*===:4:*@==%%%%$%%%%*=:=;<<=**::=**==%$$*===%%%==***=;***:,:%==%$%$@%*=%%%*%%*===::=*@%==:,,=%%@:<4:==<:==,34444<;=:<<<<<:;,<<<;*%%==:===:<<<,:=====;::=====*%:,:%@@@*:,*%======::===*%=;<<<<:;=;;=%$%=;,<<::,<334<;*::=%=;=**==;=*$@@@%=,<<<:=%*;==;<<=%==*%%=%$$$$%====>:;*=::==**==%%====%@%%%%*=::=%*::=*==*%$$@$%*%%==%$%===::=$%%==;<:=%@$=<:=*=::==:<<<<,=;<3<<<<<,<:%@@@X+@%=:<<<<<,=%%$%%===%%%%*%$$=*@XX@@%*%$%*****;;=%%%%%%=<<<<<::=$X +@@*:<<<,:==-:=*=:=%*=;;::;=;=%@@@@@@=,<<<;**:<<<<:%+@%%@@@@@+X+@%==%=:;%%*%%%%%%*====",
":=*%==%%%=:=%%=,<====$@@@@@@$%%=%%%,,=%**%%%%%=:<<=@@$*<3<;;:,=;,44444<:=:<<:,<<<<33:*%$@+$*=:,<443,=&*====:::-====%*:=%@@@%;:=%=======:===***=:3333<:;=%@@@%%*:<333<<<33,=;<33<==;:;:<4<=$$@%:<<===*%%=::;:<;%%==%%*%%%%%%*=;=;,,=%=,:***%%@%*====%%%==%%%*=%%*:<:=;=*$$$@%==%*==&%%%*==%*=$=:,<,:=;;=<43;=;:==;<44443<;=:3<<<<<<<3<:=%$@$%==;:<444:=*=====:;;====*%=:;%@@@*::%%=======:===***=<<<<<,:=%$@@$%%=:<<<<<<<4<:*::;%%%%%=:<<<;%$@@=:<<:==%%=,:==::====%%%=%%$$$%====::=%=:,=%%*=*%=;::;=%%%%%%=::=**::=*==%%%%@%**%%==%@@%=;::=@$=;=:<:=**&=<:==<<:==:<<<<,==,<:=,<<<<:*@@@+@%:<<<<<<<<;%%$%*;:;*%%%*%$@$@+++++@@@$%=**%%:,:%@@%%%=<<<<<<<<=$++@@=:<<<,:=%%=%%=:=%=<<<:=%%%$@@@@@@@*,<<<=*=:,:<<:%+@%%$@$@@+++@%==*::=@$*=%%%%%**==;",
"=%$@%*%%%%==%%=:,====$@@@@@@%%%=*%%;;==;;%$%===:<:=$@%=3<:==:,=:<33333<:==:,=:,<<<<<;*%$@@*:<<<<333<;*%*==;<:;=:===%%*%$@$@$%*%%======;,:==%%*=,<<<33<<,;%@@$%*:<333<:;,<:=:<33<==;:==:3<:%$$%=<<:===$%=::;=:*%*==%%*%%%%%%*=:=:<<=%*::=%%%%%*****%%=::=&%%*=*%*:<<::=%@@$@===%*==*%@$%=====$=,33<:=:<,343:=====:<44443<;=;<:::<<<<3<=*%%@$*:,<<3334,=%*===:::;;;==*%%%%$$@@%*=%%======:::=*%%*=<<<<3<<,:=@@@%%*:3<33<::<<:*:<<:=*%=:<<<<:*$@@=:<<:*%%%=====::====*%*=*%$$$%====,:=*;:,=%%=;;=*====***%%%%=:==%*::;==;%%%%$%==**==*%@$*====$%=::,<;==::><:==::=*;:<<<<<====*=<<<<<,:*%$@%;,<<<<<<<<:*$%%=;>:==%%%%%@@++@@@+@@@%%%%**%:::%%$%%=:<<<<<<<,:=**=;:<<<<<<:*%$%=::=%*:::=*%**%@@++++@=,<<<=%%*==:<:%@@*%$@@@@@@@@%***::=$%==*%%%%*%*=;",
"=%$@%%%%%%%*%%*::===;$@@@@@$%%%=*%%==*:::=$%=:::<:=*%*:4,;=:<,=:<33333<:=*==*;<<<<<<:=%%%*:<3433332<:=*==-:3<:=:===%%%$$$%$$$%%%======:<:;=*%*=,<<<33333<=%%%*;,<333<:=-;==:<33<==:<;=;<3<=%%==<<,::=$%*=:===%%===%%==%%%%%*;:=:4<=%*;;=**%%***======::;=&%%=*%*:3<::=%@@$%==*%*==*%%@%=;::=%=<43,=:<33444,;===;<344433<:==:==:<<<<<<:=%%%*:<3333333<:**==;,<,;=;==*%%$$$$$@$%%%*======:<:==*%*=<<<<3333<:*%%%%=:3333<;=:;==:<<<,;*:,<:<<<=%@$=:<,;*%%%=*%=:==*=:;=%*==%$$$%;--:<:=*;::=*%=::;***=***==%%*=:=*%*:<:==:*%$$%*;=**===%@@%===:%%=,<<,==:<<<<:=====*:,<<<<<:=%%%=<<<<<<<:=*=:,<<<<<<<<<:=%%%=:,>==*%%%%%@@@@@@@@@%%%%%***;::*%%%&=:<<<<<<<<,::::<<<<<<<<,=*%=;,,;*%==*%==::=%@+X+@%:,,:;*%%%%%=::%@%*%$@$@@@@@@%*%%::*$%=:=%%%%%%*==",
"=*%$%%%%%%%%%%*:,:===%@@@@@%$%%=*&%%%*:::=%%=<<<<:=;=:<4:;:<<:=:<33333<,-%%%*:<<<<<<<:===:<<3433332<:====;,4<:====*&%%%%%$%$@$%=;=*===:<,:==*&=,<33333444<:==:<33333<,=*%%=,<33<==:3:==<3<:=;;=:<<<:=$%**===%%%=;=&%==*%$%%*;::<4<=%=======%%&=:::,;======%%**%=:<<:;=*@@$=:;*%*==*%$@*:<2,=%=<4<:=:<44444<:==;:3444433<:=%**=:<<<<<<<:===:<44444334<:====;<3<:====*%%$@%%$$@@%%=====;=,<:;==%=;<<<33<<33<:===;,<333<<:=%%*=<<<4<:=:<:=:<3:*%==:<,:=%%=:===:=%*==;=%*=;=%$$%;-;:<:=%=::=**=;;;=========%*==:==%*:<<:::*%$$%=;*%%===%@@@==::**=<<<:==,2<<<,;*%%*=:<<<<<<<:=%=:<<<<<<<<,,:<<<<<<<<<<<:=%%%=:>:**%%%%%%%$$@@$%%%%%%%***=:,,====*-:<<<,<<,,<<<<<<<<<<<<<<::=::<,:=%%%$*;,<<,=$@@+$=<,;*%%$$%*==::%$%*%%$%@@@@@$%*%%::%@%=:=%%%%%%*==",
"%%%%==%%%%%%%$%:<:;;;%@@@$%=%%*==*%$%*===-%%:<3<,=:<<<34,;;,:;=:<43333<<,===;:<<<<<<3<<<<<333433333<::;==;,4<:=====&%***&#%%%%*===*====<,:==**=:<333333443<<<33333333<:===<<333<:=;::==<33<<<:=:<43<:$=;====$$%=;=%%=;;%$%%=;:,34<=*=======%%=:<<<4<:=*****%%%%=::;===*$@$=::=*===*%$@%:44<=%=<4<:=,34444444<:,<4444433<<:===:<<<<<<<<<,:,<<44444334<:;;==;<3<:=====**%%*%$%%$$*===****:<,;==*==:<<3333333<<<<<<3333<<,;**=:<<34<:=:<<==:<<:;:;:,<:;*%=<<<,:&%===;===;:=%$$%;==:<,;*=;:=%%===*:,,:,:**%%%%=:;=%*:34:::*%$$=;:=%%===%@@$;,<<**=<<,==:<<<<<<:;==;:<<<<<<<<,:::<<<<<<<<<<<,<<<<<<<<<<<;*%===:,:***=%%%%%%%$@%=%%%%%==*%=:<<:::>;:<<<,<<<,<<<<<<<<<<<<<<<<,:,<<<,:;*%%=:<<<<:%@@+%;<:=%$@@%;::===@%%%$@@%@@@@@$**%%,:=%%=;*$$%==*%$%",
"=*%%**%%%%=*%$%:<<;=;%@@$%=;%%%==*%@@%==::%%:<4<:=:<4444<:=====,<333333<<:::,<<<<<<<33<<<3344334444<,:;:::<4<:==========*%%======*=====<<:;====:<33333444433344333333<,;=;<443<<:======<4433<,=;,44<:%=:,::=@$%=;*$%=::%%$%=:::<3<;=====***%%=:<::4<:=*%%%==*%%=::====*@@$%=;=%*===%$@%:44,=%=,4,;=<4444444443334334433<<<::,<<<<<<3333<<<3343334434<:-::::<4<;==;=======%%%**&===*===*:<<:=====:<33333444433333333333<<:::<<<34<:=:::==:<<<,<;;:<<:**=<<<<:%%===;===::=%$%%===;::;%==;=%%***=:,:;,:=***%%=:;=*=:<,:;;*%$@*;:=%%===%@@%:<<,%%=:,:==:<<<<<<<,::,<<:==:<<:;==;:<<<<<<<<<<,<<<<<<<<<<<:==:::<<:====**&%===%$%*%%*%*====:,<<<<<<<<<<<<<<<<<<<<<<<<<<<<<<<<<,<<<<<<<;=%;::::<<=$@@%=<:=*%@@%===*%%@%%%%@$*%@@@@@%===<:*%%==*%%%===%%*",
"::=%%%**%%==%$&:<<:=;%$@$*=:%$%==*%@@%=:,:%*:<4<:=:34444<:====:<3333333<<<<<<<<<<<<<33<<<3344334444<<::<<<<4<,;::;======*%*=:;=====;==:<<<:::==,34333344443334333333<<:;=-,<3<,:======:<44333<;;:<4<:%=,3<:=@$%==*$$=::*%@$=;:;:,<:=*===***%%==:::3,=**%%%===%%=:;====%@@$$===$%=*=%@@%:44,*%=:3:;:<4444444444443333333<<<<<<333<<333333333443334444<,;>,<<34<:;;:=======%%*======*====:<<:::;=;,<333344444433333333333<<<<<<<<33<;=;;==:<<<<<:=;<<:*%=,<2<=%%**=;=**::=%%%%====;:;%==;=%%%*==:::;::==**%%=:==*;::===;%%$@%=:*%%===%@@%,2<:%%=;::=;<33<<<<<<<<<3<:=*=::==*==;<<<<<<<<<<<<<<<<<<<<<<:::<<<<<<:==**==*===%%%%%%*%***=:<<<<<<<<<<<<<<<<<<<<<<<<<<<<<<<<<<<,<<<<<<<:=*:::*;,<:%@%%=,::;=$@%%%%%%@@%%%%%%=%%@@@@%==:<:%$%==*%%%%**==:",
"<<:*%%**%*==%%=:<<;=;=%$$=::*$$===*@%=<3<:%*:33,==:344444<:;:,333333333<<<<<<<<<<<<<33<<<334333444433<34443333<<:==;;===%%%=:;;;:===;:<3333<,;;<44333334443334333333<,=**==:<:=*=;:;;:<444333<,==:<<:%=,44<;@$%===**=;=%$@$*=:===::=&======****;<3<:=%%*=====%%;<:=;:=%$$$$=;=%==*=%@@%:43:%%*:<;;<4444744443343333<<<<<<<<<<<33333333333333433444443<<4433443<<,:==:;==*%%*=;==;;====;,33<<<:=;<44333334444333333333333333333333<:====;,33<<<:==<<:%%=:<<,=%$====*%=:=%$%%%=====::======****=;::::===****===**::;%=;:%%%$$*:%%%;==%@@%:<<=%%%;:=*:<33<<<<3<<<333<:**%=*=::==,<<<<<<<<<<<<<<<<<<<,<,<<<<<<<<3:=%==========%%%%%%%%:<3<<<<<<<<<<<,,<<<<<<<<<<<<<<<<<<<<<<<<<<<<<:=%:,:%=:<<;%===:,<:=$@=*%%%@@$%%%%@$%=%@@@@%*=:<:*%*==*%%%%%*:<,",
":,:%%%%%%%=*%%=::===:=%$@%=;*%%==*%@%=<4<:%*:<<:=:<3443333<<<<3<<334443<<<<<<<<<<<<<33<<<3333334444333444443333<:=====*&*=====;;:;==:<344333<<,<34333444443333333333<:==;=*=====,<<<<<<4333332<==:,:=%=:44<=$$%=-=%%==*%%%%%=:-==::;%%==*==*%%=,444:=%%=====*%*:<::::=%$@@$===%==**%@@%:4<;%%=::;:44444443433343343<;=;:<<::::,<3333333333334334444433344334433<<;==:==***====;;::===:<<3322<<:,<33333344444333333333333333333333<<::;;:<<<<<<,;=:,:%%=:<<,*%$%*=====;=%$%%%*;;=;,,=*==;==****;,<<:=*****==:=*=:::==;;%%%$$*=*%*===%@@%:<<=%%*;===,<33<<<<33<<<33<<:=%%=;::;=:<<<<<<<<<<<<<<<<<<<,,,<<<<<<<<<:=%===%***===*%%====-,<<<<<<<<<<<<<<<<<<<<<<<<<<<<<<<<<<<<::,<<<<<:=%=;;*=:<<,::==;,<,=%%=::==@@$%%%%%%===$@@@%%%=:;*$&==*%%%%*=:::",
"::=%%%%%%*=*%%=;=%==:=%$@$%=%%%==*%@%=<4<=%%;<,:=:<333333343333<<<<<<<<<,:::,<<33<<343<<<3333434444444444444433<:;=:;=*==;;====;::==<344433433<<34433444443333333344<:=:::=*%%=:<<333334333333<;==:;=%*:44,=%$%===*%*=%%%%%%=::==,:;%%======%%=<474>=%%*====%%=,3,:::*$%@@%==%%==**%@@%:3,=%*;:=;,3344444443333334<,====:::::::<<333<333333343333444444444444443<:=;:==*===;====::;=;,<3333343<<333433344444333333333343333333333<<<<,,<<<<<<<<:=:::=%=;<<:*%$%**=-====*$%$%%;:=;,<=%*=;;=***=:<44<:*****=;:=*=<,:;:;=%%%$%*=%*===*%@$*:<,=%%=;==:<<<<<<<<33<<<33<<<:*%=:::==:<<<<<<<<<<<<<<<<<,,,<,<<<<<<<<<,:==:;***=====%=::,:><<<<<<<<<<<<<<<<<<<<<<<<<<<<<<<<<<<,:===:<<::==%%*=%=:<<<<<:==,<<;%%=,<,=$@$%%&&%%===$@@@%%%%===$%==*%%%%%*:::",
":=%%%%*%*==*%*;;=%=;;*%@@$%=%@%=*%%@%=<3,*%%=::==:<<<33<<3443333<<:;=:<:=**=;<<33<<344<<<33444334444344444444333<::,:===:::;===;<:::<4444444444333334444444334334444<:=;::;*%%:<333333344433333,==;=*$%;23:=%%%====%**%%%%%%*::::<<:*%*===*=**=4777<:=%%====%%:<3,::=%@%$$*==%%==*%$@$*:<:=*=;;=::::<4444333333333<,:==*==;:,:;,<33<<3334433433333333444444444443,::<:===:::====:::;:<4444334444444444333344433444444343<33333333<<<334<<<<<<<<,==:,==*=<<:*%%%***==*%==%%$%%=:;;<<=*%====**==<3443,=*%%==;:**;<<:::;=%%%@*;=%*===*%@$=:<:*%=====:<<<<<<<<<<<<<33<<<:=%:,:===:<<<<<<<<<<<<<<<,,,<<<<<<<<<<<<<<<,<<::;=======:<<<<<<<<<<<<<<<<<<<<<<<<<<<<<<<<<<<,<<<<:*$@%*::=%%%*%%%%=:<<<<<:==:<<;%%=,<<=@@$%%%%%%==%@@@@%%%%===%%%**%%%%%%=:<",
"<:=%%%*%===%%=::=====%$@@$%=%%%==%$@%=<<:%%*=:===:,<<33<<3443<<<<<;%%*==%%**=:<33<<333<<<33344333443333444444433<<<<<,;;::::=;:,<<<<34444444444433334444444444333334<:*%=::=*;<3333334444433334<:====*%=<4,=%%%====%%%=%%%%%%::::<3<==*==%%&===4777,;======*%*:4<:::=%@$$%;;=%%*==%$@%=:<;*%==%%%%%$*:3443<<333333<<<<:**=:<<>;:<333<34444334333443333433444444433<<<<:=;:::==;:<<<<<34444344444444444<<<<444334444443<<<33344333<<<3343<<<<33<<:=;:;=*=,<:*%%%=**==*%===%$$%=:;=,<:*%=====**=,<44<:==*%==;=*=,4<:::;*%%%%=;=%=====%@%=,<:%%***%*===;:<<<,<<<<<33<<<:=%:<<;=:<<<<<<<<<<<<<<<<,,,<<<<<<<<<<<<<<<<<<<<,:======:<<<<<<<<<<<<<<<<<<<<<<<<<<<<<<<<<<<<<<<<=%%%%%%%%@$%=====:<<<<<<,;*:,,=%%=:<,%@@$%%%%%%=*%@@@@%=*%=;;%%%****%%$$=,3",
"3<;%=*%%===%%;<:;===%%$@@%%%%%*=*%@@%=<<:%%=====;::<<<3<3343<<<<3<:=*%%%*==**:<33<<<33333333343333433333344444334333<<:;;:::;,<<344334444444444433334444444444334333<:==;<<:=:<333333443<<33<<<::=====%*:3,=%%%**==%%*;=%$%%%=:::<43:=%%%%%*===<474:===*%%%%*;<4<::;%$$%*=:;=%***=%$@%=:,=%%*%%$%===*=,343<<3333333333,=*=,<:;=:<4433344443343334433333<33333333443<<<,;;:::;::<<34333344444444334444433<<34433334443<:=;:<3<,::,<333343<<<<,::;=*=;;=**:<,=%%$%**==**=;:=%$@*;:=,<<=======**=:<34<:==**=;=*=:<4<,,:=%%%%=:;======*$@%=<,;%%%%%%%****=:<::,<<<,,,<<<:=*:<<:::<:,<<<<<<<<<<33<<<<<<<<<<<<<<<<<<<<<<<<<:;===*=:<<<<<<<<<<<<<<<<<<<<<<<<<<<<<<<<<<<<<<<<=%*==%$$%%==::,::<<<<<<<<:*=::=%%*:,:%@@$%%%%%*=%$@@@@$====::%%%*==%%%%%:<3",
"3<:***%*==%%=:<:;;==%$@@@**%$%=*%%@$%=<>-%*==*====-:,<333433<<33333<;%@%=:=**:<33<<33333333334333333333333444333443333:;=:;::<444443334444444444444433333444444443<,<<,:>22:=:<3<,,,<33<:,<<,:===****=**;<:=*%%%*===*=:;*%%$%=:::<44<=%%%%%====>44<:===*%%%%=<44,:==%%%=;::==*=***%$%*=:;%$%%%%%;:<<;==<43<<<333333334<;=:<<;=;<<3344444444343333333333<<3333333443<<<,;=;:;;:<3444333344444444334444433<<3333333444<:=%%=:<:=%%;<3333333<<:=***%%%*==%%;,,=*%$%%*=====;::=%@%=:;:<<:==*===%%*=:<4<:====;-=%=,34<::=%%$%=:,:=;====%$%*;<:=%%%%%%*===%%;:;;,3<:;==;,<:==,<<::::=;:<<<<<<<<<33<<<<<<<<<<<<<<<<<<<<<<<<<,:**%%=:<<<<<<<<<<<<<<<<<<<<<<<<<<<<<<<<<<<<<<<<-%=::=%@%=:<<<<<<<<<<<<<<:==;:=%%%:::%@@$%%%**%*%$@@@@$===;::=%%*==%@$%*:<3",
"3,;*=%$===%%;<<:;;=%@$@@%==%$%=*%$@%%=<:=%%%%%*%%%%*:<333433<<33333<:%%*::=%%:<33<333333333334333333333333344333343334,;=;=:,<34444333444444444444443333344444444<:=;<<<<22:=:<<:=%*:<3<:::<=%%%%%%%%%%*=<:;=%%%======;:;%@@%%;::,343:=%%%%*==;:34:=**=**%==:<<,::=%%%=:::;====*%%@$%=;:=%$%%%=,3444<;=<433<<<33333334<:=:<<:::3433444444443433333333333<33333334443<<<:==;;:<33433333344444444334444433<<3333333443<====%*=%%%%=:33333333<;%%===%$%*%%%=:,=*%%%%======-:::=%$%=;::::======***=:<3,=====;=*%:<<<<::*%$%*;::;=;====%@%=;<;%%%%%%=:<<,;%===:<3<:%@@%=<>;=<<:=====;<<<<<<<<<<33<<<<<<<<<<<<<<<<<<<<<<<<<,;*%%$*:<<<<<<<<<<<<<<<<<<<<<<<<<<<<<<<<<<<<<<<<;%@%=:%$%:<<<<<<<<<<<<<<<,;*=::=%%;::%@@$%%%%%%%&%@@@@@===:,<:*%**%%$%%=:<3",
"<:=*=**==%%=:<<:;:=%@@$%===%%***%@@%=;<:=%%%%%%*===%=:<444333<33333<:*%=,<:=;,<333333333333333333333333333343333344334:=*==;,<34443333334333333344444444344444444<:===:=;:<:=:,:%$@%:<32;=;==*====%%%%%%*::;=%$$%==;===:;=%%%$*;:::,<,:=%****=;;:<:=***&%%==,:==;=%@%=::=======%%$@%*=::=%%%*=,4443<,:=,33<::<3<<<<<34<:=:33<<<<,:<3444334444333443<<33<<3333444344333<:*===:<33433333333433444444444433333344444443,=;:<;=%%*:,<<33333332,==:<<<:=%%%%%%;,==*%%%*======::::=%$%===*====*%%%%*==:<:========:<,;;::=%%*===;:;=;===%%$%=::*%%%*=:,<<<<,====;,3<<;%@@%;;-=,,;====;:<<<<<<<<<<33<<<,<<<<<<<<<<<<<<<<<<<<<:=%$@@%;<<<<<<<<<<<<<<<<<<<<<<<<<<<<<<<<<<<<<<<<:=%=:,*%=<<<<<<<<<<<<<<<<<:==;:=%%=::*$@@%%%*%%%==%@@@@*==;:<:=*%%%%%%%*=:3",
"<;==*===*%%;<<,:;=%$@$%*==*%==**%@@%=;,=%%%%%%=;:,:=%;<43<<<<<<<<<<<:=%=<<<,::,,<<33<<33333333334433333<<3343333344334;*%**=>233443<<3333333343344444444444444333<,======;<:=;:=@@@%:<<<-==*=;<,::=%%%%%%;::=%%@%*==;==:;==*%@%=:;==:::=***%*===;:;===%%%%%=:=**=*%@*;:=======%%$@%%=;:;=***;,3443,:::=<33:;:<3<:==:<3<:=:3<<<<::;<3444333333333443<<33<<3333444344333<;%*==;,33333333333433444444444444333344444443,==:<:=%%=<4433344333<:==<333<,=%%%%%=::=*%%%%===-==;=;::%$$*=*%*==*%%%%*===;:;=******=:::====%%%=:;========*%%%=:,:%%%*=:<<<<:,,;==;=:<<,:%$$%====::======:,<<<<<<<<<33<<<<<<<<<<<<<<<<<<<<<<<<<,=%$$$=:<<<<<<<<<<<<<<<<<<<<<<<<<<<<<<<<<<<<,:;,::=;:<=%=<<<<<<<<<,:,<<<,::===;=%%=::*%@@%%%*%%%*==%@@+%===:<<:=%%%*%%%%=:<",
":==**===%%=:,::;==$@$%**=*%*==&%%@$%=;:*%%%%%=:<<4<:%=,3<::<<<<<<<<<:=*=<<<<:;=*:<33<<33333333<3333<<33<<<343333344334=%$%%=:333343<<3333333344444444443334443333<<;;;====::=;=%@@$=,<<:===*;<443<<=*%%%%=:,==%@%*==;;===*=;=@@%===**==**%%%*=========%%*%%%====%%$$%=:=*%===%@@@@%==;=====;<4474<==;:;<33:;:34<=$@%;<<;;:<:;=:;=-<3444433333334443<333333334443333333,=%%%*=:33333333333344444444444444333343333344<=%*:,:%*:34444444333<:;:<<<33<<;=%%%*=:==*%$$**=======;;*$@%%****%%%%%*=========*%%%*=====*%%%%%=:;=**=;==*%$%=;,,=***=:<33<:==:===:==:::==%%*=%%=:;=======:<<<<<<<<333<<<<<<<<<<<<<<<<<<<<<<<<<<,;%%=:<<<<<<<<<<<<<<<<<<<<<<<<<<<<<<<<<<<<<,=%=;:::,<=%*,<<<,,,<,:=:<<:=**=%%===%*;:=%$@$%%%%%%%=;=%@X@%==:<4,=%%==*%%%*=:",
"===&%%*%%*::=%==*$@$==*%=*%*==&%@@%*=:;*%%%%=<<<<<<<==:3:;;,<<:*%%=::==;<:;*%%%%;<33<<33333333<<333<<33<<<343333344333,=%%=:<333343<4433333334444444443333444333<,;*==*===;==%%%%@@%===%*===:<<<333<:*%$@%;,:-*%$*==;===*===*@$%*==;;=*%%%%%======*==*%%%%%*===%$$$%%===%%=*%@@@@%*=:;=*%=:<44474<=*=;:<3<:;:<4<:%@@%:,;;:<;==::;:<4444433333333443<333333333443333333<:*%%*:<33333333333344444334444444333343333<<33:==,<:==,34433443333<:;:::,33<<<:=%%%%;;=**%$$%%====*===%%@@@$%**%%%%%=====**======**%%===%%%%$%*==*%*====%$%*=::;**=;,<433<:%%*%=::=%%***=%%=;=%%==%%**====,<<<<<<<3<<<<<<<<<<<<<<<<<<<<<<<<<<<<<,==:<<<<<<<<<<<<<<<<<<<<<<<<<<<<<<<,,<<<<<,=%%&**=:<=%*<:;%$%=,,;%=::%%%%%@@%%%%%=:=%$@@$%%**%%====*$@$===:;:;=%%**%%%%=:",
"***%%%%%%%==*%**%@@$==*%*%%==*%$@@*=;:=%%%%=:<3<,:,<==:3:=:<<<:%@@$====;<;*%%***:<33<<<3333333<<333<<33<<<33333333343<<:=%;<<33333334433344443344444443333444334<:=%**%%**==%%**%%%%**%%%*==:,:,<43<<:=%%%=:::=*$%*====**===%$$$%%*=:==***%%*=====*%%%%***===*%%%$$%*===%%*%$@@$%==::=*%%=,444444<;==:<333:;:<<<:*$@%=:==:,;;;:;==,<444333333333443333<<33333443333333<<;**:,<3333333333334444333444444433334333<,::<<::<3:==,343<<3443<<<:==:;:<3333<:=%%%==:==%%$$%%*==**=**%%@@@@%%*=***====**=============%$$%%%%%===*===*%$$%=:::=**=:<4433<:*%%=;:=%%*====%%%*=*%&%%%*====;<<<<<<<<33<<<<<<<<33<<<<<<<<<<<<<<<<<<<==:<<<<<<<<<<<<<<<<<<<<<<<<<<<<<<<,,<<<<<,;&&&%%%=:=%*,=%XX@%:,;%===%=;;=*$$%%$@%:=*%@@@%%*=%%%====*@@%*==*===%%**%%%%*=",
"%**&%%%%%%%***%%$@@$%=%%%%%**%%@@%=;:;*%%=;:<<3<;=;:=:<<==:<<<:%@X+$%==;:*%%*===:<33<<<3333333<<333<<<33333333333333333,;=:3333443334444443333334444443344443344<:==*%%%%%%%%*=*$%%===&%%*===;*;<4333<:=*%%=:::=%@$*===**==*%%$$%%%&;;=====%%=====*%%$*=;===%$$%%%%%****%%%@@$%%=;::=**%%:<4444444<::<4433,;=:,:;*%%*====;:;:;====:<4443<333333333333<<<333344433333333<:==<<33343333333444444333444444433443344<:==::,,<<:==><3<::<<44,:,,====:<33<<3<;%%%%=;:;=*%$$@%%=*=*%**%%%$@@$*=====%%***==***===;;==*$@%%%%%**====*%%@@%=:::=====:34333<<;**:::%%=;:::=%@@@%=%%%%%*=;;::<<<<<<<<332<<<<<<333<<<<<<<<<<<<<<<<<<,==:<<<<<<<<<<<<<<<<<<<<<<<<<<<<<<<<<<<<<<:=%%*%%%=;=%%;%+X.+*,:=%==*=,<<<:=%$$$@%===%%@@$%%*=%%*====$@@%%%%%**%%*%%%%%%*",
"%****%%%$$%==*%$@@@@%%%%%%%%%%@@$*;:;=%*=:<<<<3,=====:<<===,<3<=@XX+@%=;:%%===*%=:<33<3333333333333<<333333333333333333,;*:33334433444444433333444444434444433344<====%*%%@$%=%$@@%:,::=**=%%%%=,44444<:%%%%=::;%$@$*==*===%%%%%%%$$%=;:;:=%%%=;===%%%*;::;%@@%=;=*%%*=*%@@@@%=::::=*%=;,<444444444<344333,;*==*%%%%;;=%*==*==*===:<4443<<333333333333333333344333<<333<<==<<33343333333444444333444444433443344<,======:<,==,<:=%%=,34:;:<:=%=:<<<<<3<,*%%%%=:,:=*%$@@@%===%*%%===%$@@%=;;*%%==*=%%%%==:::=%%%*==*%%**=;=*%$@@$=:,:*%=:::,3443<<<,::<,;%=,<3<:*@@$$%%%%*=%%%=;:<<<<<<<<<332<<<<<3333<<<<<<<<<<<<<<<<<<<==:<<<<<<<<<<<<<<<<<<<<<<<<<<<<<<<,<<<<<,=%@$%%%*==%%%%@XXX%:<:=%===:<2<<<<;%%%%%*;=%%@@@$%%=*%%%*==%@@@%%%%%%%%%@%=*%%%",
"*%%%%%%%%%**%@@@@@$%%%**%%%%%@@$&=:;=%%%=><2<<3<;=*=:<3<:=%====%@X+@$$%==%%*%%***:<333333333333333333333333333333333333<=%:33334444444444333343444444433444433344<:;==%%%%$%%**%$$%=<<<,;=****%:<44444<:==*%%=::=%$$%%**===%%%%%==*%%%%=;::=%%%===*%%*::;=%%%==:;=%%%%%@@+X@$*;::;====;::<<3444444433443<<:=%%*==%%%%===*==*=====;,<4443<33333444333334444433344333<3<<<<==,<33343333333444444444444444433333343<,====*==,:==::*$@@*:33:;;<<:::,<<<<<<<<:;=*%%=::::=&#@@@@%*==*%*===%%%%%*===%===%%%%%=::;=*%%=;:=%%*==*%%$@@%*=;::;;:,<<<<3443<<<<,,<:=%:<<3<:%%=:;=*%$%*%%*==:<<<<<<<<<<<<<<<<<<3<<<<<<<<<<<<<<<33<<<<;=:<<<<<<<<<<<<<3<<<<<<<<3<<<<<<<<<<<<<<<;%$%%%%%%%$@@%%@o+$===%%===:::,<<<,:=%%%%===%%@@@@$%*%%%%*%$@@@@@%%%%%*%%%**%%%",
"=%%@$%%*==*%@@$%%@%%%*=*%%$@@@$*=;;=%%==;<<<<<3<:;;:<<3<:=%%%%%$@@@$%@%%%$%%$%*==:<<33333333333333333333333333333334333,=%:34444444444444333444444444433444433343<<;==%%%*%$%=-;=*%=<<<<,=%=;::<344444<,::;=%%=::=*%%%%%***%%%%%=::=%%%%*=::*%%%%%&%%=:;*%%*==::=*%%%$@@@@+@@%====;::::===;:<34444333443<,=*==;::*%$$%===*==*===;:<3443333333344333333444443334433333<33<==:<3334333433344444444444444333333333<<;=*=====:;*===@@+@=<3<:;;<<<<<<<<<<<<<<<:==**==;::=*#@@@@@%%%%%%*==*%*%%%*==*==%%%%%%=:=*%%**=::=%%%**%@@@@@%=:;;::<<3<<,<:,<<<<<<<<<:=%:<<<,;%;,<,:=$@$%%====:<<<<<<<<<<<<<<<<<<3<<<<<<<<<<<<<<<33<<<<:=:<<<<<<<<<<<<<<<<<<<<<<3<<<<<<<3<<<<<<<:=%*%%%$@$@@@%%$+@$%%$$$===:==:<<<<<:=%$$%===*%@@@@@%%%%%%%%$@@@@@%%%===%%%%%%%",
"*%%@%%====$@@%==*@%%%**%$@@+@$*;;-=%%*;:,<<<<<<<<<<3333<:*%%%%%%$@@$$#@$@@@$@%==;,<<<3443<<3333333333333333333333333333:=*,44444444443443333344444444433444333333<<==**%%%$@%=><<:=%:::<<;%;<3334444443<<<,:=%%*=::;%@@$%%%%**%%*:::**%@$%=;=%%%%%%*=;:=%%=;=====%%@$%%%%$@@@@@@%=,34<=$@@$%=,444444433<<:==;,<<,*%$$%%==**=%%==;:33343333333344333333444443333333333<34<==:<3333333333333444444444444333344333<:%%%%%==*==%*%%@@@$:<3<:=:<3333<<<<<<<<<,;=-:::====%%@@@$@@@@@$%%%%*%%***%%%===%%$%%*=::%$%======**%%%%@@@@@@%===;:<444:=**%*=:,<<<<<<:=%:<::::;<<<:;=$$$%*=;;:,<<<<<<<<<<<<<<<<23333<<<<<<<<<<<<<33<<<<:=,<<<<<<<<<<<<<<<<<<<<333<<<<<<<4<<<<<<<<:===%%$@@@$%=%@@$%%@@@@***====<<<<<<<*$@%=::=*%@@@X@$%%%%@%%$$@@X@$*====%$@$%%",
"*%%$%*;=%@@#%===%@%%%%$@X++@%=;;====;:<<<<<<<<<<<<<<33<:=%*=:<,=$++@@@@$@@$$@%==:<<<<<443<<<333<<<333333333333333333333,==<44444444433443334444444333333433333333<<;====*%$@$==:<<:=:==::=%;<43443333<<,::<<<:;=====%$@@$$@$%%%&====*==%%$%**%%%%%%%=:=*========%$@$*=::==%%%%$$%=<3<=%@@@@@$=<44444443<,=*;<<<<;%%=::=*%%%=*%==;<43343333333344333333444433333333333<33<;=:<3333333333333444444344444333344333<,=*%%%%%%%%%$%*%@@%=;:;==:<3333<<<<<<,:;%$#%=:<,:*$$@@@%%====%$@@@$%$%%%==%%%=*%%%%%*===%%%==**==*%$%%***%%$@$$%%:<444,*$@$@@$=:<<<<<<,-%====,<<,:===%$$%*==;:,<<<<<<<<<33<<<<<<23333<<<<<<<<<3<<333<<<<:;,<3<<<<<<<<<<<<<<<<<<3333<<<<<<4<<<<<<<<:==%%@%$@$%$@+XX@*;=*%%%*=%%*=<<<<<<<=%@%%=::=*%@@XX@$%**%%%$%**%@$$%==;=%@@$%",
"%%%%%==%@@%%%==*%$$$$$@+XX+@%=====::,,;;==;:,<<<<<333<,=&=:,<3<*@@$%%$@@@%%%@%*=,<<<<<33333333<<<<332233333<333333<<<34<;=<4433334443<<<<344444433333333333333333<<::;;==%$@$*=;:,,::=*==**:<44444<<:;====:343<,:=%%%@@@$%%%%%%%*%%*%==%*%$$%**%%***=;==;;=*=*%%$@$%=::;===;;;=*%%:,:%$%%$@@@%:44444444<,==:<<,:==:<<,;%%%%=====:<44343333334444333333444433<<3333333333<:=:<33333333333334444433444443333444333<:===%%%%%%%%*=%$$%****%*:<3333<<<<<<;*$@@@@%;<,;%%*=======;;=&$@@@$%%%%*=*%%%**==***==%==***%%*%%%$%==;==%%%*%%%=,44<=$@@@@@@%;,<<<<<<:***=;<33:====%%%%%=:,<<<<<,:<<<<33<<<<<<<33<<<<<<:==;,<3333<<<<<::,<3<<3<<<<<,::<<<<<233333<<<<<<3<<<<<<<<:=%%%@%%@$$$$$@X@%:::=*%%====:<<<<<<<:=%%%%*====%$@XX+@$%%%%%%===%%$$%*;;=@@$%",
"$$$%**%@@$=%%*%%%$@@@$@@@X+@%%*=;:<3,:%%$@%%;<<<,<33<<:%%=<<3<:%@%=;=%@@@%%%%%%=,<<<<333333333<<<<322<<<<<<,<<<33<<<<34<:=,443333444<:;;:<3334443334333333333<<<<<<<,::;=%%%%%===:,<<:=%%*=,<34444<:*%@@@$=,3443:=%$$$$$%%%*%%$$%$%%%*%%==%@$%=*=======::=%%=&%$@@%*;;====:,,,:=%@%==@%**%@@@%=444334443,==:<:;=;:<4<:=%$$%*==;:,34433333334444443333444443<,:<344333333<:;:<3333<<<3<<<<<34443334444433<3444334<<;===%%%%%%*=%@@$*=*%%%%=<23333<<<<<=@X+@@+@%::*$%:,<::;===;;=*$@@@%%%%%==%%@*====*%*%%==*%**%%%$$%=;::;===:::=%%=,<:%@@@@@@@@=:<<<<<<,=%%=:<33:====%%%%%;,<33<<:;;:<<<<<<<<<<<<33<<<<<:=%%*;,<33<<<<<3,:<<<<<<<<<<:;==:<<<<<<<333<<<<<<3<<<<<<<<:=%%%$%$@@@$*==%@%:<<:=%%=:::<<<<<<<<,:=*%$$%====%@XXXXX@%%%%%%===%%$@$=;=%$$$",
"%%$%%$@$$%%$%%%%@@@%;::;=%@@+@@*:33<:%@@@@@@%,<<<<3<<,;%%:<<<<=%&,<<,;$@@@$%=*=:<<<<<333333333<<<<322<<<<:=%=:<33333444<,:<443344443:=&%*;<34444444433333<<33<,=:,<<33<,:%%%%%====:33<:==;,3334443<=$@@@@@@*,33<=%$=====;;==*%%@@@%**=%%*=*%$%%===%=======*%%%$$%%====;,<<34,=%%$@@@$%==*$@@%;<444334443<===;==:<<<,===%%%%*=;:<<3333333333444433333344443<;**;<444333333:::<333<<<<3<,::,<3333334444433<<34433433:==*%%*%%%%$@++$=,<:==**:<3333<<<<;%@+@$%@@$*%@@%=:<33<<<,:;===$@@%==%%%%%%@%%***%%***%%%%=%$@@%=;;;;=;:,<3<:=%@$%=*%%%%%@@@@*:<<<<<<<,::<<<33,;*%%%%%%%;<<3<<,=*=;<<<<<<<33<<<33<<<<,=*==*=:<3<<<<<33,:<<<<<<<<<:;=&*=:<<<<<<3<<<<<<<<3<<<<<<<<<:===*$@X@@%:,,:%%=::,,=%%,<<<<<<<<<:;=*;;;==*%%@@+XXX+++++@@$%%%$%*%%$@%==%$$",
"%%$@@@@%%$%$$$$@@@%=;;===*%%%%$$=,3,=@+@@@@@%;,<<<3<<<:&%=,:,<==:2<:=*@@@@%===:<<<>;,<3333<<333<<<<22<<<:=%**=<33333444<::<444444443:=*===:333344444333443333<:==;,<<33<;%%%%%%**=:33<<,,<<444444<:*$@@$%@@%=,,=%%=:<<,,:::;;;=*%$%%%==*****%$%*=*%&*===*=*%%%%=;:::,<<4444<=%$%$@@@@%==$@@%;<4444444444<:=*==:<3<,:;;=%%%%*;,<<<<<,::<333333443333334443<;====,344444443::,<333<<<33<;===:<333334444433<<3443343<:=&=%%*$$%%%*&$$%:<<,:=*=<3333<<3<;%@+@@%%%$$$@@@$%*,<4343<<<<,;*%%*=*%%$%%@$%%%%%%%**%%***%@@%=:::,<<<<<33:*%$@@@%%%*%%@@@%=:<<<<<<3<<<<<<333:;=%$@%%%*=:<3<<:*%*;,<<<<3<33<<<<<<::::==::=;,<33<3<<33,:<<<<<<<<<:=====;:<<<<<33<<<<<<<3<<<<,:,<<<:;==%@++@$*=;:=====;:=%*,<<<<<<<:;*$@@%=:<,=%@++@@@@%%%%@@@+@@@@$%%%*%%%*%%%",
"%%@@@@$*%$%$#@@@@$*=======;:;=%@%=,=%@@@$@@@$=:<<<<<<<:*%%==:<::<<:=%%@@@@%;::<33,=&:<3343<<3333<<<33<<<;*%===:<3333444<:;<444444443:==:;=:<<,<44444333444443,=%%*:<<34<=%%%%%%%==:<33<<334443343<=%%$%%%%%%%==$@%=:<43<<<,,,,>:=*%%%====%%=%$%%*%%%%==*%**%%%=:<<<<3334444;%@$%%%@@@%%%@@%;<44444444444<<====,343:====%**%*:<43<<<:=;<33333344333444333<:==;;=:<44444443::,<33333343,===*=:343334444433333333343<:=*=*%%@@$%=::=%%:<3<,;*=,3333<<<<:=%@@@$*%$@@@@@@@@=,444444443<:=%%==*%$%%$#$%%%%%%**%*==*%$$=:<<<<333444<=$@@@$@@@%%$@@@$=:<<<<33333<<<3<<<<:==%$@$%===:<3<:=%%%=,<<<<3<<3<<<<3:======::=:<<33343333,:<<<<<<<<<:=;::==:,<<<<33<<<<<<<3<<<<:=;,<<<:;=%@@+@@%%=:::=*%%=**=,<<<<<<:=%@+XX@*:<<=@@@%%%%%*==*%$@XX+@@$$%*=*%$%%%%",
"%%@+$%%%%%%%@+X@$**=====::<<:=%@@@*%$$%%%@@@$*:<<<<33<:=%%$%:333<:==*%@@@$=:<<33<;%%=,3333<<3433333333<,**=:==:<3333444<:;<443344444:==<,:;:=*:<4444444443443:=%$%*,<<3:==*%%@$%==:<4433334433333<:*%$%%*==%%$@+@@%%:3444433<<<<<:=%%==**%%*%$$%%%%%%%%%%==%$=,477744<,<44<*$@$%%*@@@@@@@#-444444444444443<::<<444:==*****%=,34333:=*=,343334443334443<<<;*;::=:<33444443:;,344433343,==:==:<444344444333334333333<:;==*$@@@%;<<<:%-:,<<:==:3333<<<<<<:%@++$$@@@$%$@@@@=343<,<34444<=%*::=%%%%%$$$$%%%%**===%%%=<4444433444<:%@@@%%%@@@@@+@$*:<<<<<33333<<<<<<<<;===%%%*=:;:<4<:=%$%=:<<<<<<<<<<<33:%%**%*;::,<<<333333<<,<<<<<3<<<,;=:>-==:;:<<3333<<<<<<<<<<=%%:<<<<<:%@@@@$=***:<,;%@$%=:<<<<<<<;@XX++XX@=<;%+%;:::==**%*=*%@XX+@$$%%*=%$@%%$",
"%$@@$%%%%%%$@X+%=;;;::,<<<<,*$@@+@$@$%%%$@@$=:<<<<<33<<:=**:<333,=%**%$$$%=:<<33:=$$=:3333<34433333<:::;*=::==:34333444<,;<444444444<,::;=%%%%*:3444444443343:=%@@%:<3<:=:=%%%%*=-:<3333333433333<<:*@@$%%%%%$$$@@$%=:4444<,<34444,=%===%&&*%$$%%%$%*%%%=;=*%:347774,=%=,<:%@@@$%%$$$%===;,4444444444444433<<3344<:==*%%%**=:<43<<;*%%:2433344433344<:=;==*::==:<33344444<:<344433333<=;:<;;,,,<<444443333344<:,<3<<::==%@@@%%=;,:=:==:,:==,3333<<<<<<<:%+X@@@+@$%%$@@@=<<:=*=:4444<=**,<:=%%*%%$$%%$@%*====%%*<3444<:;;:<3,=@+@@%%$@@$@@$%=:<3<<<33333<<<<<<<<<===*====:<:::4<:%$$%=:<<<<3<<<<<<33:==*%%%*=,<<<33<<<33<:;<<<<23<<<<:::;*%%*%=;<<333<<<<<<<<<:=%%=:<<<<:*$%%%%%%**:<<:=%%%=:<<<<<<>%@XX@$$@@%;%@+%=;<<<,:::-==*%@X+@%%%%%%%%@@@$",
"$@@@@%%%%%%@@@%;,,:,,,<<<3,=$@+@@@@@@$%$@@@%:<<<<<<33<<<:::<3333:%%%%%#$%%*=<<3<;%$$=:<<<<<3343333<:=***%*=:=:<34444443<:=,3444444444<,;=%$%%*=:3444444443443:=$@@%:<3,;;,====%*==:,333333334443333<;%%$$%%%@@$%%$@$%=<33<;=;,4444<:%*=:=*&*%%%%%%%==%%=:,===<<<<44<;*%$=:=@@@@@@@**%*=:<<34444444444444443444444<:;==%%*===:<43<:*%%%:<433344444433,=%*%%%=:;:,<<<343333:::<33333333<:::,==:;=;<343334433343<=;:333<,:=%$@@%%==::,,:=*===;<3333<<<3333<=%@@$$@$$$$@@@@%:,;%%%=<4<::;=%:<<:*%%%%$@%%%$%%*===%%=::<3<:=%%=,<:%@+@@%%%$%%**=:,<3333333333<<<<<<<<<;;:=;:,,<<:::<<:%@@%;,<<<<3<3<<<233,::;*%===:<3333<<<3<:==;:<3333<<<<>:=*%%%*=;<<<<<<<<<<<<<<:=$$%=<<<<:%%%%%$%%%*:<<<:;==:<<<<<<<:%@XX@@%%%$%@XX@$%:,<<<<<,:::=%$@@$%%$@$%%@@@@",
"@+X+@%%%%%%@@%:<<<<,:::<<<:$@++@%$@@@@@@@@%=<<<<<<<333333<<<333<:%*%%%@#%%%=:<2<=%@@=:<<<333333<22<=$%%$@%%=:<34444444<:=%;<4444444443,=*%@%=::,3444444444444,=$@@$:<<:;:<:::;**=;::3334433344433333<:=%%%%%@@$*%%@@@%:<<;%%%*:<<::;%%=::=%*=**%$%===%%:<3==:<:==<<:===$%*%++@@+@@::=%*:<444444444444444443344433,:;======:::,44<=$@$%:<443344444433:=*%%$%%=:<33<<343<<,;=;<343333333<,:==*==%=:<4333443333<:**=<3443,=%%%%%====:33<;%%*=:<444333333333<:;===**%@@@@@@%=:=**%=:<:====%=<4,=%%%%$@%%%%%%*:::%%==%=<:=%%%%;,:%@@+@@@%*%*;:<2233333333333333333<<<,<<:,<3<<3<:;<<:%@@%:<<<<<<<33<<222<,,:;=:;-:<3443<<<<<:=*=:<33333<<2,:===*=:::<<<<<3<<<<<<<<:*@@$*:<<,=%%%%$@$%%%:<<<<<,<<<<<<<<<<;%@XX+$*%@+@+XXo@%;<3<333<<<<:;%@$%%%@$%%$@@@",
"XXX@$%%%%%%@$=,<<<:=%%%=<,=@+X@%%$@@@%@$%*;:<<<<<<3333333<<<333,;===%*%%%%%*:<<:*@@@=:<<<33333<<22,:=;=%$%==,<44444444:=%%=:444444444<:=;=%:<<<<3444444444444<;#@@@:<<=;<4<<<,;;,::,334443334443333333<:=**=%$$%$$##@%:<>=%*%%=:-%%%%%=<<:*%===%@%===*=<4<==<;%@$=:;=%%%%%@XXX++@=<,*@@%;<4444444444444444444443<::;===;=:<,::33,=@@@%:<433344444433,:<:=%==;:<43<<343<<=**=:<443333333,=%%%%===:<4333443333<:%%*:<333<=%%*=%*===:33<<===:<34443333333<<<<<:=*=:=@+@@++@=::;;;::,=**===*:<:*%$%%$@%**%%%;<,=$$%$%%:::::-====%@++@@%==%$*:<22333333<<333333333<<3<<<33<,:<<<:;:<:%@%;<<<<<<<<<<<<2<<:==::=,:::<3442<<<<<:=*=:<333333<<,::<:=:<3<<<<<<3<<<<<<<<:%@@@%:<<:*=*%%$$$*=*=:<<<<<<<<<<<<<<<<:=@XXX$$@+@@@+@@X%:3<<<<<<<<<<:%@%=*%$$$%$@@",
"XX@%%%$%==*@@%==::*%%%%=<,=@+++@@%%%%==;:,<<<<<<<<<333333<<<333:===**=%%%;===,<:%@+@*:<<3<<<33<33<<<,<:=*;:=:<44444334:=%%=:334444444<:;::=:::;:<444444444444<:*@@@:<,=:<4<,,<<<<<<34444444444443344443<<:-*%=*%%$$$@%=:=%%%%%*=*%%%%$%:<:=$%**%$%==**=::==;:%%%%*=*===*%%%%@@@@%:4,%@@$%:3444444444444444444443<::::;:<:,<<::<3,=@+@%:<433344444433<<<<:=::::<4443343<,=*%*:<443<<<333:===*=:,:,<4444333<<2<;%$%=,<3<:=%%%%%%*==:333<<:,<<34333333333<<<<:*%%=::=%%@@@@%***=*==;;::;=*%=;:=%$$%%@%%%$$%=:;%@@%%=;:;===*%**%%$@@@@=:=%@$%;<3333333<<333333333<<33333<:==;:<:-:<:%%=,<<<<<3<<<<<<<<,==*===:,,<<<3332<<<,;*%%;<33<<<<<<,:,<:;::::,<<<<<332<<<<<,*@@@%=<<:*;;=%%%%*===:<<<<<<<<<<<<<<<<<:=@XX+@@+@@%@@@X%;<:=*%;,<<<<,=%$=;=%$$%%@@",
"X@$%%$$=:;%@@%$%=:%%%*%=::=@+X++@%=%%=;,<3<<<<<<<<<<33<<<<<<33<:=*==*==*=<:=*:<:$++@*:<<3<<<33333<<,:<:==,<=:<44333344,=%$=:2344444443<,<,===*=;,4444444444443<:%@$,<:=:<<:==:<<334444444433444433444443<:=%%=;*%$$$@$%==%%%&%%%%%%%%$%*::=%%%%%%%=%%==;-%=::%%&&%%%=:;=*=:;*$$%=:<:%%$$$=<444444444444444444444<<<<<,,<<<33::<<,*@+@%:343334444433<::::;;<<::344434443,=%%*:<443<<<333:=:;=;<<<<<3334333<<<<;$@$%:<4<:=**%%$%*==:<3333<333333333333<<<<<:=@@$*:<,=%$@$%%%%%*****=:>:==%*=::=%@@%@%%$@%*==*@@$%==;===*%%%===*%%$@%=,*@@@$*:<33334333333333333<<33333,=%%*=<:;;<,==,<<<<<<2<<<<<<<<:====*=:<<<<<<<<<<<,;=%%%=:32<::,<<<<<<:=====:,<<<<332<<<<<<=$+@%;<,=*:,;===%====:<<<<<<<<<<<<<<<<<<:%@@@@@@@@$@@++@=,;%@@%;<,:;:;*#=::*%$%%$@",
"X@%%$$%:,-@X@@@$%:=======%$+XXX+$=:%$$=,<<<<<<<333<<<3<<<<<<3<<:=*====::,3<=*:<:$++@=,333<<34433<<:=%===:<<;:<443<3444:=$$=:2344444444333:%%%%==:444444444444443;%%<<:=:,=%%%*:<44444444443334443344444<,=$@$=::$@@$%%$%**%*==%%%%%%%%$$*=::*%%%%%*%%=;:-%::;%%**%%%<3<=;,4<:****=:=%%%%@=,444444444444444444444444443<<<<33:;:<,=++@=<43334444443<:=%%===<<<<343333444<*$$=:<4443<<333,:<::::;=:<3334444333<=@@@%;<4<=*=-*%%%=:=;,34333444433333333<<<<<:%@@@%:<<;*%%*;::*%=::=%%&=;::==;:<<:@@$$$@@@%==*%@*==;=%%%%==*=:,,:=***=::%@@%@%;<333443<3333333333<<33333<=%%%*:,:;,,=:<33<<<<22233<<<<:;;::=*:<333<:==:<<:%$$$%%;22:=*=:<<333:*%%%*=:<333333<<<233:%X+%:3:==<<>::=*====:<<<<<<<<<<<<<<33<<<:;==%$%%@XXX+@@%:=%%%%*:;*$%==$&:<:%$%%$@",
"@%%@@$*==%+X@%*=;=*&*%%%%%%$@@@@=::%@@$=:<<<<<<<<<<<<33<<<<<<<<,::::::,,,<<:=:,,%XX$;<333<<<34<<3,=%%%%%=,<,<<<:==;<34=%@@$%=<<<;=;:<334<:$*=:==:444444444444444<:=<,:=::*%%%=:<33444444443334433344444<=%$$$=:<=%%%%%=:::*=:,===:=%@$$$=;:,:*$$%%$%;<<::=::=%*;:;==<<:=:<<:==:;===%$%=%@%:44444444444444444444444444<:==;:3<:;<<;+@%:<43334444444<;=*=*%*,<334<:==;,4<:%@@$*:<43<,<<343<3:=====;<<334444333<:@@@$=<4:==<;=*===;=:,3444444443333333333<<<=@@$%%;:=%***=:<<:==,<:*===*=;;=;<44<%@+@@+@==;=*%%;:=**%%*;,;=:<<<:===*===$$%=%%*<<33344<<33333333<<<33333<,=%%%=;:=::;:,,::<<32<<33<<<<,::<<:=;,<3<:=====:=$@@@@%=<,;====:<33<;*%;:;=:<333333<<<<33<;$@%:<:=:<<,::::,,::<<<<<<<<<<<<<<<<<<<<<,;%$$==%XXXXXX@===**==:=%@@%=*%=:=%@@%%@",
"@%$+@%*=%@@@%*===%%*=%%&=*%%$$%%;::%@$@%=<<<<<3<<<<<<33<<<<<<<<<<<<<,:;;;,<:=;<<%@@=><<<<<<334<<<:=*==&%&:3<3<:=**=:<<*@@@@$%:::=**=,<44<;%;,<;;:4444444444443<3<:=,:;=:=%%%*:<<33444444444334433334443:*%%%$*::=**====,<<=;:<:=;<:=$$@@=;:<<:%@@$@=<44<::;==%=:<:;:<<:=,<,==:<<:==%@%*%@%:44444444444444444444444444<;%%*=<<:=<<:$%;<344444444444<===:=%%:<443:====:<<=@@@@$*:<,:==:<4444:=*====,<444444333<:%@@@=<3:;:3::=;==;::,3444443333333333333<<:*@$%%%==**;:;=:<3,;=:<,=;::*%*==;<444=$XXX@*:,:=*%%==%*====:<;=:3<:==::;=*&@$%=%%%,<333443<33333333<<33<<333<:=======::====*=:333<<3<<<<3<,,<<:==:<3,;=::;=;*@@@@@$&;:::,;==<<<,;=:,<:=:<33333333<<333,=$*<<;=,<,;=;:,<<<<<3<<<<<<<<<<<<<<<<<<<:=@@$=:=$@@+XX@%***%*==*%%%%==%%=*%@@@$$",
"$@@X%*==$@%%=;==%$%=;**=::=*%%**;:=%$%$$*<<<<<3<<<<<33<<<<<<<<<<333<:=%%%=:,=;:<=%%,<3<<<<<343<<<:==::=%%:<3<,=%===;::%@@@@@@=;====%:<43:==:<3::,444444444443,::,:=::=;=*%%%=<334444444444443443333444<:%%%%$%=;===::;=,34:::3,::<<:%%$@=;<44<=@@@%:444<:;=***:<<:::<,;=<<:==,33<=*%@$%%@%:44447444444444444444444433<;%%%*:,:=<<:*;<4444444444444<==:<,=*=<44<;*;:;=,:%@@@@@%=,;%%%=:3443:==:::=,<4444433333<=@+@;<<;:<4<,::;;::,<4433443333333333333<<:%@%%%$%%*=<<<==:<<:=;:,;:,<=%$%==<444,%XX.@,33<;&$%%%%=,,==:>==:3,;==,<,=*%@@%=%%%,<33333333333<<<333<<<<3343<,,<,=====*%%%@*:<33333<<<<<<<<<:=**;,<:;;<<<:;%@@@@@$%%=:<4,;*,<<:::<<<<:,<23333333<<<343>*=<,==<,;%@%=<<3<<333<<<<<<<<<<<<<<<<<,=@XX@=<<=%$@+@$%%%%%%%%%===%=:%$%=*%@@@$",
"@++@=;==%$=:=%%%*%;>:==:<,:===**=*%$$%%$%:<3<<3<<<<333<<<<<<<<<3333,;%%$@$=:=;:,=;<443<<<<<343<<3,==43<:=;,4<:*=,<,:=%$@@@@@@=;:<3<==,4<;%%=:<,<<44444444444<=$$%%%===%==:::<4334444444444433443333444<-%%**%%*==:<43:;:<4,::<<:;<<,=:*@%=<444:$X@=<444<;**=:=:<<;=;:=*=::;;:<<,:=*%@@$%@=,44447444444444444443344333<:==%%=::=::;:<<<<34444444444<::,<<,;=,44:==33<;=%$@@@@@%=:;;:=*=<33,==:3<:=<344444333333,*@@:<<=:<4<<,<<<<<<<4433343333333333333<<:%@%%$@$%*:<4<:==<3<;;:<::,<:=*&%*:<44<;#X+*<3<,;%@$%%*:<:*:::=;,3:==:<3<:=%$@@%%%%:<33333333333<<<333<<<<33433334<:=%%%%$%%$%=:<3333<<<<<<3<:=====:<:;:<3<<;%@@@@@@@$=:<3<:=,<,==::,<<,<<23333333<<<<34<;;,,;;<:%@@%=,<3<<333<<<<<<<<<<<<<<<<<:%X@@@*,<;*$@$%==%$%==*%$$%==:,*%*=::=+X$",
"XX@=,,:=%%==%$=;=%:::==,<:=*:::==%%$%%%$%:<3<<33<<3333<<3333<<33333<:=*%$$*===::==::::<<3<<343<<3<::3<::==;3<:*:<3<:*@@@@+@@@*:<44<:=:<:=***=:<<34444444444<:%@@@@@%%%%=,<<<44334444444444433333333444<=%%%%$%*==;:<3<:;,3<::<,:=<<<=::%@%:444<%@$,4444:=%=::;:::==========:,<,:===%$@@$@=<44444444444444444443444333<<::====;=:;===;=:<33444444343<<<<::=*;<4:=:44<:%$@@@@@@$*:,<<:==,<<;*=:<<,:<344333333344<:*%,<:=:<<:==:,<33334443333333333333333<<:%@$$@@#%%=:<3<::,<<:=;:==:4:;==&%=<34<;$o@=33<:=%$%===:,:%=;==;::==:,<,:=*%%@@$$$%,<333333333333<<333<<<<343<<<34<,;%%$$$$$$$%=:<<<<<<<<<<3<;::<:;;:;;:33<<=%@@@@@@@@*:<3<:=:,:*==;;:<<<<34333333<<,;;::;;::==:*$@%*;<33<<333<<<<<<<<<<<<<<<<<=$X@@$%;;*%%%%=::=**;:=%%%*%*=:=*=;<<:$++",
".+%<3<:=%$%%$%,:;=::=*:<<===,<<:=%%@$%%$%:<3<333<<3333<<33333333333<<<;=*%%*===;%%***=,<333334<<<<<<<:==*%*<,:*:<33:%@@@@@@@$%:4443:=:,==;:===<34444444444<:*$@@@@@@$%%:344443333344444444444333344444<=%%%$$%*===;:<<<::<,:;::;=:<,=,,:@@=344<%@%,344<=%%=::==;==========*;::;==::=%@@@$:3444444444444444444444443333<<<>::=====%$%$@*:34444444333<<,;===%=:<;=:44<:%@@@++@@@%:<43<;=,<:=**=:<<<<4443334333344<:=<<:=,<:%$%=:344444443333333333333333<<:%@@@@@$%===;<<<::::;=====;<::::=%=:<4:=@@$=<3<;%%%=:;=::-%========;:,:;====%@@@@$*<333333333333333<<<333<<<<:=:<<<<:%$$%%$@$@$%;,<<<<<<2<<<<;:<<<:;-==:<33<=$@@@@@$$@*:<<<:=::;=;:;=:<3<<34433333<<:%%%=*======%%%*=:<3333<<<<<<<<<<<<<<<<<<<<*@X%$@%**%===%=:<,;==::**==%%%====:<3<=@X",
".@;43<:*@@%%%*<,;=::==:<,==:<<<:=%%@@%%$%:<3333<<<33333333333343333333<:::=%%*==$@@@@%,<3333343<<<<<,=*%%%%;:;*:343=%@@@@@@@@%:4443:====:<4<:=<4444444444<:$@@@@@@@@@%=<444<<<<33344444444444333344444<;%%%$$%%=::==:<4<:;========:;=:<,$@%,43:%@%=<44:*%*;::%*==-;:::;;========:<<:*%@@%<44444444444444444444444433333333<<;*%%%@@@@@%:344444443344<:==;;===:==:44<:%@@@++@@@%,343<:=,:;=====:<<344433343<<<<3<>=,,;=,:%@@%=:244444433<<3333333333333<<:=@@@@$%=:;===:::====****%*:::::;==:<4=%@@@%:<,=%$%=:;*;===========;::===::;%$@++$;<333333333334333<<<333<<:=%$%;<<<,=%%*=%@@@$%:<<<<<<<3<<<<:=:<<<:=*=:<333=$@$%%%%$@*:<<<:===:,<3<::,33334433333<:*@@@@@%%*%%*;;==:<33333<<<<<<<<<<<<<<<<<<<<%@@%%@@%%*:<,=*=:,:=%;:==::=$@$%*=:<3<:%+",
"X%:33<:%@%;===<:=*==%*;:===,<:;==%%@@$%$%:<3333<<<<<333333333333333333<<<<:=%%%$@++@@%=:<<<3333<<<<<:=-:::=*==*:<44:%@@$$$$@@%:4443:*%=:<33:;=<3344444444<:$@@@@@%%@@*:<4<,=&=::<344444444444333333444<:%%$@@%*:<<:=:,<:;===;;;;;;===:<,*%%=<,=@@@%:34;===;;;====:23<;%:,,=*=;::,4<:=*%*:<444444444444444444444444333<<<3333:=%$@@@@@@$*;,<444443444<:*:<<,:==*=:44<:%@@@@@@@@%:<43<:=:;;:,<:=:<33444333334<;=;:;=::==;=$$%%;<344444433333333333333333<<<;$@+@$%;<:;=%*===;;=:,<,:;===:<::;=:4=%@@@$;,;%%%*=:=%=====::;;=;;=====;:<,*%%$@%:<333<<33333333<<<<<<<<<<=%$$%%==::=%%%%%@@@%;<<<<<<<<<<<<<<:=:<<<:*%=,<<<:*@$$$$@$%:<<<<:%=:<<<<:;;,3<<343<<<33;%@@@@+@@@$%%:<<<<<<<3333<<<<<<<<<<<<<<<<<<<,%@@$@@@@%*:<<;=*=<,;*;::*=:;%%%$$%;<3<<=$",
"+%;<<,=$@%,;==:;*%**%*==*=:<:===;=%@@@@$*<<33333<<<<33<<33<<<33333333<<<<2<:%%@@@@@+@$%=:<<3<<33<<<<;=-><<:==%%:<44,=$@$$$$@@*,444<=%%;<3<:==:<34444444443,=%@@@%%%@$=<<,:=%@$%=,3444444444433333333343,*%$$%%=:4<,::::;;;;:,<<<,:;==:::===@;:=@@@$;<<*=:;=======:34<=$;<<=%=::::<<:===:344444464444444444444444443<,::;,<34<:%$@@$@@@@$%;<444444444<:%;:<3<:;%%;343<=%$$@@@@@%:<44<;%=;:<3<,;:<44444433333:%@%%&%=====*%&==:<444444433333333333333333<<<:=$@$%*:<:;==%%=:,:=:<44<:===-::::*=<=%@@@$=:=$%*=*;=%===:,,:===,:===;;=:<<=%%*=;,<<<<<<<<333333<<3<33<3<<*$@@@$%%=;;%$%%$$@@%;<3<<<<<<<,<<<<,::<<<,*%%;::::=%@@@@@%;<<<<,=%=,33<:==:<333443<<<33=$@@@@@@@+@%=<33<<:;:<<<<<<<<<<<<<<<<<<<<<<<,%@+@@+@@%%=:,,;==<,:*==;%=::=%=%@$=:<<<=%",
"X@=<<:%@$*:;*%==%******%*=::;==;::%$@+@$=3333333<<<<<<<<33<<<33333<<<<<<<23<=%@X@@@+@@@$=<<3<<333<<<:==;,<3,=%$=<443:*@@$$$$$=<4<<:%$%:33,=*:<3443334444443:%@@@%%%@%=,;=*%@@@@%,3444444444433333333<44<=%%%**=<4<<<<:=;::=:<4443,:;===;=:=@%==$@@$;,:%=:;*==:=%$=<<:%@=<<*%=,:==:<:*=;<76444464444444444444444444<,=*%%=:<4<:=$$%%$@@@@%=<333333333<:**=:34<:%%=<33<:=$$@@@@$=<333,=%*;,33<::<3443444444<,=@@@@@$%%*%%=::::<<4443333333333333<33333333<<<:==%%=:<;;;:*%=<4<%=:44<:=;=*=:::*=:=%@+@%==%$===%=====:<<<,%%=3<;*=:;==:<=%*=:<<<<<<<<<<333333<<3333<3<,*$@@@@$$%*;*%$$$$$@%=<3<<<<<<:;;:,<33<<<<:*%%====;=%@@@@#*,,::<:=%;<43<;*=:<333333<<<33;%@@@@$$@@@%;<<<,;%$*:<<<<<<<<<<<<<<<<<,,<<<<&@+@++@$%%%=:<,:;::;*&&=%=:,==:%$$%;<<:=@",
"X@%,:=%*%=:=%%%==:::;=======;;::<:=%%%$=:3333333<<<<<<<<33<<333333<,:**;,<3<;*$@%%$+@@@*:<<33<<3333<,=**:<43:*@*:<<<<:%@@@@@%:,:=;=%@%:33<:<<3<<<:,<444444<:%@@@@@@@%==%$$$@@@@*<3444444444433333343344<,::;=*=<<:;:,:=:<<%=:4333:::,;==::;%%%*%$%%::=%=:;==:<;%@%===%%:<:%*;::;;::;*=;<444444774444444444444444443:%$@@%*=;,:=%%**@+@@%;<33333333433<:==:44<:%%*<<,,<;%@@@@@%:<<:,=%$=:<3,;=:<443344444<:%@@@@@@@@@%%=,3<<<<<3443333333333333<<333333<<<<<<;=%=:,===:=*=<<:%=:3<:%@;,:==:<;===*@X+$*%%%=;=%*=:;*%;<<:%%=3,=%=;;==;:=%%=,<<<233<<<<333333<<333<<33<*$@@$$$$%%*==*%$@$%=:<3<<<<<<,;%*=:<<<<<,;===*%%%**%@@@@@%===;:====:<3<<:,<<<<<<33<<<33<;%@@@$%%%%=:<;==%@@@$=<<<<<<<<<<<<<<<<<<<<<<=$XXX+@%==**=::;==*%%%%%%%=;==:=%%$=:<=%@",
"+@%:=%%;==;=%%=;:<<:=*=::===::;;,,;%%==:<333333<<<<<<<<<<3<<333<<<:=%@@%=;:::=$@%%@+@@$;<33333<<<<<<<:;;,<43:*$%;:;::;%@@@@@%=;=***=%*:<3<<<<,:===,3444444<:%$@@@@$%**%$@@@@@@@%<34444444433<333334334433<<:=*=:,:=;::*;<<%%=<::,==:3,;=;::=*%%$@%=::===;;;:<:=%%$$%$%%<<:%*=::;;:;===;<444444444444444444444444443,%@@@$$$%;:=%$%$@@@@%:3433333<,::<<<::<44<;*%=:;==;=%@@@@@%;:===*%%=,33,::<443<344444<:%@@@@@@@@@%*:<3<,:=:<<33334333333333<<334333<<<3<<:=*=;:===:==%:<:%*=;=*%@=<<:;:<:====%X+$=%%%=:=%=:,=%$*===$%=<:=%=====::=%*;<<33333<<<<<333333333<<<33<=%@@%%$$$%%:,:-===:,<<3<<<<<<<:=**=::<<<<:::,==%%*%%$@@@$%*=====::=:<333<<,::=;<<3<<<343:%@@@@%%%%=::%@@@@@@$=<<<<<<<<<<<<<<<<<<<<<<:%+X+@$*::=*%%*=**====;;====*=:==*%%=<=$@",
"+$*;%%*:=%===*=;:<<:*$=:,=*=::==:>:%*;<<333333<<<<<<<<<<<<<<333<<<=%@@@@$%*;:=@@$$@+@@%:<333333<::::<,,<<33<=*=*=====*$@@@@$%*=***=::=;<334<:=*%*;<33444443<=*%$%%=:;*$$@@$$$@@%,3433344433<<33333333334443,=*=:::;:::==:,%$%=%=:**;<<>-=;::;=$@@%::;=====::<-=**$@@@$=<<:**=;;-=;====:<444444444444444444444444443,%@@@@@@@*;=%@@@@@$@*:4444333<:==;:<<<444,===;==***%%$@@@$%=*%%%***=:<3<<<333<<<444443,=%@@+@$%@@%=,<,,;%@%=:<3333333444333<<33333333332<:=%=;:===:;=%=::*%%%%%%%=:3<:;::=====+@%=%%=;;==:,,=%$%$$%@%;<=*%====;::*%*;<<<<333<<3<<333333333<<333<:*@@%%%$$$%:<<<>::<<3<<<<<<<<<<:=*==;:<<<::<3:=%%**%%%$$%%****=:<<;:<343<,:=**=<<<<:<343:%$@@@%%%%=:=@X@@@@@$=<<<<<<<<<<<<<<<<<<<<<<<=$@@@$=:<;=%$%%=;:;=:<<,;=%%*:;==%%*:*$@",
"+@%=%%%:*$%==:%%=<<:%@%:,=*;;;==::;%*;<3333333<<<<<<<<<<<<<<33333<;$+@@@@@@%;*@XX@@@@@@;<333333,=%%%=:<3343<==<:=%%%%%$@@@$%%==**=:4<::<44<;=%%%;333333334433<,;;:33:%$$@@%%%@%=33433344433333444443333444<,===;,:;:,:==::=%$@@%=:==:33,===::=%@@*3:===%*=;;=%=:=$++@%:4,;====;;======:<444447444444444444444444442:@@@@@@@@%*=*%@@@$$%=:<4443333:%@%*=,3444,=:<<=*%**%%@@@%$%%%%%%=::=:<4334<:==;,4444443<*@@@$%=%%=:,:*%$@@@@%,33333334443333333333333333<:=%*=:===:=**=::*$@@@%*:==:3,;;::=%==@#$%%=====-,:=%=*@+++X%;<=======;;=%%=;<<<<33333333333333333<<333<<=@@$%=%$@$=:<3<:::,<::<<<<<<<<<:=%%%=:<<<<<3<;*%%%*;=%****%%%;<<,;:<33<;===%=,33<:=,343:=%$@@@@@%==%@@@@@@@$=<<3<<<<<<<<<<<<<<<<<<<<,:;=%%=::*===%%:<<=@=<3<:==%%%===%$%==$@",
"X%==%%*;*%=:::@$%==*%@%;;**;;;==::-%=:<3333333<<<<<<2<<<<<<333<33<;$+@@@@@@$*&%%@@@+@%=,<333333<,=%%*=;:<33<==:<:=%%%%%%@@%=*=**=:<4<<<34<;%%%%=,33333344<<<<<:><34<;%$$%%*%@@%:44433333333333334433333444<:====:,<<,;==;::*$$@@%::=&:,<:==:;=%@%=<;====*%%%%%**$@@@$=::;==%%*===%**==:3444447444444444444444444443,%@@$@@+@$%&=;=%%$%:<<34443344<:%%*=;:<44<;:<3,=%%**%%$$*%*=**==,<<;:<4<<:;*%%:<4444443<%@@@@$%$%*:;*@@@@@@$=<3333333444333<<333333<<<33<:=*%==;==;=**=:,=$@@@@%%%%*====::;%%*%%%%%=;====*%%@%$+XXXX*:<;========*%%=:<3<<<<<<<33<<<<<<<<<<<<<33<<;%@$%=*%@%=;::;===;:=;:<<<<<<<3<:**&*;,<<<<<<:%@$$%====%%%$%*,<3<<<33<:=;===:<43<:;,343<<:%@$%*====$@@@%%@@%;<<3<<<<<<<<<<<<<<<<<<<<<<:=%%=:;**=;%%=<:=@=,<:%@%==%%=;%%%==%@",
"X%=*====**:,:=$%%%$$%@=;=%*=;;==::=%=:<3333333<<<<322233<<3333<<3<:%+@@@+@@@$%=;=%$@%=,<<333333<<,=%%*=;:<3<::<4<:%%%%%%%%==*%%%*:<433343:*%%%%:<4333344<:::::;:<<<:=%@%%==%@@=,44433333333333334433334444<,====;:<<:====:,=%$$$%=:;%%=:,:=:===$*;:===;=*%$$$%%%@@@@$*=%==*%%%==*%%*=;<4444444444444444444444444443<=@@$$@@@@$%:,<:*%*<33344443344<=%*==;:443,:<43;%@%%%%%%=*%%%%=:33<,<<3<:==%%=<34444444,*$@@@@$@$*:=$@@@@@@$=<3333334444433<<333333<<<33<:=*%%*=====*==::=%@@@@@@@$%%%==:::*%*==%%%=;==*%@@@@@@XXX+@=::=*%*====%%%*=,<3<<<<<<<33<<<<<<<<<<<<<<<<<:%@@%*%%$*===========;:<<<<<<<3<:==**=:<<<<<<:%@@@$=;:=%$@@$*<333333<:=====:<443<<:<<3<<<,=%*=::=*%$@@$%%@@*:33333<<<<<<<<<<<<<<<<<<<<:=%%=;=%*=;%%*::*%*=;=$@%;:=%===%%%==%",
"@%%%=;==*=<<;%==%@@@@%;:***=:;=;:=%%=:<4433333<<<<<<<<<33333333332:%@@#@+X@@@%;<<:=@*:33<<33333333:=%====<342<344<&$@@@%====%@@@%:344444<;%%%%=<44444443:========;;=*%@%==%$@%:<444443343333334444433444443<======;:===;==:=%$%%%%;;%@@%,:;==;:=;:-=====%%@@#%%%@@@+@$$@*=*%%%=*%%%*=<44444444474444444444444444443<=@@@%%%@@$%:<3<;**:<<<<3443333<,=%***=<4443444:%@@@@*===%@@@%;<44333<<:=***=,344444444<;*%@@@@@%==%@@@@$@@@%:333444444444433443333333333,;**%%%=*%%%===*==%@%%@@#%%@@%==;:=*=:;=%*====%@+@@XX+@@@@%%*%&&%%%==%$@%*;<3333<<<<<33<<<<3<<<<<<<<<<<:=%@@$%%$%=;==%*=;;=;:;;::<<<<<<<,=====:,<<<<<:%@@@@%:,=%@@@@%:<33343,:=*%%=<<3333<<<<::;;;;=;,<:*%%$%%=*$@@;<43333<<<<<<<<<<<<<<<<<<<<:=%%===%*==%%%;;=%$@@@@$%=,<=====%$*=*",
"@@%%===**===%@%%@XXX@=,,**=======*%%=:44433333<<<<<<<<<3334444333<<*@@@$%@@@+%=<<,=%%=:::,33333333<;%%%%=:<444443,%@@@@$=:;*@@@@%:444443:==***:<4444444<======;-=**===$$%*%@@%:<<34443343333334444433444444<:===*==:==%=*%%%%$%**%;-%@@$=::==::===*;;==*%$@@@%%%@@+X@%%$=:=%%%%**=*=:444444444444444444444444444433<:%@@%==$@$%=:<:====;==:<433333<<;%$%%=:<444444;%+@@@%=;=@@@@$=<34333<:=%%%*:<44444444<<<:=@@$%*==*%@@@$%@@$=<333444444444433444333333333<:**%$%*%%$%==%%$%%@%%%@%%$@@@%==;;==========%$@@@@+@@@@@@%$$%%%%%%==%$%%=:<3333<<<<<33<<<<3<<<<<<<<3<:%%%@@@@%*=;=%%%%%===;:;====,<<<<::==*===:<<<<<=%@@@@%=:*$@@@@%:<3333<:;=*%=:<<33334<<:;::;;::;::;=*%$%==*$@$:<43333<<<<<<<<<<<<<<<<<<<<:=%%*==%*==%%%=:=@@++@$%**=,:=*==%$%%*",
"%%%%====*%$$@@@@@@++@=::****====*%%*;,443333332<<<<<<<<<<34444333<<=@@@%*%@++$=;::=*=====;<<333333<:=%%%*;,444443:%@@@@$=:;%@@@@%:34444<;==*%=:,<444<,:;=;:;==;=%%%*==%%%$@@@%%=:<4433333333334444433433444<:===*==;=*%=%%%=*%%%*%==$@@$%-:;=::;=%%;:=*%%@@@@%%$@@@X@%%%=:;=%%%**==:<47774444444444444444444444443<<:%@@%%%@@%*======;====;,43333333,=%%*=;<444443;$+@@@%;:=@@@@$=<3333<<;=*%%;<44444444<::::=%%=:;=%%$@@$%%@@%:<434444433333333344333333444<,==%%%**%%%=;=%%=%@$%%@%*%%$@$%=;:=***==:=*%$@+@@@@@@@+++@@$%=*%%%**%%%*:,<<333<<<<3<<<<<<<33<<<<<<<,;%$@@@@@*=;;=%$$%%%*==;;==**=:<<,;==*%%%=:<<<<,=@@+@@$%*%@@X@@$=<3343<;;==*=:<<33344<:::::::::=======%%*=%@@%,343333<<<<<<<<<<<<<<<<<<<<:=%%%*=====%%%=:;@+XX+@$$$%===*===%%%=",
"========%@X+++++@@@@%===*%%%%===%%%=:<333<<<332<<<<<<<<<<34443333<<:%@@%*%@+@%**=**=;=***=:<3333<<<<;*%%==:<3444<:%@@+@$*:=$@++@$;<4443:=**%%*=:,44<:=%%*;:;===&$@@%=;==%@++@@@@=<44333333333334433334334444<;==*====*%***===%%%%%**@@$%@=::;=;:=%%=:;=%@@@@+%%%@%%@@$$%=;:=======,<444744444447444444444444444443<:*$@@@@@@%%==*%%=;:=====:<<<33333,;*%===:<444<<=@+@@@$=;=@@+@@*,<334<:===*=:34433443<:;======:<:=%%@@%**%@@*<34344444333333333333333344443<:==*==*%*==::=*==%%%%@*=%%%$@%=;:;*%%*=:-*%@X+@@@$@@@+XX@@$=;=*%%%%%%*=,<<<333<<<<3<<<<<<<33<<<<<3<;*%@@@@@%-::=*%$$$$$%%%=====%%=,<:==*%%%%*-<<3<:%@@++@@$$@@+X+@@%,<<43,;;====:,<34333<;=::::::=%$%*=:;%%%%@+@%:<33333<<<<<<<<,,<<<<<<<<<<,=%%$%===%%%%%=;=%@XX@+++@@$$%*===*%%=",
"===:=*==%@X++++@$@@@%%%%%%@@%==%%%%=:<333<<<33<<<<<<<<<<<<4443333<4,=@@$%%@@%===%%*;;;=;;=;<3333<<<,;=*%==;<3444,=@@+X@@$%$@@oX@@=<444<;*%%%%%%=:44:%@$%*=;=%%%@@@@@%=;:=%++@@@@%:<4433333333333333<<44444444:=%=====*%=;;==*$%*%$%%@@%*%=,<===::===;;:*%%@@@===@%%$$$%==;:,:;;:,<44774444444444444444444444444444:%@++++++@*=-=%$@%=;===;===,<3333<;=**===:<444<:%@@++@@%%@@@@@@%:<334<;***%=:<34334<:;-;:==::;====%%$%===%+$=<333344444333333333333333344433<:=****%=;::;=*====%$%=*%%%%%=;=:;=====;-=*@@$@@@%@@@@@+@@@*::=%%%%%*;,<<<<3333<<<3333<<<<<<<<<<<3:*@@@@@$%$=:=*%%%$@@@$%%%*==;=@%=<,==*%%***=:<3<:%@@@@@@@@@@+++@@$:<<<<:==**%*=;<343<:===::==;=%@@@@%=:==%@@@@$%;<<333<<<<<<<<<<<<<<<<<<<<<;&%%$#%%$@$%**%%=$@@@@X+@@@+@%=;;==**",
"%%=:=**%@X+@@@@@@+X@$@$%:%%%%**=%%=:<3333<<<333<<<<<<<<<<<333333<<:=$@@@@@@%==*%$@%=====;;==::<33<,=%*%%*==,<444:%@@+X@@@@@@@+@@@*:443<==*%%%&*=:4,=@%*===**$@@@@@@@$%=:=$@@@X@@@*:443333<<<33333333<34444444<:==**===::;=%%%%**%%;:=%@$@=<4:===::;==:<=$$%%%:<:$@$$@$%===*:<<<344444444444444474444444444444443<<=@+++++@%*===$@+@@%=**=====*=<34<:=%%%%*==,444<=$@@X+@@@@@@@++@$;<334:=%%%%==:<<3<<=%%=::;--;=%%&===%$%%%@@%;<3333334443333333<<<333<<3433333<,::::::<<::=%$%**%%=:,:=*%%;:=;;=======-=$@@@$*=%@@@@@@@$*=:<:;==;:<<333333333333333<<<<<<<<<<<3:=@@@@%*%%*==*%%$@@@@$@$%%*=:=$@%=;==***=%*=;<<:*$@@@@@@%*%@+@@@@@;<<<<:=**=*===<33,;==;;;==*=%%%$$@%=:::=%$@@#%=,<<<3<<<<<<<<<,<<<<<<<<<<<:=%%@@$%$+@%*%@@%@@+$@@+@@@@@@%==;=%$",
"%%*=**=$@+@@@$@+++X@$@%=:=*%%*====:<3443<<<<333<3<<3333333333333<,*@@@+++@%*==%@@@@%==%=======,<3<:=%%%%%%=:<433;$@@@X@@@$@@@@@@+%;<43,==*=%%%==:,=%@*=;=%%%@@@@@@@@@%=;*$$$$@@@@%:443333<<3334334433334444443<,:;=;::,:==%$$%%%%=,<<*$@@*,4<;==::;==:<=%%%%=<3,%@@$@$%%=*%:<44447444444444444474444444444444443<;%@@@@@@@*;;=%@XX@@@%%%%====%%=<3<;=%*%%%%=:343<*@@@X+@@@$@@@+@+@=:<3<:*%%%%**=:<3<=%$%=;;====%@@$%==&%%$@@@$=:<33333444333<<33<<<<33<<34433333<<<<<<<<:=;=%@@%%$%=<3<=*%%=;==:;===;====%$$$*:,*@X+@@@@$**;,<<,,<<333333<<<3333333333<<<<<<<<<<:*@@@%%*%%%==%%$$@@@%@@@%%%:,:%@$%==;====*===,:*$@@@@@#$=;*@@@@@@@*:<<,:==*====;<<<===::;==**%%$$%%%*=;>>:*%$##$%:<<<<<<<<<<<<<,<<<<<<<<<<<<:%%$@%%$@@%*=$@%%@X$$@@$$@@@@%==:=%$",
"***=%*=$@@%@@$@@@@+@$@$*:::=*===;:<3444<<<<<33<<3<<333<33<<3333<<:@XX+XX+%===*@X+@@@%%%%*=;=*$=:<<:==**%%%=:<33<=@@@@@@@%=%@@@@@+@%:<<:=**=%%*===%%@$=::%$$$@@@oX+@@$%==%@%**%@@@*:443<33333333333333444444444444<<343,===%%%$@@$=<43=%$@%:4<:==::==;::-=;=*%,<,%@@$@$%$%%$;<4444444444444444447444444444444444<,%@@@@$%$%*:;=%@X+@@@$%%%%%=:=%%:<<:===*%%*=:<3<;$@@@@@@@%%@@@@@+@$;<3<=*%%%%%*=;<<;$@%====%%%%@+@@@*;==%@+@@@$%:<3333444333<<<<<<<<33<33443333333333<<:=*==$@@@@@%;<4<;=======::===:======*%=<3;%+@@@@@$%%%;<3333333<<<3<<<3333333<<<<<<<3<<<<<=%@@%%%%$$%==%%$$@$%%$@$$%*><:*$$%%=::=======;*#@$%%@@%%;:=%@@@@@$$*:,::;===;==:<<;%%-<:===**%$@@@%%=;;:::=%%$@@$%,<<3<<<<<<<<<<<<<<<<<<<<<<:=%%%%%%%%%=:=%==%X@@@$%$@$@+%*=:=%%",
"=;=%*=:$@@@@%=%@+@@@@+%*=,<,:::<<<3344443<<333<<3<<33<<33<<3333<:%@++@@@@===*%@@@@@@$%%%%%=::%%=:<,;====%*=;,<,=%@@@@@@%=,=%$@@@@@@%;::;==***=;=%@@@$;,:%$@@+@@@@@@@$%==%@@$%*%@@$=<3<<333333332<<3334444444444444444<=%%*$$%$$@%=<3<*%%=%%=:;==::====%;,:=%%===**%$$%==:;=,34444444444444444447444444444434443<:%@@$%==$$%;=%@+X@@@@@@$$$%=:;%@%=::====*%==:<,=%$@@@@@@%::%@@@@@@@%;<:==*%%%%*=:,:%@%===%%%@@$$@@@$%=;;=%$@@@@@=<3333444333<<<<<<<<3<<<343333333333<<<:%%%%@@@@$%=:34<:;:,:=**=:;;;=*%%=::=*=::;=%%@+@@@@@@%,3333333<<<3<<44333333<<<<<<<3<<<<:%@@@@#@@@$===%$@$@@@$@@@$%%:<,=%$$%*;:;=**===%%$%%==%%=;====%@@%%%%%%::::==;==;:;=%$*:<:==*%$$@@%$$%=;::;=%===%@@%:<333<<<<<<<<<<<<<<<<<<<<<<:;*%%%%%*=:=%%%%%%%@@%%%@%$@*======",
"=;=%=;:%$@@%;,=$+@@@@@%*=:<<<<<<333333333333443<3<<<3<<33<<3333<;$@@@%%%@*==*$@@@@@@@@$%%%=::=%%=:::====%===::=%%%@@@@%*;:=*%$$$%$@$%==;=*%*==;*$@@$%:<,%@@@+@@@@@@@@%==*@@@@%$@@@*:33<333333332<<3334444444444444444<=%**%%%$%**=:::*%===%%====;;=**%%=::=*%*=====%%=<<<<<34444474443<<34444447444444433334433<;%@@%*%*$@$;=%@++@@@@@@@@$%=::=@@%*=======;;::=*%%%$@@$%=;;*%$@$$$@@%=;==*%%%%*===%$$=:;=%$$@+$@@@@%*=;::%%$@@@@%;<<33444433333<<<<33<<<333333333333<<<:====*%%%=;::,::===::=%%=;;===%%%=;=**==*==:=%@$%*%%%=<33<<<<<<<<333443333333<<<<<<<<<<<<=%@@@#$@@@=;;=%$%@@@@@@@$$%=,<:=%%%%=:==**%%%%%**===%%=======%%%====%*=::====::=*%%@*<3:=%%$@$@$%$$%*==;=%$*==%@@$;<333<<<<<<<<<<<<<<<<<<<,<<<,:;;===:::=*%$$%%$@$=:=%%$$*::=;==",
"*==%===%%%$=<3:%@@@@@@$%%=:<333333333<<<3333443<<<<<3<<333<<<33<=@+@%*=%@%==*$@+@@@+@@@$%%*:<:%$%%=;:==**=;===%%%%%$$$*======%%%=%%%%%%==*%%=:=%@@@%=<3,$@@@+XX@@@@@@$===$@@@@@@@@*:33<<<<33333<<<<334333444444444444<:;;;;=*%=;=%*==**===*%==%*===%%%%*==****%%===*=:344444444447444<;;<444444744444433<333333,=@@@%%$$@@#==%@++@@@@@++@$%*:,=@@@#%=;;=*=;===%*==*%$$%======*%%%%%$$%*==*%%****%@@@%:<:*$@@@+@@+@@%*=;:;%%%$@@@@*:<33444433333<<<<333<<<33333443333333<,<<<,;=;:,:;===*%%**%$$%===*%%$%%*%%%*%$%=:=*%=:,,::,<33<<<<<3<<333343333333333<<:::<<<<=%@@@@$@@@*;:;%%%$@@@@@@$$$%:<:=*%%%=:=***%$@%======%%%===*==*%=;=::=%*=;===;::%%$$$=<3:%%%@@$$$@$%%%%%=*%@%%%%$@@=:33<<<<33<<<<<<<<<<<<<,<<<<<<<<,,,,:==*%@@@$@@%:<<=%%%*::=;==",
"===%%%=;-=%;,<,=%$@@@@@@@%=<333333333<<33333443<<<<<3<<333<<<33:*@@%**%%@@*=*%@@@@@@@@@@$%*:<,%@$$%=::=**=;=*%%:;==%%%=;====*%%=;===*%$%%%%%=:=%@@%=;<<=@@@@+XXX+@@@$%;;=$@@@@@@@$=<43<<<<<3333<<<<3333333444444334444<<<<4<:*==;===*%%==*%%==%%%*=*%%%%%%%%%%%%***==:<4444444444744<:==<44444474444333<<333333:%++@@@++@@%==%++X@XX@@++@@@%:<:%@@@@=::=**==%$%;,===%%======*%%===%%%@$*=*%%*=*%$@@$%:3:*@@@+@@++@@$*=;;*%%=*%@@@=,<33444333333<<<<333<<<333334433333333444444<:;===%%%$@@%$$$$%*==*%%$@@%%%%%%$%%*%%=,<343<3333<<<<<3<<<<33433333333333<=%%=;:<=$@@@@@@@@%=;;%%%%$@@$$%%%%$=::=*%%%==**==%@@=;;=;;=%%**==%%%*%=:;:::%%*====:::%$@@%:<<=%%%@@@@@+@%%%%=;*%@@@$$@@@%:33<<<<33<<<<<<<<<<<<<<<<<<<<<<<<<:=%**%@+++X+%:<<=*=========",
"==%%@$*;=%%====::=%$$%%%%%=<3333<<33333333<<33<<<<<<3<<3333<<<3=%@@%%%$@@$==%@@@@@X@@+X@@$%:<<%$@@$*,:=%%==*%%;,:=:*%%**===*%%%*:====*$$*=%%*==%@@%=;<:%+@@@@++X@@@@%=;=*$@@@@@@@@*,<::;==:<<33<<<<33333<<344444334444433443,=*==*=*%%*==***==%%%*=%%%$$%%$$%%%%%%%%*=;<3444444447<:;;=;<44444444444333<<,<<33<:%@@@@@@@@@%;=%@+@@XX++X+@@@%=,:*$@@@*:,=**=%%$=:<=;=%%**%***&%%%==%*=%$%%%%%===%@@@%=<4:%@@@++@@@+@@%%==%@$%%%%@@%:<334443333333<<<333<<<33<<<4443344433444444,==**%%%$@@$%$@@@$%===%$@@@$$@@$$@@$%%%=:<3433333333<<<3<::,3343333333<<,:=%@@$%=::===*%%%%%=;::=%$%%$@$$$==%@=::==%%%*=%*==$@%;:==::=%*=***%***%=::::<=%%*===::=%@@$=:<:=%%%@@@@$@$%%%*=:=%@@@@@@@@%:33<<<<33<<<<<<<<<<<<<<<<<,><<<<<<:=@%%#@+++@$*:<,;=;::=%%===",
"**%$@$%=%%%*%%*=:;===;;;;;:<<333<<<334333<<<<<<<333343<33332<<<=@+@@$@@@@%=;*@@@@+X++XX@@@%=:<=%@@@%::;=***%%=,,:;,=%%%%*=**%%%%:;==:=%@%==%%*=%@@%=:<=$@%%$@@@@@@@@%====%@@@@%%%%*:=*%%$%=:<<33<<<3<<23<:,<444443344444443<:=****=%%%*==***==*%%*=%$%%%$%%%=*%$$%%$%%*:<4444<4444:==;=;<444444444443<<<:==::,,;%@@@@@@@@@%;;=$@@@+++X++@@@$%::=%@@@%=:===*$$*,<:=:;%%*%%%%%%%%%==*===$@$%%%=;=%@@%*:<<;%@@@++@@@X@@@$==*$@@$%$@@%*:<44444444443333333<<333<::443334444444443<:*%%%%%%%@@$%$$$@$%===%$%%%$@@$%*$@@$$%%=:<33<<<<<<<<<<<>=;:<3333<<33<<:=%$@@@@@$=:,,<:-;===::,:=%$$$$$$$$===@*;:;=%%%**%*=*%$=:;=;::%===*%*====*=:,;:<:=%%=====*%$@%=:,;*%%$@@@@$%%%%%=::=%$@@@@@@$%;<<,:::<<<<<<<<<<<<<<<<<<<<<<<<<<<:=%*%%@@@%*===;;=*=::*%%%=;",
"%%%$$$%%%%%%%%%%%%=:<<<<<<3333333<<<34<<322<<<<<333343<333<<<<<*@+@@@@@@@$=;;%@@@@@@++@@@$%*=,:=$@@%=;;===*@%;<:::,=%%%%%%==**%%::=*::=@%%=%%*=%@@%=::%@$==$@@@@@@@@%==;=%$%*%=;:;==@++@@@%*;,<3<<<3<<<3<;=:<444433444444<:;===*%*%%=%%=****==****%$$%=*%%*=::*@@$$$$%*=,344<:<443;==:;:<444447744443<<:=@@%*=;=%$@@+@@+@$%=:=%@@@@@@@@@@@@$%=;;*@+@$%**==*@$;<,;;:;%%*%%%%%%%%%=:=*=;%@$%%%===%@@%=:<:%@@$@+X+@@X@@@%=;;%@X+@@@@@$:<4444444444433<<<<33333<;;<<<33444444443<:=%%%%%%*%@@$$%%%$$%%*%%$&==%#%%=:*%%$$$%%*;<<<<<<<<<3<:;=*=:<<333<<33<<;%@@@@@@@@@;<33<<<,:=:<3<:*$@$$$@@@=;=$%=:;=%%%%=**==%%:;==:,:%=;:%%%===;==:<;;,<;%%==****%%%%:::=%$$%%$@@$%%%$*;:;=*%$@@+@@$$=:;==&*:<<<<<<<<<<<<<<<<<<<<<<<<<<,:;::=*%%;::*$%%%@$%%%$%%==",
"=%%@@@@%$@$@@@%%%$%;<<<<<<<333333<<3<<,<33333333433343<3<<<<<<<*@@@@@++@@%=;:*$@@@@@@@@@@@%%=::=$@@%***==*%@=,<=:,:*%%%%%%**==*%:::==;:%%*=%%%%%@@%==:%@%==%@@@@@@@#*:,<:=*;:::,<<:%@++@+@$%=:<33<33<<34<:==:<<444444444<:=====*%===;===**==****==%%%%::======*%@@%%%%=:<34<:=,33,:;:::::<34444444443<:*%@@@$@%=:;=====*%*==;=*@@@@@@@@@$$@@%*==%@@@$%%%**%@%,<:=::=%*=*%%%%%**%=:;**==%@%%%%=*%@$%=:,:$@%%$@@@@@@@@@*=;;%@@@@@@@$*,34444444444433<<<<3333<::=;::<<34444443<;=%%%%*===;==*%===%$%*=*$$=::=%%===%%%$$@@%%=,<<<<<<<<<,=**==:<<333<<33<<,=$@@@@@$$@*:3333<:=:<<<<:=%@@@@@@$=;====;;==$$%=***%%%;===,,;%*;:=*%==;:==:<:;:<:=%=;=**%%$%*:::=%%*=%$$$%%%$$*=::::==;;*==;=;=%%%$%*;:<<<<<<<<<<<<<<<<<<<<<<<<<<<<<<<:===*%$$$$@$%%$$%%==",
"=*%@%%%%$$$%%@$%$$%=;:<<<<<333333<<<:::<32334433433333<<;==;::,*$@@@@@@$%==;:=%@@@@@@@@%%$@%==:=%@@$%%%*==%%:<,=:<;*%=****%*::=%;,>===;=*%=%%*%$@$*===%@=;=%@@@@@@@$=:<3<;=;<<<<4<;$@@@@@@$%=:<33333<<33<:;==;:<444<<343<:*%%*%%%====:==%===**%%==*%%%:::=*===*%@@$%%%=:<44:=*:<<::::;;==:<444444444<:%$@@@@@@@*:<<<,,:;==::,:=$@@@@@@@@%*$@%*==*$@@#%%%**%%=<<:=<:=%===*%%%===%=::=%=:*$%%%%**%@%%=::=@%%=%@@@@@@@@$*===@@@@@@@@%=<34444444334433<<<<3333<:;====:<344<<443,=%%%%**===;;====;=%$%%*%$$*=;*%$*==%$$$$@@@%=:<<<<,,<<<:=**==;,<3333333<<<:*@@@@%%%$%:333<:=;,<<<<:=*%@@@@$%=;;:===:;=@$%==*%%%%===:<:=%*=::=**=::===<,:=,,;%=;===*%$%*;:==%%;;*$$$%%$$%=:,<<,=;,<,<<<,=%@@@@@%%=:<<<<<<<<<<<,:,<<<<<<<<<<<<<33<:=%%%%$@@$$%$$$$%%*=",
"=%%$==*%%%%=*$%%%%%%%=:<<<<333333<::;==<3223333<33333<<:%$%%%*;*%%%%%=***::::=%@@@@@$$@%=%@%**==%@$$%%*=;=**,<:;,<=**===***=::=%=,<;====%%=%*=%@@%==*=%%=;=%@+@@@@@%=,33<:==:3334<=@@$$#@@$%=,333333<<<<<:::===,34<:<<43,;=%%%%%%=*%*:=%%=:*%%%%==*%%*:::%%*=*%%$@@%%*=,34<;*%=<<;::;====:<444434444,=@@@@@@@@@%:<443<<;=:<3<,=%@+@@@@@$*=%#%***=%@@@%=%==%%:<:=;<:=*=;=*%%%;;=%*;<=%%:=%%%%%%%%$%%=::=@%==%@@@@@@@@%*==%@@@@@$%$%=,<3<<<<33333333<<<333<<<:;====:<33<><<43,=%%%%%%%%%=;=**===%@$%%%$%%%=%$@%==$@@$@@@@%=:<3<:;:<<,:==*%=;:<<33<333<<<<:%@@@%=*%%=<3<,==:<3333,:=*%$@%%==;:,;=*===@@%==*%@$%*=;<<:%%==::-=%=;::==:<:=:::%=;====%$%=-===%*::*@@@$%$%*=:<44<;;<33444<=$@@@$$@@$=:<<<<<<<<<<:=;,<<<<<<<<<<<<<<,=%@@$%%$$$%%%%%%$%*=",
"=%%%::;****==%%%%%$@$%;,<<<333<3<:=*=--<3333<<<<<3333<-%@@@@@@%:<<<<<<:==<<<,;*%@@@@$@@*;=@%%*==*@@$%===:*%:<,=:<<=*=;;=**=::=*%*:<<==**%%%%==%@@%==***====*@XXX+@%=;,43<<:=*:<34:%@%=*#@@@%:33333333<<<<:::=*=:33,=;<44<:=%%%%%**%%=:=%=:;%%%@$%%%%%%=::%%%%%%%$@%*=:<443:=%%=:;*;;=*=:=,34443,<<44<:%$@@$%%$@@*,333<:*=:344<=%@@@+XXX@=;*%%*%%=%$@$%;*==@=::==:<=%%=;==%%=:;=%%=<:=%**%$%%%*%$$%*;:;%$*==%@@@@@@#%%*===&&=*%%=*%*:::====<3333333<<<333<,:====;;:,<<:=:<43<=%%%%%%%%%==%%%==%$@@$$$$%%%*%%@$%*$@@$@@@@%=,<3<;==:,:===%%*==:<33<<3<<<<<<=$@@%%%%@*:<:=*:<33333,:=;==*====:<<;==;=%%$%==*%@$%*;,3,=%%=;;=%%$%=::=*=<<:=;;%=====*$%*;=-====::=@@@@%%%%=:344<:;:<3443;%@@$$$$@@@%-<<<<<<<<<,:&=;:,<<<<<<<<<<<:=%$$$%%*=*%%%%%%%%%%=",
"=%%$=;:*%%=*%$%%%%$@@%-,<<<<<<<3<:**=;;<3333<<<<<<<<<=%@@@@++@@=,4<<<<:=:<33<;%@@@@@@@@%=;%%**==;%$%%*==;*%::;=<<:%=;:=*%%=;;=*%%=<3,;=&%@$%==%@@%==**==:;==%$@@%%==:<4433<;*=:<3;%@%%%$@@%:<4444443333<<:;====;<<:*=:<43<;===&%%%%%%%%%%=*@@@@@%%@@$$%%*%%$@%%%%%%;:,,,<<:=**=======%==;<44444:;:443,=%@@@%==%$%:33<:==:<344<=%@@@@++@%*==**%%%=%$@$%*%%%@*;==:<:=%*;=*%%%=:;=*%=:,:=*%$@@%%=%@@%=;:=%%=;=%@@@@@@$%=:,<<==;>::,,,:=%%%%$%=:<44333333333<:========:<<;=;<33<:===%%%%%%%%%%%%%%@@@@@@@@@@%%@@@$%@$$$$%*=;:<<<:=%&-::==*%%%*=:<3<<<<<<<<<<:%@@@@@@$%====*>23<<<<,:======;:<<<<=**;=*%$%===%$%%=,<<:=%*===%$$$$%;:;==:<<===%%*=**%$$%=====:::==%%$%%%%*=:<43<<:;:<443=%%**%%$#@@=:3<<<<<<<<,;**==:,<<<<<<<<<:*$$$$$%**====**==*%%%%",
"=%$%%=:%%%=%%@$%%%%@@%;<<3<::,<3,;**===:<333<<<<<3<<:%@@@@@@@@@%:43<<:==:344<;%$@@@@@@@*=;*==*%=;%%%%%**=%%:==;<,=%=::*%$$%===*%%=:4<:=*%@@%==%@@$===%=;<:;==*%*===;,<3333<:=%=::=$@$$$@@$=<34433343333<,;==*===,,;%%=,<3<:::;=%%%%%%$%%%%%@@@+@@$@@@@@$$$$$$%%==%=::::;::;=**=======%%=;<44443;=:444<:=%@@%==%$$:<<:===<3444<=*%$$@@@$%*=;==%%%=%$$%%%%%%@%===,<;*%=:=$@@$%====%%;<<:*%@+@$*=%@@%=;==*==;=%@@@@@@%%=,<33:=;<<<343<*@@@@@@%=:<<333333333<:====*====::=*=:<<<<:::=%%%%%%$$%$%$@@@@@@@@@@@$@@@@@$$%%%%*=::,<<,:*%%=-=%*%%%**=,<<<<<<,<3<<<<=%@@@@@$%%====<33<::::;=%*==;:<343,=*%==*%$%=-=%%*=:<<,=*====*$@@$@%=:;==;:<:=*%%%***%$$%*==*=:::;==%%%=%*==,<433<,;=:<<<=%%==%%#@$%:<3<<<<<<<<,;=**%=:<<<<,<<<<;%@@$%%%%%=;;===:=*%%%%",
"%%@%$&-%%%%*%@$%%%%$$%:<3<,==;<<,;==*===:<<<<<<<<33<;%@@@$%%%$@%;33<,==:<443<:=%%%$@$%%==-:;=%%*=%$%%%%*%%%===,<:=%=:;%@@@@$%===*%=<3<:=%$@%==$$%$===%=:3<<<:==::;=:<<,,<<3<;$%%%%$@@+++@%=<44432333434<==**%==*==*%%=:,<<<,,:====*%%%%*$%%%@@@@@@@@@@$$@$$%%%=:;==:====::=%%%*======%%*=<44443:=;44432:=@@@%%$@$=;;===,<3334<::=%%%%%%*==::=%%%%$@%%%%%%@$%*=,<<=%*;;*@++@@%===%%=:<<=%$++@**$@@%=;===;:;==%@+++@%==,<34:;=,<344<;%@@@@@@@$%=,<333<<<333<::==**===;;=%=:<<<<,<,:=*=*%%$$@@@@@@@@@@@@@@$%%%%%%$%=====:,::=::=%%%==*%%%%%*=;<<<<2<,:,333<<,:=%$@@@%=::=*,33:=%%%%%$@%*:<344<:=*%===%$%=-=%%;<44<;**=;=*%$$$$@@%=;=*=:<<:=*%%&==%%%%%==%=:<<,:==**==;::<33343<:==:::%$$%%%$@@%;<3333<<<<<<,:==*%=:<<<:=:<3<;%@@$%%%%$%==%%=:=*%%$$",
"$@@%%%*%$%%%$@@$$%%==:<43<:===:<:;=**=*=;<<<<<<<<<33<=@@@$%==%@$=<<:=*;,3444<:===**%%%==::,:=%&**$$%%%*%%%*==:3<=*=;:=%@@$@$%%==%%%;<4<:=%@*==$@$%==%%*;3343,;==*%$*==%*:<3<:%==*%@@@@@$=;,34443<<<3434<=***%%%%%**%%*=:;====;;==;;=%*%%%**%%@@$%%@@$%%%%*%%=:<<:=*=*=;=::=%@@*=;====*==:34444<**:44433<;$@@@@@@%%*=*=:<333<<<:;====**=;:<<>=*%%%$@%==%%%%%*=:<<:*==:;%@@@@@$%==*%%=<<:=%@@$**%@@%=;=*=:::=***$$%%==;<<34<:=:<344,=%%%%$@@@$%=<333<,<<333<,===%***===**==,:::;;:===::=%%$$$@$%%$@$%%@@@%*===%%%=:::;-;==**;;=%$%*==%%%%$%*=<<<<3<:=:333<<<<<>:=%@%=:=%$=,<;%$$$%%$@@%:<344<:=====%$$%*-=*=,343:=**=;=%@@@@@@@@%=;=*=,3<:=*&%==%%$$%%%%=:<43<:===;::;:<<<3444<:====%%@@@$$@%:<<3333<<<<<<:=====*;,<:=*:<3<:*$%%%%%%%%**%%=;=%%%$@",
"@@@$$%%@$$$@@$%$$%=:<<<<<:=**=:,;==%*===:3<<33<,:<33<:*@@$%*=*$@%::=*=:<4443<:;========:,<<:=%%&%$%%%*=%%*==:<3:=%=;=%$@@@$$$%==*%%*,33<:*$===$@$%==%%*=<344<:=%$@@$%%@$=<<:=$*=;%@@%*=;:<<34443<:<3434<=*%%*%%%%%%%%%=:;==*====;<,:=**====*%@@%==$$%%==::===<43:=%%%=;=:,=$@@=::*==**=:<343<,;%=:444333,==%%$$$$%*=*=:333<:::====;===;:<3<:=*%%%%%*===%%%==:<3,=%===%$@@@@@@%*==%%*:<<:=%@%**%@@$*;*&=:<<:===*=====:<334<,:=:<33:*%%**%$@@%*:<43<,:<<333<,===%%**===%%*=::::======<<,=*%===**%%$%=*@@$%;:::%%=,<<,;==**=*:;*@@@%==%%%%%%=:<<333,==:<<<,::,<<<:*@%==%$$%;<;%@$%%===%%=:344<;====*%$$%*;===<44<:*===:=%@@@@@@@@%=:=*=:<3<:=*%==*%$$%%%%=:,443<:;====*=:::,<44<:====*%$@$%%%=<<33<<<<<<<<:=*====*=:,;*%=,3<,:==*%%%%%%%%%%%*%%$@@@",
"+++@$$$@$$@@$%*%%%;,<<,:::=%%=;:=**%*==;,43<33,;=<333<:*$@%%%%$@%*=%%;<344<<::==;;:;;::<34<:=%%%%%%%%==**=:,33<=**;=%@##@@@$$%===*%%;<43,=$===$@@@%==**=,3443:%@@%%@@@@@*,<=$@$=:%@@=,33<,,<<344,-:<434<=*%*=%%%==%%@$*::;;=====:33<:*=:<,:=%@$%==%%%%=<44:==<4<:=%%%*==,<:@+@:<,%%%%%=:<<,:;*%$;<4443<<<<<:;=&#@%==%*;<3<:*%%%@$%===::<34<:*%%$%%%===*%%*=,34<:=*==*@@@@@+@@@%==*%%=<3<:=%%==$@@$*=*%*;<43<:;;;;=*=:<<333<,==:<<:%%===%$@$*:<343<:=:<333<,==*%**=-==%%%*:,::=====;<43<=;:<<:=%$$%**$@%=<33<==:<3<:=*%%===::%@+@%==%%%*%=:,<<<3<:%%:<<,=%*=:<<,*$%%$$$%$*::*$%*=:<<:%%=<43,;=**=%$%$%=;;==<34:=*=;::=%@@@@@@@@%=::=*=<34<:=%==*%$%*=**=;:3443<:=%%%$%%%%=,44,=*;::%%%%*=:::<<33<<<<<<<<:=%*%%=**=:=%%*:<<<<::-&%%%$$$@$%%@@@@@XX",
"$@@@%%$$%%%%%=;;==::======*%@%=:=*%%%%*=,4<<<3:=*,2334<:%@@@@@$@$%=*=:<333:=*%%%%===::<343,:=%%%*%%%%==**;<44<:**=:=%@@@@@@@@%====*%=:3<:=%===$$@@$*=%%=:<44,%@$=::*%@@$=::%@@@$%$@@=<33;*%=:<44,=:<4343,-=====*==*@@@*,:=====*=:<4<:=:3443,*$@$%%$$%%:344:=%:<<;=%%%%=:<4<%@*<3<*%%%%%*%%%%@@@*<44432<::,<33<=@X%=%X@%,3<=$@@@+X+@$=,<333<:*%%%*%*===*%%=:<44,=**=;*@@@@XX@+@%==*%%*:<4<;%%=*$@@$%=%%*=<444<:===%@%:,,<33<<;*%;:=$$%*%$@@%;<4443<:=;<333<<;==%*=====%$@%,<,=*%%*==<44<=:<43<:*$@@$@@@%:3444,==,<<:=%%@%*=::%@X@=:=%%%%%=:<,,,<:%@*:<<;*%*=:<<,===*@@%=@%=:=*;==:<3<:*%=<<:;====%$%%%=;:;:<43;=*=:::;=%@@@@@@@%;:,;=%:<4<;==;=*%@$*;;=*=:3443<:*@@@$%$$@%:3<;%$*;:%$%:,<<<<<<3<<<<<<<<<,;**%$%%%%=%$$%=,::::::=%%==%$@$$$@@@@@@+",
"*%$$%%====%*;:<,;*======:=%$@%=:;=%%%%=;,3<<<<=%=<33333<:==%%%$@$=;*%=<33,=%%$@@@$%*:<3443:=***=*%%%%====:<43,=*=;:;*@@@@@@@@%=;===%*:<3,;%===$@@@$&=%%*=<3<=%%=,<<=*%$%=:*$@%@@$%%%=<3<==*%=<44<;;><344<:==***%=:;%@$=<,==**%%*=,<:%%==:<43:%@@@@@$%:<2<:;=%=::=*%%*==<44<==:<,=%%%%%*=*%%==%%%,4443<:===:<4<=@@%%@@@%*,,=@@@$@$%@@%=,<33,;%%%%%%*=====*=:<4<====::=%@@@++@+@%===%%%=<3<:%%=*$@@@%=*%*=<344<:*%@@@@%*%=:<3<:=*==%$@@$@@@@%:33333<:=*;:,<<<,:=*%*==::=$@$,<,==%%%*=,<,;=:,<33<:%@@@@@@=,43<,;==;::=%%$$%**::=++%::=$%%$$%======%$%:<<<:==::,<<<:::=@@%%@$*,,:<:;:<32<=%%:::===;=%$%$%=::;:<4<=%%=::==%%%@@@@@%%=::;=*=:<<;==:;*%$$%===*=:<44<;*%%===%%@+%:<:*%%%%=%@%:<3<,::,<<<,,<<333<:=&%$%%%%*%%$%=:;======*;,:;*%%%*%%%%@@@",
"=%%@%=,<<:%=,34<;%%%*==;,=%@@%;:=*%%*==:<4<<<:*%=<333333<<<:==$+@;;%@%:<3:%@$$@@$$#$=,444<:=%%==%$$%%=;==:<4<:**=:,:=@@@@@@@@%=;;==%%=,3<:*=;=%@@@$*=****,<;$%=<33<===*-::$@$%@+@===;<3<::;%=:44<:=;:,<<,:=%%*%%=::=%%:<,==**%***;;=$%%%*:34:*$@@@@%=:3,-===*===%%%%*=:<43:=;,,;*%%**=:::==:<:=*:<443<;=*=;<3<=%%%@@%$@@;:=@$%%%=:=%$%;<3<:=%%%%%%===*====:<<:=*=;::=%$@@++@@%*====%%%:<<:**=*$@@@$**%*=:<44<:%@@%$@@@@$=<<<=**==%@@@@@@@@=,333322,=%*==;::::=%%%*=:,:%$%,<<==*%%%=:::====:,<4:=$@@@@%=,<:;=*=====%%$%%%==:,;@$=<:*#%%$@%%%%%%*$$*,<<<:=:<<<<<:::;*@@$$@$=<<<3:;:<333:=$=;====;=*%%$%=:;=:<3:=%*=:;=%%%%$@@@$%%*=::==*:<<:=;::=%%%%=====;,43:%%%;,,;=*%@*:,=%%=%$%*%%:<3<:===,<<:::<333<:*%$$%%%**%$@%=:;==%%**=:<<<;%*=:==%%@@%",
"=*%@%;343<=;,44,=*%%%*=;<=$++%::=%**==:<34<<:=$%:<43333<<344<:$X@=%@@@%:<=%@@%%%==%@$=<44<;%%%%%%%%%%;:==:<4,=%%=;::=%@@@@@$$%==:;=%%*;<<:==;=%$$$%=;==**::*@*:33<,=;:,<<=@@@$@+$:<,,<44<<<==:443<;=**====%%==*%%:<<==,3<:==****%%*%%*%%@*:3:=%%$@@%=:<=%%===::*@$%%&;<44<=======:::<3444::,44<:=;343,=*===:3<;===$@%%@X*::$*==%;<<:%@%:3<:=%%%%$%==*=:===:<<=*===::=%$@@XX@%%==:::=%%=<<:====$@@@$%%%%%:<44,=@%=:;*$@@@*<<:$#%::*@@%%$%%%=,333322<:=%%%%%%%=*%%%**:,<;==<3<:==****===;=*%%=:3:=%@@@@%=::*$$%=::=%@@$%*==:<<:*;,:=%%%%%%%=*%%==%%=,<<<:=:<<<:====%$@$$@@%:<334:;:<333<;$%==%*=;=*%%%%=:==:<<====::==%%**%%%%%***==::=*;<3,::::=%%%%=::===:3<=%%:44<:=;;%;::%$%=%$%;=*,3<:=%%%:<<:=;<333:=%%%$*%%**%@@@%::;=%%**=:<3<:*;<<<:*@@$%",
"$@@@;<44<,===:<:=%%%%%*=<;$X+=,:*%%%*=:::;==%@%=<3433<:==:<3<:@@$%@$%#@*,:%@**==,<:*$%:<3,=*%*=%$%%%&;::=,33;======*%%$@@@@%%%%%;;=%%%=<<:%===%$@@%=;=*%*==%%;<33<<==:33<,*@X@@@@*===;:<3<<==:3332:*%**%%%%%%*%%%=;:==;<3<:=*%$$%=::=%%%$$*,:=%%%$@$*;=%$%**=:,:*%%$%==;==%%%=;,<3<<<4443:;,4443:=:44,*=:<,<<::;;%@@%@+@=:<:::=*;<<<:%$=,<;&%===%%==%=:;=;<<:**=:;==%%%$@@@$%%%%=::=%$*:<,====$@@@$%**%%;<4<=%*:<3:=%@@$*::%@@@%=%@%=:,<<<<3433332<:*%=;=*%===*%%*===::==:<<<:=%%%%%=:,;=**%%;:=%@@++$*=%$@%%*=::*@@$%%=:<<,======;:::::<<,===<,:==:<<:=*=======*%@@@@@@%:<33<:;:<<<3<:%@%=***=%$@%%%=:==:<,===::;==%%%====*==**=;::;==:3,:=:;=%%%%=;:=*=:<:*%:<43<;=:<,<<:%@@%%$%;:;:<<::;=*;,<;==,<<<<:==%%*%%%=%@+@%,,;*%%%%%;<3:==,<33<;%@@@",
"@@@$:<4<:=====:=*%%%%*=:3:%+%;,=%$%$%*==*%*%%@%:<4443:=%%=:<<:$%%$@%%@@%:,=*:===<3<:%%*,<:=*=;=*%%%%*:::=<4<===:;==%%%%%%%%%%%%%=;==*%*,<:%===%$@@%*=*%%*%$@%:333<<==:443<=@X@@@@$%*%*=:::;%=<33<>===:==%==============:<<:=%$@$%:<,=%%*%@%::=$%%%$$%=%$%%%%%:::==%%%%*===*%%=:<<,:::<34<::<4444,;=<4<==:<:::;===$@@%@@@=,3<<,=*:<<3<=$%::=%%*==%%%%%=:==;<,;**;::=*%%%%%%%%%%%%=;:=*%%:<<=*==$@@@$*==**=:3:*%:<44,;*%%%=:=$%$$@%%$%:<343<<<33333<:==;:,:==:::::::::;===%=::::=%%%%=:,:===*$$*;=%@@@@$*=$@$%%*=::=%$$%%*;::=*%===:,<<<<<3<<==;<<<:=;,<<:=*%%*=;:=%@@@@$@%:343<;=:,,,<<:%$%==*%&%@@$$%=:==:<:*=:,:===***==;=====**=:::==;<,:=;;=%%%$*===%%=:=%=,444<;=:<33<<=$@%%$$==;;:::,:=%=,<;==;:,,<>:=%%%%%%=*@X+%,,=%%%%%%=:,=*=:,<<<,=$@@",
"@@@%:<<=*%%=;=*%$%%%==:<4,=%:::*%$%$%*=%%%*==%*:<4443:*%==;<<,=:=%@$%@@%:<<:<:==,33<=%$:,:**=:;=%%%%=::==<4:===:::=***======%%%*==;;=%%:<:$=-;%$@@@%%%$$&#@+=,333<<==:343<=@X+@@@@%*%%%%%%%%:343:==;:<::=:<,::::<:;=%%*==;=&%@$%=,<<=%%%%$%::=$%%%%%*=%%%%%%%;:::=%%%%*=::;**=:::%%%%=,<<:,33447<:=<4<===:=*%==*%@@@$@@$:<333<**:<<4<:%%==*%$%%%$$$@%=:=*;<:=%=::;=*%%%====*%%%%%=::=%%=,,*%==%@@@$*==**=;<=%=<443,;=:*%;=%@%%%@$%%%:<43<:;:<4443<;=:<33:=;33333<<<<,:=%%%====*$$%=;,,;====%%%;=%@@@$%=;$$%***=::;=%$$%%==*%%$%=,<<::,<<<<<==:<<<<;=:33<:=*%=:<<,=%$@@$%=<33<<==;;=;,<:*%*==*%%%$$$$%=:;;<,;%=:,:=*======::;;===*%=::===>,:=;;=%%%$%%%%%%==%%;<434<:=:<333<=%@@$$@%*====:<:=%;<<:=%*==;:::=%%%%%%;=%X+%<,;*%%%%%=;=**====<3<;%$@",
"@@@$=;=$$%*;::=%@%%==:<<<:=;:;==;:;::,<,:=;:<:=*:<44<;*=:<<<::==*$$$$@$=,3333:=;<333:=$=;=%%%*=%%%%%=:=%=<<=**;:=*%*=========%%**=;::=%=<,%=;;%$@@@@$$$%=%@@=<3,:::==:343<;%++@@@%=:,:-&%%=:<44<=%;<44<:;<43,:::<3<:=*=**%%%%%%=;:<:***%*%%:<;@@#$@%;:%%%%=*%=;=*=*%%=:<443,:==*%@@$%%=<4<34,<47<:=<43:=%%%%=;:=%@@@@@@%:<3<<,**;<<33<*$%%*%$$@@@@@@%=:==:<;%%=:;***%========*%%%=;:=*%=:,*%==%@@@@%=*%%%==%*:3443:==<,,<=%@%%#X%=:=:<4<:%%*;<343:;:<344:==<<<<:;=;,<3:=*;;===*%%==;::;====%%%:=%@@@@=:;$%%**%%=:==%%%*==::;=%*;,:=%%=:<<<:=;,<<33:==<<33,;=:,<<<<;%@@@=>2<:;=**====;,:=*====*%%$%%$%=;=;<,=%==::=======;:::;===*%=;,===:<<::;=%%%$%%%*%*=%$%:<3<<:;=:24<33=%@@@@@%===*%%*%%*:<<<:*%%%%$%%%$$%%$$=;;%%=<<:==%%%%%==;;=%%%=:,=%$@",
"@@@@=*%@%**=::;%$%%%%=::;=*===;:<<<<333<,=;:<<:==,<4<;*=:,:====%%@$$@@%=<3333:=;<<34<:%%*=*%%%%$$$%%=::=:<<===::=%%*=;;::;:;==***==:;=%=,<==-;%%$@@@@$%%=%$@;<<;===%=;,,<<,=@@@@%=,<<<:=*=,<343:=*:<44<:=<<,-=**:::===>::;=%%**==:,:===%*%%=,;@@%%@=,:%%**=**=:=%%%%%=;34443<::=%@@@%%=<4443::<4:=;<44<:=*%=;,<<:%@@@@$=,<<:,:*%*;:<3<=$@%%%%%@@@@@@%=:=;,<=%%;:;%*=*===:;=;===%%%=;;=%*;,=*==%@@@@@%%%%%%%$=,4444:==<<<3:%@$$#@%=<:,<4,;==*=,34<::,4344<::<<<:=*%%=::==:,<,:;=*%===::====*%%%::%@@@@=:;$%*****===%%%%*=;,<,:====%$@$%=:<<<:,<,<<3,;=<<34<;=:::=,<:%$@@=,3:===%%=;;;=::=*======%$%%$%;;==<:=%==:;==*==*==;:==*==**=;,:==:<<:;==%%%%%%%%%%=%$*<3<::==%;<,:<<;%$@@@@=:,:;=%%%*:<3<<:*$%*%%%=*%$%%%%*===%=,<,:=%%%%%=::;=*%%%=;=%@@",
"@@@$=%@$%*%=;,:=%%$$$*==*%%%=;,<<,<<344<,=:,33<:*;<43:**==*%*==%$@$@@@%=<<<<<;==:,<43,%@%=*%%%$@$%%%=::-<<:===::=%%==;=::::====**==;=*%*,<;==;%%$$$$@%%*=*%$:,:***%$%===:<<=$@@$*<<<:<<;=:44443:==<33<<,;::=%$@@%====:33<<;=*==*=:::==*%*%$%;=@$%*@=::%%===**=::*%%%%*;3444443<,;%$$%*:<4443:;;:==:3444<,===:,<3<=%@@@%:<,;===%%%==:<3=$@%%%%%$@@@@@%===:<<=%=::=%*=====:;;;===%%%====%%=<====%@@@@@$$$%%%@$=<4333:==,344,=@@#$@$=:::,<,:::=*:<4<;:<4<<3<<,<<:=%%#@%*==:<<33<:=*%*=*;;====**%%:;%++@@=;=$%***=====%%%%*=;<<<<,:==%@X@$%=,<<<<<::,<,;=<<33<;=::;*:,<=%@$=:<:===%%=:::=;;====*===%$$%$%;;=;<:=%==:==**=*%===;=%%=***=;,:==;<<:===%%%%%%%%%%=%%*3<,===*%=;==:<:=%$@$%,<<,:=%%=:<<3<:=**;;=*=::====;:==*=%%=::=*%$@%%=,:==*%%@%*;%@@",
"%$%==*@%%%**=::=*%$$%*====*%=,<<;==;<44<:=,<333<==:44<=%%$@%=::=%@@@@@%;3,::,;%%%=:<4<%@%=%%%%%%%%%%=:::<<:%=;:;=%%===%=;==*%========**=:,;==;%$$$$$%====*%%;:;=;;=%$%%%;<<=@@@%:<<=%:,;=:44444:==<<<:<<,:=%%@@@@%*=,3444<=**==*=::==%$$*%#@%$@%**+%==@%==*%%=:,=%%$%=:444444444<:=*=:<44333<=$$%=<44444<;=;;;:<4,*@@$*<<:*%%%%%*===:4=$$*%$%%$@$@@@%===:<,=%=::=%*==%%%====%*==%%===*$%=<;=%=%@@@@$$@$%=*$$=<<<<,:==:<44<=@@@$$$%%*==:<343;%;<3<=;,4<,,<3<<:=$%$@@$*:,<333<<:=%%%*=::=%%%**%@=*$X+@@%&%$%****==:;*%%%%%=,<333<<,*@X+@$%:<<<<<:=;,:==<<<<<:*=::==:3,=%==:<:::;%*===;==**===**=;%$$%$%;;;:4:=%=;=*&&==%%=::>;*%%%%*==::===<<===;%%%%%%==%%=*%%<<:=:;=%%*==:<<:*%@%=<4<:::==:<<33<=*=<<,=;,44333<<<<:=%$$%%%%%%$$%=;,;=%%%%%$%:%@@",
"@@%:;*@%%%*&=;==%%%%=:,<<:;=*===%$%%:<4<,<<<<<3<==:34<:==%%=:<<<:%@@$%=,<;====%%===,4<%$%=%%%%%%%%%%====<,;%=::==**=*%%=;;=*$%===***==%%::;*=;%$@$$%%*%%**%%====:;=%$%**;<:=%@$=<<:==,,==:44444:==>::=<43<=%%@@@%=:<<3443<=*%*%*;<<:%**%*%$@@@@*;=@@@@$%*%%%%;<<;=%%%=,4444444444<,,,<<34333<:=*;>244444<;=::==:3<;%@@*:<:=*%%@%=::=:,*%%=%$%%%@@@@@*==%;,:=*;:-*=**%$$%====%%**%%*===%%=,;=*=%@@@@@@@%%=*$%;<<:=====:344<;%@@@@@%*====;:,:=*:<3<==:,:;:<3<<<:%%$@@=:<<<3333<:=%%%=;::;==**=%@%$@+@@@@@$%&*%=**;::*%%%%*;<<<<<<<<:=%%%=:<<<<<<:=*=*=:<<<<<:======,3<:::=:<<<<;%*;====%%*===**=:=%$%$%;::<4:=%=;==**=::=*===***=*%%%=::==;<<===;&%$%%%*%%%==%%::::,:=%%===:<<;%@$=,3<:=;:==:<<4<;==,<<<==:333<::;:,:;*%*;===*%%%*==::==*%%%$%:=$@",
"X@%:;*@%%%%%*=;=%*%%*:<43<,:==*$@@$%=,4<<33<:,<<==:333<,;==;:,<3<=$@$%:<<====%%*;;;:<,%%*=%%%*%$%%%%;===,:;%=::===%%%%%=-==%%*==%%%*==%%:,:==:*$@$$%==%%**%%%%*====%%%:;:<:==*=:4<:==::*=:44444,-*===;<443:=%%%%=:<444443<:*%%%=:<<:%==**%%@@@$=::%@+@%%%%%*=;<<;=**=;,4444444444433333344444<<:<<444444<==::;==<3:=%%=;,:==*%@%=::===%%*=%%%*%@@@@@*==%;<:**::=%=%%%%%%====%%*=&%%*==%%*,;=*=%@@@@@$%%%*%$%;<:===*%*;,<<3,=$@@@%=::::=======<33<:=====<<3<3<<;=*%=:<3<<33333,=%%*=:,,:===*==%$@@@@@@@@$%&&%==*:,,=%%%%=:<<<<<<<<<,;=::<<<<<<<<:=%*;,333<<,=====;<33<<<:::<3<:%*::;==%%====%==;=%$$$%;:,34,=%=;==*==:::====**===*%%=::=*;<<:=;;%$$%$%=*%%==*%==;;:;=%%=:;:<:=*%%:<<:==::==:<<3<*=:<<<<:=:<<<:=%%%===*=:<<,:=%%%*==::==*%%%@%,=$+",
"X@%==%$%%%%*==:=%%%%%=<333<<,:=@@@%%=:34443,=:,:*=:4443<:==:;=:<<:%@@%:<3;===%%=:::;:=%%==%%*=%$%%%%:==;<:=%=::***%%%%====%%%=:;%%%*=*%%:<<;=;%$@@$%==*%=**%@$%=**=*%%<<<<;;:::<4<:===**;<44444<:=*%=:<444<:===:<<4444444<:=%%*=:<<:===**%%$%%%:<,=@@@%%%%%===,<:====:,444444444444444444444444444433334<;=:,,==:3<:====,<::=%@%*=;==%%%==*%%=%@@@@$===*:<;**;:=%%%%%%*=*%%%%*==*%%*==%%%,:=%=%@@@@@%*%%%%%%=:-===*%%==:,3<:%$$$=:333<:=%%%=:<<3<,;*%&;<333333<:::,<333333333,=**==:<,;==***=*%%@$$%%$$%*%%**==;,<:=**==:3<<<<<<<<<<<<333<<<3<<<:=;,2<3333<;=**=:<33333:::<3<:*=,<<:;%%====%==;;=$@$%;:,34,=%=;=====;:;;:::======*%=::=*-<3<::;%$@@$%==**==*%%=====*%%=<:,<;===;,4<:=:,:==:<<3:%=,3<<<<::<<;%@@@@$%%=:<333<=*%%**=:===%%%%@%:=@X",
"+@@$$$$*%%=*=::=%%%$%:<333<<<<,=%$%%:<34443<;===&:<4443<:;;:===,<<=%$%=,4:;:=%%*;::;=*%*==%%*=%%%%%*:;=:<,;%===%%%%%==***=*&=::;*%%*==%%:<3:;=%$@@%=;*%%=**%@@%===:=%*<33<=;,<<343:=====:<44444<<:;;:<344443<<<<334433444<:=%**=:<<:==*%=%%%%%*=::=%%%%%**==*=,3<,::=:<444444444444444444444444433433333<:==;;==,33<<,;*:<<<;%@%%%==%$%*===%*==%@@$$===;,<;*%=:=*%%%%==%%**%*=:=*%%===*%%,:;==%@@@@$**%%&&%%*===:,=%%%*=;<<:%$%%;<444<<:==:,<<<3<<,:=:,3333333<<<<<<333333333:;=*==:<,====*&%%%%%$@%*%%%%%*=**=;,<:;;:==:3<<<<<<<<<<<<333<<<3<<<<:<<2<<<<<<,;=;:<<33333,::<3<:==,34<=%%===;===::=%@@%;=;:<:=%==**======<<<<<:**===*=::==:<4<::=%$@@%==***==*%@%=====%*;<<<<==:,,<3<:=::;=;:<<3:%;<3<<<3<<<;%@@@X+%=:,<<33<,=%%%%*=,===%%*%@@%$@X",
"@@@@@$%*%%==;:,;=*%%%:<3333<33<,:==:<444443<:====<<3343<:=;,:;%:<4:====:3,,:=%%=====%%%=-=**=:*%%%%%:::<4<-%===*==*%%%=::::;=====*%%=*%*:<<;==%$@@*;;=%&=**%@@%:,<<=%*<33,=;<44433<:===:<<<<<34<<:::<344444433333444344443:====;:4<:===*******=*=====&==*%*==:<4333<,<3444444444444444444333344434433344<,=====:<3434<:*:<33:*$====*%@%===*%%===$@$$===:<<:=*=:==**%%%*=::::====*%%*=;*%%<<:==%@@@$%==%%**%%%%===;=%$%==;<<:%$%%:<4<,<3:;;,::;:,<<,:=:,333<<<<333<<<33<<33333:;=;::,<<=====***===%$%==*%%*=====:<<<<<<,,<3<<<33<<<<<<33333<<3<<::;:,<<:;=:,<<,<<<333<<3<:=,<<:==:34<=%%=======:;*$@$%;===,:=%======**==<<::<,=**==*=;;==:<4<::;%$@@*==%%%==*%@%==;::*=:33<:=;,<<<3<:=====:,<<3:%=:<;:<4<<<:*$@@@$=:<<<<33<,=*%%*=;<:===***$@$++@",
"@@@@@%%%%%==;,<:===**:<33333333<<,,<4443443<<:;;,<333443:==,<:%:<4<<,:=:<<3<=%*=====%@%=;=*==:=%$%%*:::<4<;%=======%%%:<<:<,=&*==***%%%*:::===%$@@=;:=**=**%@@%,34<=*=,3<:=:<44444<<:;:<<,:;:<<<:-=:,344444444333444344443,:;:::<4<:====*======%%%*==*==*%*=:<3444443344444444444444444443333<<<<<443<<33<:;===:<3444<:==:<3:=$;::=*%@%=;;*$$=;=%@$$=;=:<<:===;==*=%%%*:<::<;*%%*%%%==%$%,,:==%@@@%===%%==%%$@*====%@%=::<,;=%%=<3<:::3:::<:=*=:<<:===:<33<<<<333<<<33<<33333,:;,<<<<<:========;=%%%====*=====:<<<<3333333<<<3333<<<<33233<<3<,:===;::=**=:<33343333<<3<:=:<<;*=:33,*%%=====*=:=%$%%%====::;%==;==***==<,::,:=*****=;===:<<:;;;%%@@=;;*%%===%@%=::<:==:33<:=:<<<<3<:====;,<<<3,===;=:<3<<<,;=%$%=,<<3<<33<<;=%%==:<:===*%=%$@++@",
"@%%$$%%%%%%=;:<,=*===:<3333333<<<333344333<<33<<33333344,;=====:<4443<;=:443;*=::;==$@*=;=%%%;;*$%%*::,<4<:**======%%%,<,:<<;=**%%==*%$%::**==%$@@%=;*%*=***$@%:34<=*=<<,=;,344444444<<4<=%%*=,=*%%*=<34444444444444334444<::334443<<<:========%**%%==;==*=:443334444444444444444444444444433,:;;:<4<:;:<3<<,,,<444444<==;<3,=$:<<,;%@%=::=%%=:;%@@%=;==:<:=**==****%*;<,;:3:*%%%%%==*$%=:=**=%$@$%==*%%****%@%*==;*@%:3<<:=:;=,3<>=-,3:=;,:==%*===%*==:<<<<<<333333333333333<<<34443<<,;======;=%%***==**==;,33<<333<<333<<<<333<<33322<<333<:=;:;=*%*=,<<3333444443333,;;,<=*=;<<:*$%==;===;:=%%%%%;:;=:,:===========:,<,:====**%*=%*=::;*===%%@@%=:=**==*%@%;<3<:*=:3<:==,33<<33<:;;:<<<<<3<;%$%=,<<<<<<<,:;:<<<<33333<,=====;:<:=&%%%==%@@@%",
"$%%%%%%%==**=,<<:::==:<3333333<<<333333333<<<<<<33333334<:=====:<4433<:=;34<:*=<<<:=$@*==*%%=::=$$%*:;;:,,:===;==**%%*;:::<<=***%*===%%*::%*==%$@@$=;=%%==**@@$;34,=%*:<:=:<444444444444<:;==*=======,<44444444444443344443<<33344333<:=====*%*===%%%*===*:<44444444444444444444444444444443<:==*=::;*%*;<<<<<<3444444<:==:,:=$=<4<:%@%;,,=%%==*$@@$===*=::=%%==%%*%%%==:;:<;*%&%%%*=*$%*;=%%%%%@%*;;=**==**$@%;:,:=$%,43<:=,,,<3<,=;::==:<<<:=%%==::;;:<3333<<<<33333<<<<3333<<3333333<:============%%=====:<43<<333<<3<<<<<<<<3<<<<33233333<;==::;*%=:<<33333444443333<:;::==*=<<:%$$%===;==:=%%%%%=::::<:**=;=======:<43:====*%*==%*=::=*=;=%$$@%*=*%*==*%@%;<3<:*=::,:=;<33<<<<<<,,<<<3333<,;==:<<<<<<<<<<<<<<<<<<333<,=====:,<;***%%%%%%%%%",
"$%******====:<<<<<,::<<<333333<<<33333333<<<<<<333333333<,:===:<333333:==<3<:==<43<=%@*===%%=:;=$@%%;;==;::=*======%%*=;:,<:=****==;=%%=::*===%$$@@*;=%%==*%@@$=<<:*%*:::=:<4444444444443<<<;%%=;:===:34444433444433334444444434443333,==;:=**=;:;=&%=;::;,<44444444444444444444444444444443,==;=*==*%%=;<333333334444<:==;:=%$=,43:%@*:<,=%$==%@@@$*==%*=:=%%==%%*%%%%=:::,=*%*%%%==*$%=;*%%%%%@$*;;=%===%%$@%:<3<=%*,44<:=<<<<3<,;;;;==:<<<<:*%=:::;=:<3333<<<<<3333<<<<<333333333343<:==::====-;-=**=:;;:<343<<333<<<<<<<33<<<<<<<33333333<:==:<:=%:<3333344444333333<,::::=*=,<:%$$%========%%%%%=::::<,=%=;:==**==,444<;*===*===%*;,:==:;=$$$@$%=%%*==%%@%-<2<;*==::;=:<333<<<<<<<<3334<<<<<,,<<<<<<<<<<3<<<<<<<<<33<,===:::<<;=*=*%*%%%==*",
"$%%====*=;:,<<<3333<<<<<33<3333433433333<<<3<333334333333<<:::<<333334:;=:,:=*=,44<=%@%===*%*;*%$%%%=:=%=::*%%*====*%%*:<4<:*%%*====*%%:<,=;;=$$$@$*;=*==**%@@%=<<;%%*::;;<34444444444444444:*%;,,=*=<34444333444433344444444444443333<::,,;==;:::-==:,<3<3444444444444443334444444444444333:=;<,;%%%*;:<<<33333333343<<;==:*$@*:4<;%$=:<:=%$*%$$$$$%=;*=;,=%%==***%%%%=,<<:=***====*%$=;;*%**%@@@%==*%%==%%%@%:34,=%*,33:;;<344<<<:====:<<<33,=%=::===:<3333<<<<<<<33<<<<<333<<3<<<3333,::,:====;;;===:<<<<<333<<43<<<<<<<<<<<<<<<<<344<<<<3<,;;,<<;*:<333334434433<<<<<<::::=**:,:*%%%===;=*===%%%%*::::<<;%=;:;=%*=;<4443:%*======%=:<::::=%$%%@%%*%%*==&$@%;<<,=%*=;;==,<333<<<<<<333333<<<<23<<<<<<<<<<<<<<<<<<<<<<<<<;=:<<<<<:;====;=*===*",
"*%%%*=====,<<<<<333333<<3<<3334444433333<<33<3333343333333433<<<333334<:=;::=%=:34<=%%%*==%%%;%%%%%%=::==:,=*%%=****%$=<444,**%*====%%*,<<=:;*@$$@%==%*==**%@@%=<,=%*=:;=:344444444444444444,=*:<<:;:3444444444444333444444444444333333<333<<:;;::=:,334443344444444444443333444444444444343,==:,:=%%;<3333444443344443<:====%%%:4<;*%=::;=%%%%$$$$$%=;==:<:=%=======%%:343<=*%*====%$$=:;===*%$$@%=;=%%==%*%@%:<3:=%*:33:;:344433<,::::<<3333<;*:,,=*;<33333<<<<<<<33<<<<<333<<3<<<3333<<<<<<,:;:;;==:<<<<33333<<44333<<<<<<<33<33<33443<<<34<<<<3<:=:<333<343<<<33<,:===;==:==*:::=%$%====**=:=*$%%%;:::33:**;====*=;<4442:=*%%%===*;,<::::=%$%$@%%%%*===&$@%;<<:*%*=;=;:<<333<<<<<<333443333333<<<<<<<<<<<<<<<<<<<<<<<<<:,<33<<<<<:===:=**=*%",
"==&%*=:==:<<<<<3343333<<<<<33333334333333333<3<<44433334334443333333343,==;;=%%=<3,=%%%*===%%=%%%%%%*::;;,<:=%*==*%*%%;<444<==%%=;=*%%=<<<;:=%$$@@%==%%==*%%@$%;<:*%=;;==::,<334333444444444,==:34<<<<<<<44444444444444444444444433444334444<:=;::=:<444443344444444444444333444444444444443<=*=,,;%=:443334444433444<<,:===***%;<<:=*======%%%%$$$$%*;;::<,;**===*%*%=:4443;*%%*==*%@%;,:===*%$%@%===&*=*%*$@%;<3:=%%:<<;:,343333<::,<<<33333,;*:<<;;:<<<<333<<<<<333<<<<<333<<33<<33<<<<333<<,:;;===:<<<<33333<<44333<<3<<<<333333444433<,,,<<<<3<:=:<<<<,<<<<::,3<:=====**==*%=::;%%%====**=::=%%%%=:::34<====**====<444<:=*%%%*=*=:<<,::;*$$$$$=*%$*=*=%$$*:<<:%=*===::,<<333<<<<<333<,,<33<,::,<<33<<<3<<<<<<<<<<<<<<<<<<333<<33<===:=*%%*=",
";==%=:,::,33<<<3443<33<<<33443<<<<3333333333<<<,<<343<<3334333333333333<:====*%*<<,=%%%*====%%%%%%%%%;:::,<,=**==%%**%;<464<==*%*==*%*:4<,;:=%%$$%===$%**=%%@%=::;%%==*%*=**=:<33<<<33343<34,==,33<<<:::<344444444334444444444444333443334443:===;=:<444444444444444443444333444444444433<<<<:==,<:=;<34333333333333<:;====*%%=%=,,:==%%====%%*=%@@@@%;:::3<:=****%%**=:444<;=*%%*=*$$*:<:==;%%@$@%=*====*%%$@%;<<=*%%:<:=:<33333<<;:<4<<<<<<<,;*:<<:,<,:::<33<<<<<333<<<<<333<<<33333<<<333333<:====;,3<3<<<333333333333433<<<33333444443<:==::::<<:=:<:;=;:<<<:=-<:=*;:;=%%**%%*:::*%$*======;::=*%$%=::<33:=**%%**==:<44:;=*%%%**%=<4<,:;=%@@@$%==%%*=*=%@%=:<,;%=**==;:;:,<33<<<<<3<<:==:<<:===;,<33<<<3<<<<<<<<<<<<<<<33<<<<<<33<:==:=*%%=;",
";===:<3<<<333<<334<<33<<<33443<<<<3333333333<:===:<4<:::<34333333333333<:======%:<<=%%$%==;*%%=*%%%%%=:::,<<:=%*%%$*===<473:=*==*%%%*=,4<:;=*$$$%=;=*%%**=%$@%=::=%%*%$@$%%$%%:<<==<43<,::,3:==<3<::;*%=:<4444444433344444444444333344333444<:%**==,3444444444444444443444333444444444433::,<<<<3<:=;<344333333<<33<;%%%%%%%%%*%=:,:=%%%====%%=;*%@@@%=:::33<=%%%%%%**=:344<=====*%%%%=,<;===%$@$$%=%%*==*%%@@%;,<=%*=:,==:333333<:=:<4<:===:<,;=:<,=::==;:<33<<<<<333<<<<<333<<<33333<<<333333<:===*=,2<3<<<333333333333433<<<33334444443<;===**=<<:=:,=%@%=,33,;*,;=:<3<<:=**%%%=::=%$%====;=;::::=@@%;;,<3<:**%%%**&=<4<:=*%%%=**=:34<::;*%@@@%===%%==*%%@%=:<:=**%%****%*=:<3<<<<<3<<;*%=::=*==*:<33<<<3<<<<<<<<<<<<<<<33<<<<<<333,:><:=**=;",
";===<<33<<33<<<334<<3<<33<<343<<<<333443333<,==*%=::=%%%:<434433333<<::;=*====*%;<<=*%$*==;=%%;=*%$%%=:::,34,=%%%$%*===:47<:=*==%%%%=:<4,::=%@%*=:;=*%****%@$%=:;*@%%%$%=:::;%;::=;<4<:%%%*>:==<<:**===;,34334444433344444444444333344444444<;%%%%%,3444444444444444443444333444444444443:===:::<<,=;,3<<::<34<,:<<:**===*%$%%%%%=,:=%$%**===%*;;*%$@$*;::<3<:=%%%%%*==;<4<:=*=*%%$%%=:<<==;=%$@$%=;*%%==*%$@@%;,,=%*=::=:<33333<<:=:<4<;%@$*,,;*,,:*==;=:,3333333333333<<<<<<<<<3333<<<<333334<:%%%%*:<<3<<<333333333333333<<333333444433<:==;===:,:=;=$@@%;<34,=*::;<<<33<:=*%%%=::=*%$%===;=;;::::=%%*=;;;,:;=*%%%&*=:<,==%%**=*=:<<,::;=%@@@%*:==*=*%%%$@%=:<;=**%%%*======,<<<<<<33<<,:===*;::;::333333<<<<<<<<<<<<<<<33<<<<<<333<<<<<,:==;",
":==;<333<<<<<<<<33<<<<<3<<<344<<33<<3443<<3<:*===**=%%%=:3444444443,:===*%**%**%=:<==%$%==;=**::;%$$%*=::,<4<:*%%%%====:<4<=****%%**;:<<:;;%$%==::;=*==**%$@%*=:=%@%%%%;,<33<%=;;=:34<:$@@$====<,=*==;=;,34433444444334344334444333344333444<:%%$%*,3444444444444444444444333443334433443:======,<:==:<:=%*;<4<:=,:=%=:::;=%$$%$%*::=*$$%%*==**=:=%%$$%=:::<<,;*%%%%%===,<<=*&*%%%$%*;<<,=;==$$%*===*%%=*%%@@$%:::*%*;;==:,<<<<<<<:=:<4<;$@@$=:;*,:;*==;=;:<<333333333<<<<<<<<3333<<<<<<3333334<:%%%%*:<33<<<33333<33<3333333333333344433<<::;;===;::===%$%*;,<<:==:::<:<<34<:==**=;:;=%$%%*==;====::;%%%===*::=***%%*==::;==*%%***=::;=-==%@@%%%=;====*%%$@$*=::=%%%%%%=::,:=*:<<<<<<<3444<=%%=:,:;;:33<<33<<<<<<<<<<<<<<3333<<<<<<<<<<<<<<<:;=",
"===:<333<<<<<<<<33<<3333<<<3443333<<3333<<3<;*:<:=%$%=,<34444444443:*%==*%%%%%%*=:<;=%$%*=====;::=%@$%=:::,3<,=%**%*===:,4:=*%*=%*==::;===*$%=:::;;==;=%%$@@%==:%%%%%*:<4433<=====:343:%@@@%%==::=:::===:344344444443343333333333333443334443:=%$%;<4444444444444444444444444443333333333<:===%%:,:==:,%@X+%,43:=:;=*:<<3<:*$@@@@%::==%$$%*=====;=**%@@=;:==:<:=%%%%%===:<,=%%%%$%%%=::::=;=%@%*=;;=%%%=*%%@@%%::=*%=;=*====:<<<<<:=:<3<:&@@@%===::========:<333333333<<<<<<333<<<<<<<333333333<:=%%%=,333<<<<333<<<<<3334333333333344333<:;;======;;%*=*%%==;::==;,:;:=:<<443:=*===::=*%$%%*=;====;:;%%%%%&*==*%*=%*=========**%%%=:=%%*=%@@%==**=**==*%%@@%%;::*%$$$%;<<33<:%=,<<<<<<34443:*%:,:==;:<<<<<<<<<<<<<<<<<<<<<<<<<<333<<<<<<<<33,:=",
"=**=<3333<<<<<<<33333333<333443333<<3333<<<<:%*;,:=%=,444444444442,=*;,,::=%%%%%%;,:==$$%===;==::==*%$%=:;==:::=**%**===;:;==*%%*%%*;=**=*%$%;:=======*%$@@%*==-=%%%=:<344:::==;;*=:::=%$@$%%%%;=*==*====<44334443333444333333333333443334444<:*%=<333344444333333444444444433333333333<,;=*=====;:==;*@@+$=<4<:*:;==,<<33<,=%@@@$=:;=*%@%*===**=**=*@+%==*%*=;=%%%%%====;;=**%%%%%=;:**===%@%=;;;=****%%%$@$%=:;%%%*=%$%%%%%;<<3<<;==::=%$%%=*%%==**%%%**=:<333333333<<<<<<333<<<<<<<<333333333<,==;<33333<<<3333<<<<3334333333333343334<:=;;*%%%*==%==*%%*%***%*:<:==*=:<4443<:=*==::=*%%%%%===*%===%%$$%%===&%%%%%*========%&%%%&=*===%%%@%===**===***@@$%=::=%$$%=:<<3<<<<=;,3<<<<<34443,=*,<,:;:<<<<<<<<<<<<<<<<<<<<<<<<<<<333<<<<<<<<<<:=%",
"%%%*<3333<<<<<<333<3333333333333<<333333<<<<:*%=<,;%=<44444444444<:==<332<:=%%%%%=::;=%$%======;;===*$$*===*=;:=**%%*=;=======%%=%%%===**%%%%=:=***==%%@@@%*==-=***=:<344<==;=:::*%*==**%%%*%%%=*%*%%====<443444433444444444444433344333433443<==:4433344444334433444444444333333333333<:=%%%**====%**%$@@%;<<,;*::==:,:<<33:=%@@$*;:==%$$%====%*%*=*$+$%**====%$%%$%===*====*%$%%%*==%%==%$@==;===%*=*%%%@@%*=;=$$%%%%%==;;==:<3<,==*=*%%%%*==*%=*%%**===;<<3333<<<<<<<<<<<333<<<<<<<<3333333333<:-:<444333333333<<233333334333333343334<:===*%%%%&&===%%%%=;;=%*=<,;=*=,<4444<>=%%=:::=*%%%%%*==*==**%$$$%*=====*%%%**======%%**%*===*%%$$@%%=*%%==**%%@$%=;::*%%%=:<343<,<<=:,3<<<<<33333,==<<<,,,,::<<<<<<<<<<<<<<<<<<<<<<<<<33<<33<<3<<<:=%",
"%%%=<<<<<<<<<<<333<<3333333333<<<<33333<<<<<<===<<:*:<44443344443<;=:344443,;*%$$&=::=*%%&===;===*===%$%*======%%*%%*=;=======*%=%%%*==%%%$%%=;=%%**%$@@@%%=;==%%*=,<4444<*%==:,:*%%***=%%%=*%%%%%%%%===:<443444444444444444444443344334433444<;;:4444444444444433444444443333333344333<:=%%%%%*%%*%%%*%$@%=::===::=*;;%:<44<>=*%%%=::;=%@%&===*%%*=*$@$$%%===*%$%$$%*==%%%**%%$%%$%%%%%%%@@$=;=*=*%==*%%@@$%=;=*@%%%%*;,<<<:==<<,;=*===*%%%%===%*%%%*===;:<3333<<<<<<<<<<<<3<<<<<33333333334433<<:-:3444333333333<<<<<333334333333333333<<;==*%%**%%===%$$%:<<:=**:<,==:<344443<=%%*=;::==%%$@%%====%=%%%%%$%==;;=*%$%%====*%%*======*%@@@@@$%*%%%%%%%$@@%==::=%%*=:<444<:;::=:,<<<<<<<<<<<:==<<<,,:===:<<<<<<<<<<<<<<<<<<<<<<<<33<<333333<<:=%",
"%%=:<<<<<<<<<<<<33<<33333333333<<<33333<<:;:<,,<33:=:<444433444<<<==:3<<3343<;*%$%=:::=%$%===;==**==%$$%%%=::=*%%%%%%=====*%=*%*%%%*==%$$@@%%*=%%%*%@@@@$%=;:=%%%=:344444<=%%=:,=%*=::;=%%%%%%%%%%%$%;=;,3443444444444444444444443344434433444<;=:44444444444444444444444433333443443333<:====*%%%%$%==%$$%%%%%%=:,;%%%%:<33<<,;=%%%=::=%@@$=***%%%%%$@@$$$%=;=%%#$$$%**=*%%%%$%%%%%%**%%@@@%===%%%*==%%@@$%*=;=*%%%%=:<3333<;=<<:**=;:<:=@@@$===%%**%===:<33333<<<33<<<<<<<3<<<<<33333333333433<<;=:<444333333333<<<<<333333333333333333<<:=*%%==*%%%*=%$$%;<3<:=%=><<<<33444433<:=**=;,,:-*$@@@%===%**===%$@%=::;*%%%*===*%$%*==:;=%@@@@@$%%%%**%%%%$@@$%=:;=*%%=:<4444<=*===::=:<<<:;==:<:==<<:**%%%*:<<<<<<<<<<<<<<<<<<<<<<<<33<<33322<<<,=%",
"*=:<<<<<<<<<<<<<33<333333<<3333<<233333<<:==;:::<3:=;<43,::<344,::;==:=;<4443,;=%%%=::;=%@%*====*==*%%$$$%%=;;====*%%%*===*%%%%=====%%%%%%#%%%=**%%$@@$%*=;:==%%%=<444444<:;;,,:%*;,<<:%@$%=*%%%%=%%$==:<344444444433444334444444<<,:<344444443;=:433444444444444443344444333444334443443,:=;=%%%%%%**%@@$===*%%*;,,=%%=:<3333<:=%%%*;:;=%#@%%**%%%%%%%$%%$$%====*%%$%%%=*%%%$@%*=****%$@@@$%*=%%%%=*%$@@$%%====%%%%=:<34<<:<:=,,;%=:<<<:%@$%=**%%%*=*===:333333<<<3333333333<<<<333333<<33333333<:=:<444433333333333<33333333333333333333<,;*%%*=%%%=:,:;*%=:<2<:*=:<3333344443<<,:;===;:::=%@@+@$%%%*===;;=%%%*=::=%$%*==%%$%;:;=%$@@$%%%$%%%**%%%%%@@$*;:=*****;<34443<;===::=%,<<,=$@$*;:==<:=%%*=*=:<<<<<<<<<<<<<<<<<<<<<<<<<<<<<<<<<<<<<,:",
"=;,<<<<<<<<<<<<3333333333<<2233<<233333<<:=**===:<:=;<<:=%%;<44:;::=%*%=,4444<,;*%%*;::;*$@%*===*==%%%%$%%%%*=;;::-%%%%====%$%*=:;=*%%%*=*%%%%*%%@@@@%%=;;;=*%**;,34444443<<<3:=%=,44<;$%*;:=%$$%=*%%%=:3344444444333333334444443,;==:<34444443:=:43344444443<<<<343344444333343<<3444444<:==*%%%%%%*%$@@@;:,:;=%=:<,;=:<<33333:===%%*=;;=%$@%%%%*%%$%%%%*%%$%*=;;=*%$%%==*%$$%*====*%$@@@@%&%%%$%%%$@@@$%*==;=%%%*;,<344<:=,;=,:=*:<<<<;%%=::=%%%%%=====,333333333333<333333<<33334333<<<3333343<:;,<444433333<<<333<333333443343333433333<:==*%%%%%=:<<<:**:<<<:==:<33333444<:;:::::;;=;::=%@@@@@$%%%%*=:::=*%%%=:;*%%%%%%%%=::=%$@@%*==%$%%%%%%$@$$$%=;:=*%====:<3333<<::;:<:=%,<<,=@X+@%=*=<:=%%====:<<<<<<<<<<<3<<<<<<<<<<<<<<<<<<<<<<<34<<",
"=:,<<<<<<<<<<<<<333333333<<2233<<<<<<<<3<:===*%*=,:*;,:%@X+=<44,:;:=%$%=<44444<;***%*=::=%@@%***=;=%%%%%**%$$%=;:::=%$%==**%$%=::;=%%%=;;=%%%%%$@++@@%=::;=*%%=:<3344444433333:=*:<43:=@=,<<,=$$%%%*==;:334434444433433334444444<;*%%=:24444443:=:3343344443<:=;,<33344444443333<<3333444<:%%%%%%%%%%%%%@@=<43<:=%;<3<<<<333<<<<::;=%%%=:;=%%@@%%%%%$$%$*;=*$@%%=::=%$$%==%%%%%====*%@@@$%$%*%%%%%%@+@@$%**=;=%%$%:<44444:==:==<:==,<<::=%;<33:=%$$%====;,<<<<33333<33<<33<<<3333333<<<<<<<333333<;;<34443333<<::,<33<<3333333334333333<<33<:;=*%%%%$%=:,<<:=:::<:==:<3333333<:=%%%*:<<<:=%%%%$@@$%%%$$$%==;==;;%$%::=%%%$%%%*=;=$@@%%*;;=%$%%$@@@@@@%*;::=%%*=::,<333<<<<<<<<3:=%:<<<:%@@@$%%=,=====*%=:<<3<<<<<<3<<<<<<<<<<<<<<<<<<<<<<<<<343<",
"=:,<<<<<<<<<<<<<333333333<<2233<<<<<<<<<:=%%=*===:;*==*@@@$:344,:;<:=*=:344444<:;;=*%%=::=*%$$%*===*%%%%====%$$%=;:=%$%%*&%%$=::=%%%==::=*%%%$$@+++@@%*=====;::;;;:,<34443333<:**,<,:;=%<3<>-%$@$%%===:<3<<,<4444433433334444343:=;;-=:<3444444,::334333334<:====,33344444443333<<3333444<:====%$@@$*;,:=%%:<<<,:*=<33<<<33<<<<<,:<,:*%%==;=*@@@@@@$%%%$%=:=%%%%%*;;*%$%%*%%%%=:=*=$@$%**%$$%%%*%$@+@@$%%=;:=*%$$%,344444:=%%=:<:==:::=::;<<,:=%@@%%==;:<<<<<<3333<<33<<33<<<33333<<:::<<<<333333<::<3444333<<:===:<3<<333333333433333<::<<<<,::;=%%%%==;,<,:::===*=:<333333<;%$@@@$=,<3:=%%%%%%%=::;*%#$%*=======**:;=%%%%%%==%$@$%*%*==*%$$@@@@@@X@%====*==:<<::<<<<<<<<<<<34,=%==;==%@@@%%%%=***%%%**=,33<<<<<33<<<<<<<<<<<<<<<<<<<<<<<<<<3<<",
"=:<<<<<<<<<<<<<<333333333<<33333<<333<<<:%%%%%*=*==%%%%@@@%:<<<:;:<<,:,<4444443<,,::=%%==;;=%$$%%%%%%%%%*;:=*%%%%*==*%%%%%%%%=:;%%*===;;=%%$$%%%%$@@@$$%%=:<<:=%%%%*=,4443333<:*%::=::;:<<:=*%@@$%=::,<<3<:;<444444444333333<,<<:=:,==:<4444444,::444433334<:=;:=:<3334444444333333333<<3<<:;===%@@$%=:<,;*=::<<:*=,3333<33<::;===:<<,:=====%@@+@@@@@$%%%=;==%*%$$%==%$@$$$%%=;=*%%%%*===%$%%%%$@+XX@$%==;;=*%%%=:<333333<:**=,3<;&===;,<,<::==%@%%%=::<<3<<::<333<<33<3333<<3433<<:;==:<33333333<::<3444333<:=====,<33333343334443333<:::<<<<<<:=*%%%===:,<<<,====:<333333<:%@@$$%%%;<<;=*==;====;:::=%@@%%===*=;=====***%%%%%%$%%%%%%*%%$@@$$$@@@+@$%*==::,<<:====::,<<<3<344<;%%%%%%%%$%%%$%%%%%#%%=*=<3<<3<<333<<<<<<<<<<<<<<<<<<<<<<<<<<3<<",
"=:<<<<<<<<<<<<<<333333333<<33333<<333<3<:*%%%%%%%%*%%%%%@$*=::;=;,343334443343<<<<<<:;===;:;=$@@$$$%%%%%%=;====%$$%**%%%%%%%=:=*%==;====%$@@%*===*%$$@@@$=,43:%@@@@@$=<443333<:=%*==::,<<:==%%@$%%:<<433<:==<34443444444333<:=:;=;,,==:34444444:;;334433444<:=:<:;:<<<<34444444433333<,<<33<::;=%@@@%*=:<,=;;*:,:%=<333333<:=%$@@@=:343<:=%%$@@@@@@#@@@%%%==*%=*$@@%=%%@@@$%==:*$@%*==-==%%%%%@+XXX+@$*=;;=*%%*=;<<333333<,:;:<3<:*&%=:<3<<;===%$%%%;,<333<:==<<33<<33333<3333333<:=:;=;,33333344<::<3444333<:=;:;=:<<<<34444444444333<;=;,<3333,==*%%====:33<<:==;,<<33333,=$@@%%%*%=;:%%=:<<,::;==::;*@@$%*==%=;:=====**%*%%@$%=%%%%%%$@@@@%%%%%@@@@@$%:<33<:=@@@$%*;<<<33334<;%%%%%%%%%%=*%@%$$$@%*==:33<<2<<<<<<<<<<<<<<<<<<<<<<<<<<<<<<33<,",
"=:<<<<<<<<<<<<<33333333333<33333<333<<33<:;==*%%$%%%%==%%%%%%%%%=,444444443<<:;===:443<,:=*%%$@@$$$$$$%**%%=====%%#%%%%%*=%%===*:;=***%%@@@%=::;=***===*$%:<:*@@@@++@%:<43333<,;%%%=<<33,;=;=%%%*=:3443<,=%*:34443344333333;%$%%%*==;:<34444444<==<34434444<:=:<:;::;;:<4444444443343>==<333<<:=%##@%*==:<<<:%*==%;<3<<<<<<=$+@@@@@=,443,%@@@@$@$%%&%%@@@%%%%%%*%=$@$%%%%%%%===%%%%=*%=*%%@@@+@@$%@+@@$%%%==::;===:<43333333<<<3<<:==:<<3<:=*=*%%%%=,<333<,=%*:<<<<33333<<333<<<<,::<:*;,33333344<:,<3444433<:==,<;::,:<<444444444333<:*%*-<333<:=*%%%%*==:<<<<<<<<<<<33<<<<:%@@@%==*%%=@$%=:<43<<::===*%%$%%%**=======%%%**%#%%%*%%%%%$@XX@%*====%%%%%$%=<33,=@@@@@@$=<<333334:=%*;,,;%@$%%%$@$%%$@%==;,33<<233<<<<<<<<<<<<<<<<<<<<<<<<<<<<33<,",
"=:<<<<<<<<<<<<<<333<<<3333333333<<333<33<,;==%%%%%%%**%@@%=:===*=:34444444<:=*%$$%=,<43<:=%%%%$$%%%%%%$$%%%%***%==$$$%%**=*=====:=**%%%$@@@%=;====;::::=%$%:=%%%%$@@@%;<333<<<<,:;:,<334:===*%$%%*=<444<=%%%:<4444334433333:;=*%%%*=:<333344443:=*:<34433343<,::=*==%%=,<43334443333<;**:<344<,=%%%%%===;,<3<=*%%=:<3<<<3<:%@@@@@@@%=<<:=%%%========*%%@@@%%%%%%%=%@@%%%%%%%=*%%%*%%%$%$@@@@%%===*%$$$@@$=:<<:*%@$%=:<<<<<3333333<<,,<33<<:=**%%%%%*:<333<;%%*:<<<<344333<<33,:;::;:<:=:<33333344<::<3334443<<:;:;=====:<443334444433<:*%%=,<33:;==*%%*===;<333<<<<<<<33<<<<<:*@@@*==%$%$$%%%=,<444<<:::;=%%$******==*%%%%*%$#%%%%%%%@@@@@@%*====;;;:::*%%=,<=%$$%$@@$%:<33333<=**:<3<=$@$*=%$@@%*%@$%=:<22<<<2<<<<<<<<<<<<<<<<<<,:=;:<<<<<<<<<,",
"=:<<<<<<<<<<<,:,<<<<<<3333333333<<3333343<:=*%%%%$%%*%@@@%;<,::===<4444433<;%$@@@@%=,34<:%%%****====*%%@@@%%%*%%==%$$%%****====;:=%%%%$$%%%*===;::<<,:=*%@$%$%%=%$@@$=:<333<<33<<<<<<333:==*%$$%**=:343:%$@%:<4444334433333<,<:=%===:343334443<;%%=,344333333<:=%%%%%%*:<33334433<3<<=%%*:<443<=%%=%%*;==,343,=**;<33<<33<;$@@@#$$$$%::=@@%=::::::====%%@@$%%%%%%%%%$$%%*%%**%%*==%$$@@@++@%==;;===*=*%$$*:<<;$@+@@$*:<3<<333333344<<333<<:-=%%%%%%*=,<3<:=$%*:<<<3344333<<<<:=*===;:::<344333343<::<33344333<<:===%%*=;,333334444433<,%$$%:<3<:;:;=*=====;,333333<<<<333<<233:*@@%**%$$%%$$$%=<444443<<<,:=$%***%%==%$$%%%%@$*%%%%%$@@@$%*====::,<<<,:=%@%=:%%%%%%@@$%=<33332:=*;<43<=$%=::=%@@%*%$%%=:<<<<<<<<<<<<<<<<<<<<<<<<,:*%*;:<<<<<<<<,",
"=:<<<<<<<<<<,;*=:<<<<<3<<<<33433<<<333333<:=%%%%%#$%%%&%#%=<44<:==:<44443<,=$@@%@@@$;<3:%@%;::::::;===*%@@$%*==%%*==%$%%&%%%=====**%%$@%==;=;::<344<:%@@$@@@@%==$@+@=,333333<333<<<3333<;==%%%%*===:<4<:%@@%:<4444334433333<34<:=<:;:<43344443,=%%%:<44444443<;%=%%%=;:,23333443<<<<,=%%%=<43<,*%%*%%%**=,3333<::<344<<33<:%@@@@%**%%*%@X@%=:<<3<<:::::==%@@$%*%%%%%%$$%*%%%%%*==*$$$@@++@%%=======;:,,:%%=,:%@@@@+X@=,3333334433333<333<<;;=*%%*%===:<4<:%@$*:<333444333<3<<=**%%%%=:3344433333<:==:<344333343:=*=%=;::,333333444333<,%$@%:<2<::<:=*=====;,<33333<<<333333333<:%@@@$$$$**%%$$%:34444444444<*%%=*%%=*%@@$%%$@$%%%%%%%@@%=::::,<<<333<:*%$@@$&$%==%%$@%*;<3333<:*=<33<:%%:<3<:*@@$%%%*==:<<<<<<<<<<<<<<<<<<<<<<<<:%$%%%:<<<<<<<<:",
"=:<<<<<<<<<<:=**=:<<<<3<<<<<3433<<<<<333<<:===*%$@@%=:<<:*%:<34<:=;<44443<=%$@$%%%%@*;;%@$=:<43<<,:::::;=%$$%*===**=%@%%&%%%%==*%%%%%%%=:,<<<344443:%$@$$$@+@$%%@+@=,33333333<<<<<<333<,;=;===%*=:=;,4<;$@@$:243433334333<<::::;=<:;:343344443<=%%=,<44444443<;=<==:<<,<233344433<3<<=%@$%:43<:**=*%%%===:<3333<33344<<33<<:%@+@@%*%$#@@@@@$=:<433<<<<:::;%$$%%%%%%%%$$%%%%%$%=%%%$$$$o+@*===;:::<<<<:;=%@@=*%$%%%@@@$;<33333343333<<333<:;==****=;:;;,3<=%@$%:<333344333<3<<:::=**==:<444433343,=%*=,34433334<;=::=:<3333333334444443,*%@$;<<:::3<:=======:<33333<<<<33333333<,=*%%%$$%%%%%$$%:<4,;=:<44444,%%=:=%%%%%@$%%$$$%%%%%%%@%:<<<<<<<<<33<:*%$@@@@@#%%%%@@@=:<<3333<;%=<,:;:*=<3,;=%@@@$%*==:<<<::<<<<<33<<<<<<<<<<<<,=%===%:<<<<<<<<<",
"*:<<<<<<<<3,;*====,<<<2<<<<<3333<<<<<<<<<<<:;==%$@@@*:,<<;*::<3<:==<44333<;%%$$%%==%%%%@@$%=:344<<<<<<<<:;*$%*==*%**%@%%%%%%%**%%%*%%%;<<3343<<<44<=@@@$%%@+@@$$@@%:<443<<333<<<3<<333<:===*==*=:<;=:4<=@@@%:343333344333<:===;==<<:<3<<,<3443,*$$*:<34444443<::3:=::::<<3333444333<<=%@$%:33:==;=*%%%====<33334444443<3333<;%@@@@%$@@@$$@@@$=<433<<<<<<<<:=%$**%%%%%$$%%$$$@%*%%%%%$@@$=::::,<<<33<:=%%$@@$%%**%$@@@%;<43333444333<<<<3<:===*===;:<;=:3,=$@$*,<333334333232<,,<:==,;:<443333343,=%%=,34433333<::,<::<<<<3333344444443<=%@@=<<::,4<<::;;:;;:<33<33<<<<333333<33<,::=%%%=%%%$$@$=<<:===,<4433<=*=<:=%%%*%$%%%%%%%%%=*$%=<3<<<::;:,<3:=$$@@%%@@@$%$$$$%:<<<3333<;%*:==;:;:3<;*%@@@@%=;::<<<:=;,<<<<<<<<<<<<<<,:::;==:;=%:<<<<<<<<<",
"%=,<<<<<<<<,;*:::*:<<<<<<33333443<<3<<:,<43<:;==%@@@%*=:<,=:;;:<:==<443<<<<;%$@@%*=%$@@@@@@%=:34443<<3443<:%%*=*%%*%%$$%%$%%%%%%%==%%=<44444<-=;<3:*@@@$%%@@@$%%%=:<4443<<<3333332<<<<<====&*==:<4:=;4<=@+@*<344433444333<=**==*=<<<3<,:=;,44<:%@@%=:<33<<3333<<<;=;=**:<3333344433<<=%@@%:43:=;,:=====;==<<3333333443333333<:*$@@@@@@#%%$@@+%:3<<:=;:<3344:*$===%%%%%$$$@@@$%%$$%%%$@%=,<<<<333<43,*$@@@@@@@%=%$++@*;,<3333344433333<<3<;==;==;::<<:;:3,=@@%=<<<33334<<322<<:::,;=<::<443333443,=%*=,343333<3<::<4::::::<333344444334<;%@@;<<;:<3<<<,,<<<,<<33<<3<<<<33333<<3343<,=%%=:%$@@$@@=:<:::::<3<::<:==<<;%%*=%%@$%*%%%%;;*@%=::,,:=%%%=:<=%@@@%*%$@@@$@%%=:<<<<3333<:=%*%=:<<<<-***@@@$*:<<33<:=%=,3<<<<<<<<<<<<<:**=**=:===:<<<<<<<<,",
"%=:<<<<<<<<<:=:::*=;==:<<33333443<<3<:*=,4333<:=%$@@%===:<<<:=*==*;<443<<<3<=%@@@%%$$$$%%@@@%=<44<:=;<4444<:%%==*%**%%%$$$%*=%%%=:;%=:43444<;%%%=,=$@@@@@@%*%*;:,<<<33433<<333333<<<<<<;::::::<<34,;;<<=@X$;<444434444333<==:,=%%:<43,;%%*=<3,=%@@$%*:<,;=:<4444<=%%%%*=,<4444444333<:%@@$:4<:;,<,=;======:<33333334433333333<,;*%%%$@@%%%@@+@=<<:*%%*;<<<<:=@=;;%**%%%$$@@%%%%@%*=%$@=<43<<<<,<<4<;$@@@%%$@@@$@@+@%:<333333334433333<<3<::,<,,<<<33<::<<=@@=:<<<3333433332<:===;==<<<344333444<:=%%*:<33<::<<3<<<<;====;:<333444443343<=%%:<:=:<<:;;:<<<<<3<<3<<3<<<<3333<<<333<:*$@%:<:=%%%$@=:<<<<<<<<;*%=:=%,<<=%%==%@$**%@%;<:*@%%%%=;=%%%%=:<=%@@@$%$$%%%%%;:<<3<<333333<;*%*:<34<:===*%%%%=:3333<;%%=:3<<<<<<<<<<<<,=%$%$$%%=;:<<<<<<<<:=",
"$%=:<<<<<<<<,::=*%%%%%=,<<<33333<<<3<;%%=<<33<:=$%%%%=;=;,33<:**==,3443<<<3<<:=%$$$%@@$%%@@@@%:<3;=%%=,43,::%%=::=%**%%%$$%==%%=,,;%:,:==:4:=%%%%=%@+@@@@$=:%%%:<3433444444333333<<2<<<<<<<<,:;;:<<:;,<:$#=<3444444444443<=;,3,;*=<34:=*:::::;%$@@@@%=:=%%*:<443,=%%;;==:<44444443333<=$+$:4<;;<3<,<:;;::;:<4333333333333<<<33<<:;=*%$%%@@@@@@=<,=%%%%%:;=*=%@%:<==%**%%@@$%*%$$*=:%%%:<<3<<:=*=:<<=@@$%%%@@@@@@@@*:<4443333333433333333<<<<<<,:::<<<::<<;%%:<<<<333443333<<;====*=<<334<:::<4<:*%%$%=<3,;==;:<33<<===::;:<3334444333443:==:<:=:,:=**=:<<<<3<<<<<3<<<<<332<<<<33<=$@@%;3<,:::=*==:::::,<<,:=%;=*=::=%%%%%@%*&$@*:,=%@%%%%=;===;::<<=%@@@@@%%*%=;:<<<333<3333443,:::<<34<:===%$$%%%=<333:*$@%:3<<<<<<<<<<<<<;==%$$%%=:<<<<<<<<,;%",
"$%=:<3<<<<<<<<=*%%$$%%=:<<<33<<3<<<<:=%%*:<<33:=$%**%====,443<;==:<4443333333<:=*%%%$@$%%$@@@@:<<*%%%%=<:===%%%:,:%%*=%%@@%==*=:3,=%::*@%=<;=&%%%%@+XX++@%:<&@@%:<4444334444433333233333333<:=*%=:<:=:<:*=,33444433344443<;:<3<:=*:<3;==<<,;=%$@@@@@%=;===*=:34<:=*;<,:=:3444444433333:*@%:4:;:33<,<,:,<<:,<4<<3333333333<<33443<:=%%%=%@@@@@@*::=%%%$$*%%%%%@%;<:=%%**%@@$=*%$%;::%%=:::<<:=%$%=,:%@@@$$$@%$@$$%*:<4444333333333333<<<<<<<33<:=**;<<::,<:*:<3333333443333<,=;::=%=,<443:===:<:=%$@@$*:<:;===;<33<:==:<:::<3<<34333<<333<:=,,:;::=*%%=:<<<<<<<<<<3<<<<<3333<<<<<,%@@@%=343<<:==========:,<<:*;;=%=;=*%%%%$%&%$%==;%@@%%%==;==:,<<<<=*%%$@@===$%;,<<<<3333333344<<<<3333<===*%$$%%*=:<3<=%@@%;3<<<<<<<<<<<<<,<:=%%===:<<<<<<<<,=%",
"%*=,<3<<<<3<<,=%**$%==;:<<333<<<<<<<:=$$%=,<33:=%%%%%%*==<4333<:,344443333344443,:==*%%$@@$$@@;::%%%%$%=%%%%%%%:<,&$%=*%@@*=**=:3;*=:=@@$%;=%%%%%%@+XXX+$:<<%@@@%:443333444443333<<33333343:=%%%%=<:=:<,;<4444444333444443<<<<:=*$=:3==:34<:%@@$@@@@$=:<33:==<4<=*=<4<:;<33344444444443:%=,3:;:4<:==:<3433333<<33334444443334443,=$@@%:=@@@@@@%==*%%%$$$$%%%$@@=::=$@%%%@@%=%%%;<<=%*:%%%::=$%%%%::$@@@@+@%==%=;:<<<4443333333333<<<<<<<<<<<<<-&%%*:<:::<:=<344444444443<<<,;:<3:==,344,=*===:=%@@@@$%=::,<<==:33,=:<44<:,<3<<33333<<<<<<<;,,:::;%%%*=,<<<<<<<3333<<<<33344<<<3<:%$%%%=<43<:=%%===*==*%%=:<<,::;%*=:=%$%%%=%%$*==%@@$%=::>;==:,,<,:==;==**::=@@%:<<<<34443<<2344444333<:===%%%%%===;<4<=@+@%:3<<<<<<<<<<<<<<3<:%;<:=;<<<<<<<<,;%",
"@%=:<3<<<<3<<:=;:**=,::<<<<33<<<<<<<:=@@$%:<3<=***%%$%=;=:3444434443343<<3444333<:=%%=:%$@$@@@*==%%%*%%%%%%%%$$=;;=%%%%%@$%*%*=;;%*:=*%%%%%%=;;*%=;=%@@$%:<,%$@@$=<433333344433333<33<<2333<:=%%$%::::::=::;;,<33333333333<<<=*%%%*;<==:44<:%@@@@@@@$*,<44<;=<<:%%%=:<<<<33443343333444<=;,<;:,<;%%%=:4443333<<<333334333333444<;%@@@$::=%$$%%%%**%%%%%%%%%%$@@%*===%%%%$$%%$$%=:;%*==%$%=;=%*====*@+@@@@%;:=$%=:<<34443333<<<333<<<<<<33<<<<<:=%%%=::::,:;<<<,<33334443<<3<::<3:=*:<3<;=:<<<<=%@@@@$$%=:<3<;=:<<:*;:<3<<<<3<<33333<<:=*===;:::;====;,<3<<<<<<<3<<<<<<<3333<<<3<=$%==%=<<:;=**=,<:==:,:=%===:<<:==:<,;%%%%%%%=-==%@%==;;==%%%*====**=;=;:<,;%@@%%:<3<3343<<<<<33444334<:=;=*=*%%::==,<<*@X@%:3<<<<<<<<<<<<:=;;;*;,:=:<<<<<<<<,=$",
"+@%=,<33<<3<<,;:,==;:=;:<<<<<<333<<<:=@@@%:<3:==:=*%%*=:=:<444444433333<<3444333<=%#$=,=%@@$$$%*=*%*==%%%%%%$$$%====%%%%$%%%%=;;=%*,=%%**%%*:<:=*:<:=%%%%=:;%%%$@%,34333334443<333333<<2333<,:=%%%=;:;;=%*%%%:<4333333333333,*====*=:==:44<:%@@@@@@@@%:<44<:=,:=%%*%=:<<34444334333<<<<<:;:<;:,:*%$%=:4443333<<<333333333333444,=@@@@@:,:*%%%%*=;==%===%%**%$$$$%====%%%%%$$@$%==*$==*%%%*=*%**%%%%@@@@%%=,,=@@%;<<33333333<<<333<<<<<<3333333<:=%%===;::==;;==,<43344433333<<<,;*%=:<<=:<443<=%@@@@$$%*,<3<:;:<:=*==:<<<333<<33333<<=%%%%%*===;::::,333<<<<<<<<<<<<<<<3333<<<<,=$%=*%=,:======<3<=;:<<;*;===:,:;=:<<:=$@@@%=,,:=%%*:;===*%%%==*========;<<;%$%%%=<3333433<33333333334<:===%====<,==:<<%@X+*:3<<<<<<<<3<<:=%*==%=::::<::::<<<:*@",
"X+@$;<33<<33<<<<<*==*%%=<<33<<333<<<,=@@@%:<<:=:<;=====:=:,444444433333333344333;%@$@%<:=@$%%%%===**;;=%%*%%@@$$*=;:=%$$%%%%%:::;==,=%%*==%=,3:;;<3,====%**%$%*%@%:34333334433<<3333333443333<:;======*%@@@@@;<433444443333<:*:,<:=*=*=:343,*@@$@@@@@%:<44<:=:;==:;&&:3334444444443,;;:::;:,=::*%%%*;<4443333333333333333333333:%@$@@@=::=*=**=:<:;=:::==;:*%%$%%=;::*%@$$@@@%==*%@==%%*=%%%%%%$$%%%$$%=;,3:*@@@%:<333334333<<33<<333<<33<<<33<<:=;:===;==%%%%%:<4344444444443,-***%;,<=:<34<<=%@@@@%%%*,34<:;::======:<3333<<<333<<:=%$@@@$%==:<<<<3443<<<<<<<<<<<<<<<<333<<<<,=@%*%%*:===:>:=,<<:;:<<:=,:;%*;::;:33<:%@++=<33:=%%=:=**===%=::=;:,=*%%%*::=$%**$=:3333433333334333333:==;=%*=;,3<:*:<<%@X@=<33<<<<3333<<:*%%*%$=:<<<<=*%=:,,=$@",
"X+@@=,3,:::<<<3<,%%$%%*=:<3333333<<<<:$@@$:<<=;,4::;===:=;:34344444333333334443<=%$%$%,:;***%%=,<<;=:<:==::*$@@@*;;,:=%@@%$%:33<:=;:%%*:<:*:<<;=:<,;=;:,==%$@%*%@%:<3333333443<333333334433343<<<<:=%%$@@@@@@=,4334444443332,=;:<<,:=%*:343<=%@%$@@@@%:344<:===;<3<:*:333444444444<:%$$%*==:===%%%*=:<4443333333333333333333333=%$%%@@===%=;:==:<<:=:,<;=:<:=%$%%=:<3:*@@@@+%:<:=%%;:==%%%%%=;=%%=;=%%%*=,3:*$%@$=,<33334333<<33<<<<<<<<<<<<333<<<<<:=**%$@@@@@%;<<4444444444<:=;::==:,;:334<:%%$@@$%%%=<34<:;;==;,<,:;<3333<<<333<:=%$@@@@@%*=:<<<34443<<<<<<<<<<<<<<<3333<<<<<=$%%$%%===,4<:=:<2,;;<3:=,<,=%*==;:33<<=@X@:<33:=%==*%=:<:==:,:=:<<:=*=%%*=%@%==$%:3333433333334333333,::,::::,<3<,*;,<%+X%:<33<<<<3333<<;*=::=$%:<<<:%%%%*=:%@@",
"++@@=:<=*%*:<<3<:%%%=;==:<3333333333<<=@+$:<<=:<4<<,:::,:::3334444333333333444<:%%%%$%::=*=::=;:<<:;:<,==<<=*%@@%;:<3<*@+@%=<44<:===*%=<<:*:<<==:<:==:<<:=%%@@%%@%:3433443444<<344444333333<<<:,<4<;%%@@@@@@@%=:<33333334333<=*=:<<<:%%=<<34,=%$@@@@%=<333,=%*=,3<:=*:44444444443<:*$@@$$$%*%%=::::,<4444334433333333333333433<=%$%%@@====:<3:=;<<,=;><:=:<:;=%$$=:<4<;@X+@%:<<,=*=:;=%%%%%=::=*=:,:*%%%*;,:%@%$@%:<3<<343333333<<<<<<<<<<<<33334<33<:*%$@@@@@$$*:<4444444444<:=:<<<:;:;,344<:%%$$$$$$%=<44<;===:<<<:;:<333333334<:=%%$@$%%$%=;,<3<<<<<<33<<<<<3<<<<<<<<3<<<<<<<;%$%$%%==;<43<:;:<<==:<:=:<<======:<<33:%@%,33<:=%*%%*=:<:==,:;=,<<;=;::=*=%$%*=$%:3333433333<33333333<<<<<,:;==:<<==:3=$@=,<33<<<<3433<<:==,<:=%=:<,=%*=;==;%@@",
"++@@=::=*%%=:<3<;%%=<,==,<<33333333333:%@%,<:=:<3<,,,,<3<<<3444444333333333444<=%%%%$%====:<<:;:<3,::<<;=<3:==%@%=,444;$X+*,444<:=**===<<:%;::*=:,;=;,<<:=*%@@$$@%:3433443443<<33344433333<::=%=:<<:*$@@$@@+##%=<3333333<<<<<:==:<3<:%$%:,<<<:%@++@@%:<<<<;*@*:<3,=*=,44444444443:%@@@@@@@@%%%;33<<<<<44444443333433333<33343<<=%$%@@#*=*=:<4,:=:<<;=:<:=;<,::=%@%:<44:%X+%:<33<;*==*%%==*=:<:==:<<;==;=*=;=%@*%@$:<3<<3333333333<33<<<3<<<<33<<<<443:=%@@$@@@$$%;<3444444444<:=:<<4,;==:<343<=%@$$$@%=:343<=%*:<3<:;=:<333333334<:=%%$@%**%%=:<<<,:=:::<<3<<<<<<<<<33<<<<<<<3<<:%@#%%*==;:<<<,;:::=*;:;=:<,=;;=*=:<<3<:%@*,3<,;=%%*==;:<;=;::=:<<:=;><<:==*%@%%$%:3<3333<<33<333343333443<<;*%%*:<;=:<;==<<<<<<<<<<43<33:;:<<:=%%;<,=%=<<,:=$@@",
"X+@@*:<<<,;%=<<:=%=:<:;;<<<333333333444:*%<<:=,3<;==:<344334444444444433333444<=%%%%$%=*=;<44<;;:4<:;<<:=<4,;;:%@%:344:%+@:3443<=%&::;;<:=$*=*%%*=*=,<,;=%%%@@@@@*<3333443334433333443333<,*$@@@%====$@$*%@+@@%=<333343<,::<3<<,<<3<:%$%;::::;*@@+@$=:<:==%@+=<44,==,34444444444<:$@$$@@@@@@%=,444<:;:4444444334444333<<3333333=%@@@@$%%===;<<,;;<<:=:<:::<,:;,;%@=<44<=@$=333<<;**%@@%:,==:<;==:,:==:<<;=*%$$=%$@;<333333333333<<33<<333<<<33:::<444,=%%%*%@@@%=<34444444444<:=*=:4<:=%=,<344:%@@@@@*,3<<<,%%=<33<===,<4444443343<,=%@@%==%%=,,::=%@$%*:<333<<<<<<<333<<<<<<3<<<%@@***=:;==:<3:========*=::;::,===,<<,=$@%:<<:=%@%;:=::<==::;=,<<;;:<<:;==*%@$%$*:<<<33<<<33<<<3344443333<:%%%$$=::=;<;:<<<<<<3<<<<4<<33<,,,:=%$@*::**:<<3,=$@@",
"+@@@%;<<<<,==,<=%$%*:,,,<<33333333<3334,;=<<;;<<=%$%=,344334434444433333333444<=%%%%%%*==-;:<3:::<<:=::;=:<,::,=@@=<44,*@$:444<;%%*::==:==*=====*%%=::;=====$@+@$=<3333443333333333333333<<%$@@@@%$%%$$%=%@X@%=<3443343<:===::<<433,=========*%@@@@%*====%%%%=:33<<<<3<<<<<444443<=%@@@$%%$%*:<<,:=%%%=:<3344334444333<<3333333;%@@@@$$*;;==;,<::::===;;==:::=,:=@%:44,*@%;333<:=%%%%%=::==::==:<:;=;,<<:=%%@@%%$@=<333333333333<333<<333<<<:=*%%;:,<,=%%**$@@@*:33444443<3443<,::<4<:*$*;::,<:*@@@@@=:,:::=%%*:<3<:::<<<<<<4433432<=%@@$%%%%=::=%%%@$$%:<<<<<<<<<<<<<3<<<<<<3<<<=======,:;=::<===;=======;;==:,=%*;<<:%@@@=,<:=%@=:,=;::=%====;::::,<:==;=%%$$$$=,43<<3<<<33<<33333443222<,=*%$@%;:;=:==:==;:<3<<<<3<<<<<<<:=%%$$%=:==:<<<:%$@@",
"@@@@%;<<3<<==::=%%%%=:<<<<33333333<<,,<,:=<,;:::%@$%=,344444434444433333334444<=%%%$%$%=;;==:3<::::======:::=:<:%@%:34:%@$=<44,*%%=:;=*===;;;;===**======::;%@@@%:33444443333333334333333<<%@@@@@@@$$@@$%@@+@%;34444333<:=%%=;:<443,==:,====*%%$@@$%**%%%%====:<3443<,:==:<4444444:%@$@$**%%=:,==%%@@@$;<4344333444443<<3333334:=@@@@%%=>,:==:,:===========;==<,=$%=<<:%@%=,<3<;%$$*==:::=====;,<:;;,<<:;*%%@@%$$$:<33333343<<333333<<33<<<<;%@@@%*=;:;%%%%@@@$=:33444443<,,<<<<<<34<:*%*====:;=%@@@@*=;;;;===*:<33<<<<,:::<3333332<=%@@@$%%%=:=%$$@@@@%:<<<<<<3<<33<<<<<<<<<3<<<,::===:<<:;:::==;:;=::::;;=*=;:=***:,=%@@@=:,=*%%=:,====****=====;:,:===:=*%%$$$:<43<<3<<<333333333333222<<::=%%%=:===%%%$$%:<3<<<<3<<<<<<<=*%==*%==**:<<<:%@@@",
"$$@@%:<33<<;=;=*=:=%%:<33333333333<:==;:;=::;:;*@$%*;<444444433444433333333334<;%%%@@$%:,:;=;<<,:============;<:*$@=<3=$@@%;<3:%%==:=*%==:,,::*=;;=%*==;:<<:=%$@=,444444333333333344444443<%@@@@@@@@@@@@@@@@@%=334433333<,%%*==:<44<;=,4,=%*=%%%%%%*==%%%*:<<=:<343<,=%@%;<4444444:*@%@@%%%%=::%@@@@@@@=<444333344444<<<3433334<=@@$%%%-<<,:=::;=====;;:;=====<,;=%*:,=@@@%;<<,=%$$===:::%=*%*=:::::<<:=*%%%$@@@$%:<33333343<<333333<<<<<<<<;$@@@@@%%==%@@@@@@%=:33344433,;=;:,34444<:=:==%%**=*%%$@$%**====::=:<333<,:==%=,333333<<=%$@$%%%*==%%$$@@@@%:<333<<3<<33<<<<<<<<333333<<=*=:43,:::==:,<;=:33<::====:;==%::=%@@$=;:**===::=*==========*=:::;;:<:=%%%%%,343<<<<<<<3<<33<<3333333333<:=;====**@+++@%;<333<<3<<<<<<<===<<:=*%%%:<<<:%@@@",
"@@@@*:<33<<;==%;,3<;%:<33333333333<:%@$%*%====*%%%==,<444434433444433333333334<:%$$@@%*:<<,:::::==;::::::;===;::=*%%=<=$@@%=<<=%;;=====%=:44<;$=,<=%=;::;<<:=*=;<3444444334333334444444443<%$@@%$@@@@$%$@@@@%=:3443333333<:*%===:<44<:<43:*$%%%==*=***%%=:<3<::<33<:;=%%;<44444444:%@$@@@@@$=;=$#@@@@@@=<4443344444443<<4443334<:===*%%;<<,:<:-=====:<<3<:====:::;===:=$@@%*<<:*%%%===;==%%*==*%*=;:::===;;%$@+@@=,<333333443<333333<<<<333,=$@@@@@%%%==%$@@@%=:<33344432<:*%*;:<444<:;<<:=%*===*%%%%*==*=;<<:=,<33<:;;==;<3333333<<<:*@@%*:;*%$@@$%$@@%:<333<<3<<3<<<<<<<<<333333<,=*=:<<:;::==:<<*%;443:==;====:;%:::%@@%=:;%=;=;;;=*=;::<<<:-====;:,<<4,=%==;:<443<<<<<<33<<<<<<33334433333<<<<:*%%@++++@$*:<33<<3<<<<<<<;==;:,,=%@%:<<<<=%@@",
"@@@@=:<<<<:*%*=:<<:=%:<333333333<,;%@@@@@$%%%%=::::,<34444334334433333333333333<=%%%%%=,<<:,,:;;::;:<<3<<::;==;:;==%%;=$@$%=<:=%:;=====%%=<<:*@=:<*%=::==,,;*==,34444444434433334444433444<=%@@$%%@@@%==%%@@%=:<<<<3333343<-&%**=:<43<344:*@@$%====%%$@%=:<3<<<33<:==*%=<444444444,;=%@@@@$%==%$@@$%@@@=<44444444444443344433343<,,:=*%;<,::,:=*::=%;<34<:====:::::=%=*$@@%*<>=%%*=:;=====;::==========;:,,*%$@@%:<333344444<<<<<3333<<<333,=$@@%@$@$%*;:;===:<<3333333333<:%*==:<34<,:3<<;**=======**%%%=,3<,:<<<<:=====<<4333343344:=%=;:<:*$@@%%%@@$=,<<<<<<3<<<<<33<<<<333<<<3<:=*=:<:==:::*;<<=%=:<:=%*::===:;%=::=$@&::=%=:======;;:<<3<:*::===:::,<,=%=:,<343333<<<<33<<<<<<3444443<<<:::<3<=%$@@@@+@@%%:<<<<3<<33<<<:=%*:<<:=@$=,,<,:%@@",
"@@@@=:,,::;%$%:<<:=*=,3433333334<:%@@@@@@@@@%%:<3<<<<<44443333334333333333333333:===**=,<<::,:=;:,==,3443,:::-==;:=%%**%@$%=,=%%:====:;%$%===%@=::%%=:;==::=**=,344444444443333344443334444:%@X@%*$@@%=:;=$@%=::::<33333444:=%%%*=<344444:%@@@$*===%@@@@*,<33333<:=%*%=:<444444443<,:=%$%%*==%%$@@%%$@@;<44444443444444444433443333:=*%=<:==::=%::=@=:<<,:%=::;=;::=%%%%@@%=,:%%*==:;***=,<<<==::;=**==;:<<=%%%%=,<333344444<<<<<344433<333,=$@@%%@@@@%:<<<,,<<3<<333333333<==**=:<4<<<34<:*%%%=;====%%$%:<43<<33<:=====:33333333<<3<:==:<3<:*$@$*=%@@%=<<<<<<<<<<<3333<<<<33<<<<3<:=*==::==:::*=:<=%%===%$%,::==:;%%;,=%@=::*%=:==*=::;=:<<<:=%:>=*=,:-;<:=%=:<443334333<<333333<<3444443<:=*%%:<,=&$@@$$++@@$=<<<<<<<<<<<<<:%=:<<,=@@%;::::*$@",
"++@$%===*%%@@=<<<:==,34443333334<=@@@@@@@@@@%=<333<:=:<444333333444433334444433333<:=*=::;;;::==<<*$;,<<<=*<<:=*;::*%%%%@#=::=*=;==;<<;@@@$$$$%:,;%%=;==;;=***=:<44444444443333344433344444<=@+@*;%@+@%=::=*======:<<333444<;%%===:<44444:%@@@$%=::%@@@@*<<34443<;=*%=:344444444<:::>=%=:<:=%%%$@%*%@@%,444444333334433444333443333:=*%=,:==::=%=;=@%%====$=<<:==,:==*%$@@%::=%%=======*=,33<%*:4<:**;:=;:<=%%=:,2233334444433333344444<<33<:%@@%%%@@@*:<344,::<<:<<3433444<:=%%%=:444444<:%@@@%=:;=%@@@@=<44444<:=%%**:<44333333::::===:,<:;=%@%==%@@*:<<<<<3<<<<33333<<<<33<<234<,=**=::;;::;==:<:%@@$$$@%;<<:::==*=::%$::;==;;;*=:<:*@=:=:=$@=:*%=:;==::=*=:<44444444433333333<<3444443:%@@@@%*==*%@%*%XX@#%;<<3<<<<<==:,<<,,<<<:=@@%%=*%%%@+",
"+@@%%%*%%%%$%*:<<<<<<<<<,,<333332,=$@@@@%%@$*:<<::=$@%=:<3333333433<<<<34433333333<:=*=::;=;::==::*@%===:*%=<<:==:;==*%@@$=:==**==;::;**%$@@@@*:<=%%=======%**=:3434444334433333444433333444;$@@%=%@@*======;;;;;=;:<333333<:=*==;:<4444<;%@@@@$=;=%@@@@%:<3443<:===*;,44444443<:;;-=;==::;*%%%$%==%@@*<433444334334433344333333333:=&%=::;;,:=%===$$$$@*===:<<:=;=-;=%@@%=<:=%*=-**=:;%%=><,%%;3<=%*;:==:<=**=:<3333334444433333333433<333<,=@@$*=%$@%:::<:;===-;;<34334443<=%%*=:<33334<;$@@@$*,:*@@@@@=<44444<:=*%%=:34433343<:;;==;==;:===%@%==%@@=,<<<<<<<<<<33333<<<<3332234<,=**=====:;===;4,=@@@$%==%;:::===*==:%$===;=====:<,=%%==%%%@%;:*&=::=;,:=*=:<33444334433333333<<<334444:%@@@@@$$%%$@%%@XX@$;<<<3<<<<,=%%==::<<<<;*%=*%%%%%%$@",
"@$%%%%%$%%*==%;,<<3<<:;==:<443334<:%@@@$%=%%=::;*%%@@@%=<3333334433<<<<34433333334<:=*=;::;:::===:=$$%%%===*:<<:===;==$@@%::&=**===:==&=%@++@@=<<=%%=======%=*=<33<344433443333343443333333<=$@@@%$$%;==%%%=;===:;=;:<333<<,:=**==;:3444<=$@@@@@%=%$@@@@%=<333<,;==*=;,<34333<:;;;:;=::;===**%%%===$@%;<4334444444433333443<3333333,=%%=;:::<:=%*=;*$@@@%=;==:<,:==;:;*@@%:<=*%=;-%=:<;%$*===%%;<:=%=;;==:,=%&=><333333443344333333333333333<:%@@*=*$$*:==;=====-==:<<33443<<:=**=:<<3344<=$@@@$%:;%@@@@@=<44443:;=*%*:<4433443<:;===;;;=*====%@$*%$@@=,<<<<3<<33333333<<<<3443334<,=**==========;<<;$@@@%==%*=;=====**:;====;;===::,;*%=*%@@@@=::**=::::,;=*=:<3333333443<<<2233<<<334444:%@@@@@@@@@@@%$@X+@$:<333<<<<<:%$%*=;,<<<;*%:;=%%%%%%%",
"%*=*%$$@%=:<:==,<<<,;=%@%:<3344443:%@@@@%*%%=:=%@@@@@@$=<433333443333333443<<333343:====:,:<,;===,;%$@@@%::%=:<<:==;;=$@@*::%****%*=%%**$@XX@%:,:=*%%*===****=;<33<<444444443333333333444<,=%@@+++@%=:*%%@@%***=;;==*=<<<<:;=%%%*==:<444<*@@@@@@$$$@@@@@$%,333<:==*%%=;:<333,=%%=::::::=%%*=:=%%==%@@%,34443344444333344443<3333333<;%%%==:,:=***=;=$@@@@%:=%%;:,;=;:;*$@=:,*%==;=*:<<=*%$@@@$%;<=%*=;;==;:=%%=:<33333344333333333<<3333333<<:%@@%%%@%=:=%%*=:;;:;==;:<4443<::=**=;:<<343,*@@@@@%;=%@@@@@=:4444<:=;===:<343333<:=;::=;;=%%%=;;=$@@@@@@*;,<<333<33333333333334433333<;=**%*==*%%==;:,:%@@@@%**%%%%*===%%:<,====:==:::=%*;;%@+@@$::;=*=:<<,:====:<3333<<33443<<2244333334444:%+@@@@@@@@@@@@@@@@$;<33<<<<<<<;%%*=*;,<<:=%:,:%$$%%**",
"==*%@@@@*:<<:=:<<<:;=*%%:<3334444<:%@@@@@@@%=;%@@@@@@@$=<433333333<33333443<<333343,=*===:<<:====,:=$$@@@=:=%%=:::=;==%$%::=%===%%$@$%%$@@@@$%**==%%$%==*%%%%=:333<3444444443333334444444<:$@@@++@%=;=%@@@@@$%%%===;*%*:<<:=***%%*=:<44<;%@@@@@@%%$@@@@@@%,343,;=*%%%*==><3<=$$*=:;===*$@@%%==*%%$@@@%=:<443344444333333443<3333333<:*%%===;=*%=*%%=%$$%$$===$%=::;;:;==%::=%*====:::*%&*$@@@@*:,=%*=;;==::=%*=<333334444333333333<<3333333,;=$@+@$%%*==%$@$%====;==%%;<44<:==*%%*==,<34<:%@@@@@$%$@@+@@@%:4443:====**=;,433<:===:;=***%$$%%===*%@@@@@@%:<<33<<33333333333333433333<:=**%%*=*%@%==***%$@@@$%*%@@%%===**=:,*======:=%@$*=%$@@@$%::=====;:;===*=:<33333<<<343333334333334444:%@@@%@@@+@$%@@@+@%=,<33<<<<<<<,=%%*=*=,<<,:,<<=$@$%*=",
":;=@@@@@*:<<<,<<<,=*%%%=<33334444<,=*%@@@@$%==%@@@$%@@#=<433333333<3333344333344444<;=====::;=====;=%$%%$=;;%$%=::=====**:;=====%%@@@%%$@@++@%$%%=%$@%%*%$%%*:<3333344444444333444444443<:*@+@@@@%=;;=%$@@@@@$%%*==;=%@*:<:=*==*%%=;,3<:%$@@@@@@==%@@@@@@$;<4<:===*%%*==:<<;%@%====*%%%@@@@$*===%$@@@$$=:3333344443<333344333333433<,=*&%%===%%*%$@**%@%%$===@@%=,:;;;;;=::=*=:=====%$#$%@@++@=::=%%==;;::==%*;<444434444333334443<<3333333:*$@@@@$%*==*@@@@%%*=====%$%;<3<;**%%%**=:<34<:%@++@@@%$@@@@@@%=<34<:=*%***==:4<,;**=;;==%%%$@@@%%=;=*$@@@@@$=:<<3<<33333433333333333443<<;=%%%*=*%$%=;%%%%$@@@$%=%@@%%==*=====*==*==::%@@$==$$%%@$%====**====**==;<33443<<<<343333334443334444<=@+@$%$@+@%==%$@@%;:,,<<<<<<<<<:*%%%%=:<<<<<<<;$+@@%=",
"<:=@@@@@&:<<<<33<;%%%%=:<34444443<<,:=@$%*=*%%%@@@%%@@%:<444433333<3333444333333344<:===*====*===%%*%$%=%*=;%@@$=::===:========*%$@@@$%$@+XX@$@#*;*%$%%%%%%%=<33333344433333333444444443<=@@@@%%$%::=%%$@@@@@@$%%%=;:=@@*;:=====%*=;:<:*$$$@@@@%;:=%@@@@@@%:<<:=====%*==:>;%$%=;=%%%$@$$$@@@&=::=%@$$@@%=<<33344443<3333343333344333<;=%%%*==%%%%$@%*%@%%%*==@@$%:::=;::=====;:;=%%$@@@@@@@@@$=::=%%%=-:;=**%*:<444433433333333333<<3333<<<=%@@@@@%=;==%@@@@$%%%%*===*$%:<,;*%%%*===:<33,=@@++@@%=%$@@@@@@%:<3<:=%%&*===:<,=%%=:===%%%$@@@@$%*=;=%$%%@@@%;,<<<<3333333333333333444333,;==**=*%%=::$%%%@@@@%%=$@$%%***=:=%%===*=;:*@@@$*=@%%%@$%%%%=%%===%%%==:<33443<<<3333333333443333344<:$@+@%%$+@%=;=*$@%==;;:,<<<<<<<<;%$%%*=,<<<<<<=$++@@%",
"<:=@@@@@*:<<<34<:=*&%%:<<3444444<:;::=%*:<:=%$$@@%%%@@=<3444433332<33334443333333432:==%%*=:;***%@@%%@%**==;%@@@%=:==::=*%%=:=*%%@+@+$*@+++X@%%%=,=%%%%%%%%=,343333344433333333444444443,*X+@%=%%%;;=@@@@@@@@@@%%%*::=@@$%======*=::::=@$%%@@@%%::==%$$%%$@%:<:;====***===%@%=:;*$%$@@$%$$%%%=::;=$$@@@$%=<3334444433333343333344333<:=*&****%%%%%==*%$%%%%=*@$@@*::=;::=%%==::==%@@@@@@@$%$@**%%**%$%%=%%%%%*><444433433333333333<<3333<:=%$@@@@@%;;=%$@@@@$$@%%%*=::%$%::;**%%====;,3<=%@@+@@$*:=%@+@@@@%=<<<;==%*===;:,=%@*;:=%%%$$@@@@@@$%===*%*=%@@@=:<<<<333<<<33333333344443333<:=*===*=;::%%%%@@$@$%=@@%$$%*==;%%%====;:=@@@@@%*@%%%%%*$$%%%%==%%%%==<333443<<<33333333334433333443<%@@$**%X+@%=======**=*:<<<<<<<<,=%%*==:<<<<<,=@+@@@@",
"=%@+@@@@%:<<<<3<:=*&*=,3333344<,:=======:,=*%$$%%=*%@$=<3444433332<33334443<<3333433,;=======*%%*%*==%%%%%%=$@$@$*:;==;;=%%=:=*%@@@++@%@@$%+@@@$*;;=*%%%*=:<<444433333434434444444444444:%+$*==%$@=;=$@@@@@@@@@@@@%:<:$@@$%*======;==%%%****%%==;;;:=%%*=%%%%=;:;=*==**=%%#@*:<:%$@@@@@@@@$%==::=%%*%#$@%*<33344443333344444433333<<<<:=%%**%%%*=;==%$@%%$%*%@%%%%:>==;:=%%=:::=%$@@@@$@$%$@@%%$%%*%@$%%%%%%*;<4333333333333<<3333<<<333<:*$@@@%%%%=;=%@@@@@@@@@$%%=:<*$$%====*%===;:::=%$$$@@%*=:;*@@@$%%%%=:::;=*===;;=*%$@=::=%%$$@@@@@@@$%===%%*==%$@*:3333333333443334433443333333<:;===;:::;%%$$@%%@%*=@@$%%%=====**;=**::=@$@@@$%@$%%%*=*==*%%=***%%=:<333333<<<333333344333333<<333<=@@@%%$@$*==*%==;======:<<<<<<<,=%%*===,<<<<:%@++++@",
"@@@+@@@@$=<<<<<:==%&*=:<223<<<:===;===;====**%$%==%$@%;33333344333333334333<<3344333<:=======**======%%*%%%*@@$%$%,:;==;=%%=--=*@@@+@%=%$$%@@@@%*=;:;====:<34444443333344434444444334443=%@%==%%@+%==@@$@@@@@@@@@@%;<:%@@@@%=:=**===%%%==========;;:=%%====*%%====*====*%@#$=<3:%@@@@@@@+@@%*=;:%%%=&%%@$%,<334444334334444443333<<333<:====*==;;==%$@$%%$%=*$%%%%:<:==;:=*=::;*$@$@@@%$@%@@%*%%*==%$%%%%%%*=:33333333344433<<3333<<<333<:%@@@%%*%%*==%$@@@@@@@@@$%=,<=%@@%====*===:;==%%%%%$@*=;:;=%$$%*=*%*=;;;====;:=*%%$$:::%%$@@@@@@@@@@%==*@$%==%%@%;<4334444444333344333333333344<<:::,,:;=*%$@@%%$=;;%@$%%*:;=======*=,:*@$$@$%%@%%%$%=*====**%**==;,<33333<<<3433333444443333<<3<<:*@+@@@@$===%%@%*====;===::<<<<,:=%%%*==:<<<<:$@++++@",
"@@@+@@@@@*<<<<<;=%%%%==;<<<<,=%%=;:;;;;*%%*=;=%%=*%@@*:33333333333<333343332223333333<=%%*==*&=;:=*%%$%=%%*=%@$%%*<<:**=:;==*-:;@@$@%=:;%@@@@@@%===:<<,<<344444344334444433333334433343<%@@%%%@@+X@%%@@@@++@@+o@@@%=<,=$@@@%=<=*%%%%$%=:=============%%=;;;==%%*%%*====%@@$%=<4:*@@@@@@$@@@$%*=;%@%*=*%@$%:<334444344444443333333334433<::===:,,=%$+@@$%%%=::*$@%%:<,===:;=;::=%@@%@@#&$@$@#*;==:;=%%%%%%%%=:<<3333444444433333333333333<:%@@$%*%$$%=%%%@@@@@@@@@@$;<3;%@@%%=======;=%$%**==%$=;;====**=====%%*======::=%%%$%:<:%$$@@@@@@@@@@%==*@%%%%%%@@=<4334443333333333333344333344443333<==;=%$@@@@@;<2=%%$$=<:=%=::=*=;<:%@@@@=:;@%%%@@@%=;::=*%**=:,3333443<<<3433443444444333333<:%$@XXo+@*;=%$@@@$%%%%===&%=:<<,;*%%%%%%*:<<<<;@+++++@",
"%%@++X+@@%,<<<:=*%%%%%*=:<<:*$$*=;;=**%@@@@%==%$%@@+@$=:<333333333<<<<343332233333333<<:==*==:>:=*%%$%%%%=:<:=@@@%<<,===;,;**::;@$%%*:3,%@@@@@@%%%%=<3334443444333334444443333334433343,%@@@@$@+X X@%$@@$@@@@@o+@#%*::;*$@@%=:==*=%@$=::=;:=**=*===%**%=:;=;:%$%%%*==;;%@@%=:<<=%@@@@+@@@@@$$%=;*%@@$%%@@$=:3444443344444433333333344333<<<<<<:=%%%@@@@@@%:3<:%@@%:33:==;::;==:;%@%$#%*%@$%%%%%%=:::*%%%%==:<33333344444443333333333333<:%$@@%%$@@%==%$$@@+@@+X@@@$;<3:=%$$%=;;=****%%%;==:=%%*======**=:;;:=%%%%%%=:,:=%$$%=<,=%%$@@@@@++@@@%==*$%%%$$$@@*<433444333334433333334433334444444<:%%%%$$@@@@%:33=*=*%=,:=*;:;===:<:%+@@*,<:%$$%$@@%==;<<::::<<33333444<<<3433443344443333333<=@++XXo#=--=%@+@@@@$@%====%$%;<<:*%%%$$%&;,3<:*++++++@",
":=%@@++@@$=,<<:=**%%%%*=:<,=$$%===*%%%%@@@@$*==*%$@@@@%=,333333343<<<<33333333333444333<<::,<<:;==%$$$$@$=,4<=$@@%;<,;==;,===::===*%%:<,%@@@@@@$%%$=<333444334433333444444334433333334<:%@@@@@@+.  @%%@@$@@@@@@@@@$%=:;=%@@$%=*==*$@%:,:=::=**=****%%=%=::=;,;%$%*===;=%@$%=:<:%@$$@@@@@@@@$$%=:=%@@@@@@@$*:344444434444443334443333434444443<:%%$$@@@@@$*,3<;%%%%=:<:==;::;=;:;%@%%=::=$@%%$@$%=;:,::::::,<333344444433333333333333333<:%$@@@$@@@%==*%$$@@@@@@@@@@=:3:=%$$%=;;=*==%$%=:;=:=%%%*=-======,:;::=$$%*==;:;*%@%*=,:=%$@@@@@@+@@@@%==*@$$$$@@@@*,43<<<3333334333334444433334444444<:%%%%%%$$@$%:<,**=;===;===;;*==::=%@@$%<<:%@@$$$$%==%:<<<<<<<33333443<<<343333334443334433<;%++@@@@%;;*%%@+++@@@$%%%===$@%;::***%%%%*=:<:=$@@+++@@",
"<:=@@@+@@@%;,<:=***%%%*=::=$@%;;=%%%@@$$@@@$*=::=%$$%@@$;<<23344433333333<<3333334444444444444=***%$$@@@@=,4,=%%%%%;::===:======::=%%=:;*%$@@@%%%*%;<3334444443<3344444443334443<,,,<<<;%@@@@@@@X .@*=%@@@@@@@@@$@@%*===%@@$%%%*=%$%=<,==::=====*%*%====:<==:,=%%==**==%$%*=:,=%@%%%@@@@@@@@%=;:=%@@@@@@@$=,344444444434333333333333334443333<;%%%$%@@%%&=:<,=%%*%*=::==;;;;=;:=*%$%:3<;%@@@@@$&==;<<<<<<333443344443333333333333333333<:%$@@@@@@@%=;=%$$@@$$@@@@$@%=<:;=$$%*==*===@%=:;;::*%*%%*==**===<:=;<:%@%====;=%$@%=;:=%%$@@@@@@@@@@$=;=*$@@@@@@@@*:<,:::<<333333333344433<<2344444443<==;;=*$$%%====%%=::=%*=====**==%%%%%%%:,:%$@@@@%%**$=,3<<<3<<<344443<<344333344444334443<,%@@@$%%$&:;%$%@@++@@@$%$%*;:%@@%=;=*=*%%%==:,=$@@@@++@@",
":==*%@@%%@@%=:;==%**%%*==%$@%=:=%%$$@@$@@@%%*=;::%$$@@@$%=,23444433333333<<333333444444444444<%%%%$$$@$%%*;<:=%===%%*=*==:=**%%*:=*%%%%%***@@%:,,,,<333444444<<:<34444444333444<:*%%%===%%%@#%%%@+@%==%@@@@@@@$%*%@$%*%*%@@$%%%*=*%*,<:=:,:%*;:===%*==*=:<;==<:*%==%%%*%%%*=::=%%=*%@@@@@$$@%=;:*$@@@###@$;<444444444333333333333333333443333<,;====%%=:;=====%%==*%*===:;==========:3<;%@@@@@$%=%%:<33333334433444433333333333333333334<=%@@@@@@@$=;=*##@@@@@@@%%@$*,:;=%$%**%%==%@=::==::*%*****%*====,:;=<<=@@%=****%%@%===*%%%%@@@@@@@@@%=====%@@@@@$$*;=&%%%=,33333333<<444<<,,<4444444444<<34<:%%*=*&&***====%%%=*==****%*==%%%===%**%@@%%%%%=:3<<<3<<3344443333443333444443344443,%@@%*=*$%--%@@@@++oX@@@$$%;<%@@@%%===***===;=$@@$@@@@$%",
"====*%$%%%%%%==;=%******%@@@%:<;%$@@@@@@@@$%==::=%%%%$@@$=<<3344433333333<<3333334444444444443;=====%%%=**=;=*%===%%&=%*===%%%%%==*%%%%%**=%%=<2<<<3443344444<:=<3334444433333<:%$$$@$%=:::;;::===:::=*%@@@$$@@$=*$@%%%=%$@$%*%===%=<,;=,,;%*;:===*=;;*=;<:==::;%==%%%%%%%*;::*%%:=%$@@@@$$@%*==%%$$$$$%%%=,3<<<<<3444343333443333344334434443<<<<<<:=*===*==*%%****========&%*;::=;:<<:=%%@@@#%=%%=<3333333443333344444434444333<<<<<<<:%$%%$$@@@%*==%@@@@@@$$@%=%$%::;=%%%%*%%=*%%::;=:,:%%===***=:;=%:::=,<:%%%=**%%%%@%===*%%**$$$$$@@@$*;:::;===;-=;:;=%$@$$%*:<<33333<<333<<:;,344444444433444<=***=*&*%%****%%%%***%%*%%%**%%%***%==%%*=;::;:<2<<<<<<334444333444333344444444444<:#@%==*%@%==%$@@@@@@@++@@@%;3=@+@@$%==*%%*==%%$%%%%%%%%=",
"*====%%*===&%%*==%%*==*%$@@$=<<:%@@@@@@@@@@%==;=%%%=*%$@@=<<3344433333333<<<<33333444344333444<,,<<,=**==**=*%%**=****%%*=*%$%%%%%%$%%%%%%%%=:<3334444334443<:==,<3344444333<,;%@@@@+@@*,<<<<<<;;,34<:=%@@@$$@@$;=%$%%%==%@@%=*==**;<:==<,=%=;:;===;:;=*=<<:=;::%*=%%%&$%%=;:;%%=:=%@@$$$$%%*==;=**=*%*====::====;<34444334444343<<<3444444444444444,;%*=***%%%%***==**%%***%%%=:;==::;==:=%$%%=;==:<333344444333333444443444433<,;===;::====%**%%=;;;=%@@@@$$$@%=*%%;:;=%$%%*%%=**=::==<<;%%=:;=*=;::=%:::=:,,&%*=***%%%$====%%%==%@$$$@@@%=:,<<:=;<<<<<<:%@@@@@@$%;<33333<<<<33<;=:<<334444444444<:;=*%*%%%%%%%%%%%%%=*%**%%%%**%%%%%**==%*:<<<<<33<<<<<<3333333333444333334433333443,=@@%=*%@@%==%$@@@++@@X@@@@%;3=$@@@@%=;*%%%*%$@%===*%%%==",
"====%%%*=;=;*@%%%%%*==*$@@@%:<3:%@@@@@@@@@@$%%==%$%*=*%@@*:<344444433333<<<<<<3<<<333344333344434444<=%**==*%%%%=%%*=*%%%%*%%%%$$$@@@@#$%%$%*=:<<333333343<<:=*=,<333343333<<=%@@@@@++@$:<4444<=;<44<:%%$@@@@@@%;;=%%%%==%@@%====%=:,==:3:=%=;:=**=====*=,<,===-%%%%***$%%;;;=%==:=%@@$%@@%==:,<,:=,:::<<<:=%@@@@%;<3443334443343<;:<334444444444444,=%%%***%%%**==***%%%***%%%%%%$%**%%=,:;=::<<,,<<<33333344<<3<<344334333333<<;%$@@@=:,<<,;:::=:<<,:%$@@@$$@@&;=%%=::=%$$%**%=**::;=:<<=%%=:;=*=;:;=%=,,==:<=%*;===%%%%==%*%%*;=%@@@@@@$%=,33<:*=<4443<=$@@+@@@$@%:33333<<<<33<;==;:<3444444443,;==*%%%%%%%%%$##$$%*==***%%%***%%%%%%%**%=:<334443<<<<<<333<<<333344433333333333344<:$@@$%@@+@%==%@@@@XX+@X+@@@%=<;%@@@@%;:=%%%$@@%;====%%%%%",
"***%%%%*;;*;;%@$%***=;=%@@%=:<<=$@@@++@@@+#$$$==*$@@$%$@@%=,344444433333<<<<<<3<<<:<334433334443344<:=**%&**%%%*=*%*=**%%%%%%$@@$@@@%%@@$$$$%%%=,3333<<34<,=====:<443343333<:%$@@@$$@@@@:<443<;=:444<:=%$@@@@@$%=;:==%%=*%@@$=***$%===;<<;%%==*%%%*====*%;<<:==*%%$%**%@$*::==*=::=%@@@@@@%*;,<3<:=:<<<33<:*$@$$$@%*:,<333444334<:=;:3344444444443<:;=*%%*******=====*%%%*==%%$%%%$%%%%%%===:<<<<<<<<<3443333<:<<<<3443343333<:;=%$$@@@%=<33<<<>=;,<3<:%$@@@@@@%=;;=%*=;;*%$%==%%%%====<<,=%==;==*==::=%*:,:==:=**=**=%$$*==%***=;=%@@@@@$%%=:33<<==:<443:%@@$$%$$$@%-<3333<<33<<,;=;==:<44433444<:=*%%%%%%*==%%$%%%%%%*=*%%******%%%=%%%%*%=;:<33344<<33<<33<::<33<344433333333443344<;@@@@@@@@+$==*$X@@++@@X++@@$%:;=%@@@$===**%@@$=:=*;=*%**%",
"*%%%%%%=::%=:;$@%=**=;=%@$%=,<:%@@%@@+@@@@$$#%=;=%@@@@@@@%*,3444444333333<<<<<<<<:=:<4443333443333<:;=*%%&==%%%*=%%%**%%%*%$%%%%%%%%=*%@@@$@@$%=:<3<<:<<3<:*====:<4433433443<=$@$@%%%%%@=<44<:=:<444<:==*%%$@%%*;:,:=*%=%@@@$**%%%%*==:<:=%*==%@@$%%=;;=%=<3<:=*%$@%==%@$%;;===::;=*%@@@@%%=:<343,=;,3443<=%$$%$$@@$%:<333444333<:==;,<<444443332,:==*%%*========*==**%%%==%%%$$$$%%$$%%%%%%:<333333<<3432<<<:=:<3<344334333<:=%%$@@@@$@%:3333,;=:<33<:*%$@@@@%%=;:==*=;;&$@%==%$$%===:3<:%%*===*%%*=;=*%;,<====%%=***%@$*==%*=;:==%$@@@$%**=:3333:==:<44:%@%**%$$$$*:<33333333<<:;=;==;<34<,<444<;=%%%%$$%*:===*===%$%%==%*=*=*%%=====**%%*===:<3344<<33<<<<:=;<33<4444333344443<<<33<=@@@@@@@@+@*=*$+@@@@@@@@@@@@%===*@@@@%*%**%@@*::=*:=*%==*",
"=%%%==*=::*=:,*$$=*%%=*%$%*=,:=@@%%$@@@@@@$$$*===%@@@@@@@%=<3444444444443<<<<<<3<:==,<<3333334333<;===*%%***==**%%*%%*%%*=%$$%=;%*====*@@@$$@$*=:<3<:=:<3:======:<33444334443:%@$@%*==%@=,4<:==<34443,:===*%%%==,<<:=*%=%@@@$%%%%%%*=,<<=**==*$@@@@$*::=*=:<4<:=%$$%=*%$$%=====,<:===%%$$*==:<444<:=:<443<%%%%%%@@@$%;<443333443<:;===:<3433<<<<<:*%%%%%%===;:;==*==**%%===%%%%$$$%$$%%$$%$$*:<<3333<<333<,,:==:<33344333333<:%$$$@@$$%@%;<43<:==<333<:==%$@@$*==;:;=*===%$#%==%##%==:<<:=%%*=*%$$$%%==*%=:<:=*%%%*==*%@@%==%=;::;=*%%$%%*==:,3333<:==:<3=%@*==%@@$%:<<34333333<,:==;::;:<3<::<43<;=%%%%@@%*=====;::%%%%==%***;=*%==;====%%**%%=,<343<<33<<,:;=;<33344433<<34443<::,<<:=@@@@@@@@@$%=*%@@@@@+@@@@@@@$****@@@@@$$%%%@%;<:==:=*%===",
"=***:=**:,=*=,:*%==%$*%$$%*=::=@%==%@@@@@@$$%===%@@@@@@@@%:<44444444444433<<<<33<:==;::<33333433<:*%%*%%%**%======;*%%%*==%$$%;,===*==%$@@@$$%*;,33:*%=<3:;;;===*=<3444444333<;%@@@%%%@@%=:=*=,<3443<<:==::=*=;<343:=*%*%$$@$***%**=,4<:=*=:=%@@$$@$%=:;*%=,43<:=%%*=*%%$%===*=<<<:;========:<444<,==:<43<%%===%@@@%=<3443333443<:;;=%=:34<,;<<3<;=%%%%$%%*%=;=%%=:;***%===%%%=%%$%%%=%%%%%$$=:<3333<<33<>;====:<33344333333<<;%%$@%*==%%=<4<:==:3333<:=========;:<:=*===%%$%==%%%%=:<3<;*%=-:%@@@@@$=;=%*;<<:=%%%%==%%$$%====;<<<:;=*===;;=:<<3333<;%*=:%@@$%$@@@%:<3<34333333<=**==;:::<<:==:<3<:=**%%%%%&===*=::;*%%%==%%%*::=%*==*%=*%%*%%*=:<33<<<33<:====:<3333443<<<3444,=$%%%%==%%%$$%%$%=;;=%@@@@@@@@@$*$@@%%%*$@@@$%%%*%$=:<===,=%%=;=",
"**=;:-*%:,:==::=%==%$%%$$%==:;%@*==$@@@@@$$$%*==%$$%$$$%%%=<<<<<,<343334333<<<<3<:;;===,<33<,<33<;=%%%%%%*%%===%*=:*%%%%*=%%%%;,=*%%==%$@@@$%%*:<4<;%%=:,;;;==*=*=<34443343333<:*$@@@@@@%%===;<33<<:::=%%====:,344<;=%$%%$$@%==%%=:<34<=**=:=%@@@@$$%*:;=%=;<33<:=%*==%%%%==**=:<4<,:==:;===,<3333<:==:<<:%%===%@@%*:<4443333444<:===*=:<4<:*:<4<:=%%%%$%%%%=:=%%::=%%%%===%%%=;=%%===**%%%$%=:<33<<::<4<:===;;:<333444443333<,=%@@%*==%%=,,:==:<44<<<<;=======:<<<,=%===%%$%==*%*=:<2<:=%%=;;%@@@@@@*;;*%=,<<:=*%%==*$$$%***=;:33<,;===;===:,,<<44<:*===%$@@@@@@*:<33343<<<344<;==*%=;;;::=*=;<44<;==*%%%%%*=*%=::%%%%%%*%%%%=;=%%==*%**%%%%*==:<3<,:<33<;=*;;:<3333443<<<33<:=%@$$@@%=:::::::*=:<<:=%@@@@@@@@$=%$@%%%=%@@@%%%**%$;,:==::*%%=;:",
"**=::-=%-,<;==:=%**%%%%$$%=;:=%%===$@@@$$@$%%====%%==**====::;====<33333333<<<<<<:;;=%%:<3<:;<33<;=%%%%$%%%%===%*=;*%%@$%%%%%%=:;%$%*%%$@@@%%==,<4:=%%=::===*%*==;<3333<<<<<<33<:*%@@@@@$%===;<33<:=%*%@@%%%=,<344<-=%@%%$@@%==*%=<343:=%=;:*$@$@@$@$%:;=*%=:343<=**==%$$%==*==:<443,;===%%*:,,<<3<<;*=::=%%%%%%@@%:<34444444443,======;,3,=%=,4<,;*=*%$%%%%=;=%%:=%%%%$%%%%%*=:=*%===*%%%%$%=:<33<:=:<4<:=====:<4444444443333<,=$@$%**%%%===%;<44<<:,:=**====:<34<:=%%==%$$%===%=:<32,=%%==-=@@@@@@@%=:=%*;<3<:==%==*$$$%%%%==:344<>;===*%%===:<43<:*===%$@@@@%*:334444<,<<344<:==*%*====;=%*=,<4<,:;=%%%%%%%%%*==$%%%%%%$$$%*==%%*=%%%%%%%*==:<<3<:=,33,-==;;:<34444433333<:=%@@@@@@@=<3334<,=;,34<;%$@@@@@+@%==%$=%%=*$@+%%%=*%%::==;,:%%*=::",
"%*=::==&=:3:=%==*%%%%=%@@*====%%=;=$@$%%@@%%=:<<<=;,<,,3<<:=%@@@@%;<34333333322<,:===**:,<:==:<33:=%%%%%%%%%===%=;=%%%@@@@@@$$%*=%$@@@$%%$$=;:<<<<;*%%===*==*%*=;:33333:=:<<<<33<:=*%%$+$=:=%*:<<<=%@$@@@@@@=<3343<=%%%=%@@@%=;==:<34<;%*=::*$@$@@@@@%;:==%*;<44<;==;=%$@%=====:<4443:=$$@@@%**=,33<:=%%%%%@@$$@@@=<43333444434<:%*%%===:<;%%*:<3<,::;=%%%%%%%%%%=*%$@@+@@@$%%*:=%$*=%%$$$$%%=,33<,=*=:3:;-====:<344444433333334;%@@@@@@$%%%**:<33,=%**%##%%*;<<3<:;=%%==%$$%===*:<43<:**====%@@+X@@#$=:;%%=,333:=%==*%@$%*%%*=:<4442:*%%$@@$%$*:43,=%=::%@$%==::<434444,=;<333<<;=*%%**====**=:<<<<<<;=**%%%$$$$%$@@@@@@@@@@$%%%%$$%%%%%%%===;<<3<:==:<<:;====:<34444443333:*@@@@@@+@@%:<334<:*:<44<=$#@@@@@+@%==*%*%%==$++%%%=%%%;;*=:<=%%=;;=",
"@$%*===%&;3<:==*%@@%=*%@@=;======;=%@@@@@@%*=<<<3;=:33<34<:%$@$$$%%=:,<33333322<:;=**===:,;%%=:<3<,::;*%%%%%%%%%%%%@@++@@@@@@@@@$$$$@@%%%%%;:;:=;,=*%%%==****%%*=,43334;*;<3<<<<<<<,:;%+$*=%$%%:<,*@@$%%==%$%=,34<:=%$%%$@@@%=;=*;<3<:=%=:::=%@@@@@@@%====%%=,33<=*=;=%$@$%==*==:444<:%$%%%$@@@%;<3,=*===%$@@@@@$@=<3333<<<3334<;%*%%%**%==%%%=<<<,,,:;%*=%%%%==%*%%$@@@@@@@@$%*%%%%%%%%%%%=::<33<:=%=;:;=-=====:<44444333333334:%@@@@@@@%=;=*=,3<;%@@@$$$@@*:333<:==*===$@$%===*:<4<:=%*==;=%@@@@@@@$=::=%%;<33:=*===%@@%**%%=:<443,=%@%%%%$$@%:3<=%$%*=%@%;,<<<<<<3343:*;<333<,=%%%*=*====**=:::;;:::=*==%%%%%%$$@@@@@@$$@@%%%%%%%%%%%*%=;>,,<<<,;=*=::;;=====;<3444443333:%@@@@%%$@@%:<443:==<344<:*%$@@@@@@%=;;=*%%=%@X+$%%%%$%**%:,:%%%==*%",
"@@@%===%%=<<<:=%%@@%=*%@@==;===::;==%@@@@@*=;<334:==<3444<=%$$$$$$$%%;<33333333<:==%%====;=%%*:,<<,:,:=%**%%$$%%%$%@@+@@@@@@@@@@@@@$$%%==%%======:=%$%%*=****%%%=:43344;%=<33<,::,<<<:*+$%%$$$$=:,*@@*%=:,:=$%=<4<;*%%*%#@@@%=;==:<<,=*==::,:=%@@@@@%**===*%*:<3<;==;=%%$%%==%==:443<=%*;:=%#@@@=,<=%%%=;&@$%*%*==:<333<<::<334<;%%%%%%%%**%%%=:::;::::====*%%==%%*%%@@@$$$@@@%%%%%%$$%**%=;,,,<<,:**===**=*====:<4433<<33333344:==%%%%@@$;;=%%=<,=$@@@%==*@%=<33<:=*%==%$@$%===*:<4<;%%*====*@@@@@@@%;,:=*%=:<3>;====%$@@%%%%=:<34<;%%*=;=*%$@%:<:%@%$%*%$%:<3<::;:<343:%=<333<:=%%%==*===*%%=:::;======::=**%%%%%$@@$$%%%@$%***%%%%*=====::::::,:==*===*=======,34443<3333:=@@@@%%%%@%;<43,==:<344<:==*%$@@%%=;,:;*%%=%@+@$%%%$$%%*=,,;%%==*%@",
"$@@$*=:=*=:<3<;=%@$%=*%$$%=;**=:::===%$$%%=;:<444<:=:<444,*$%%%$$$$$%=<33<<3333<==*%%%*%%*%%%%=:::::::;====%%%%%%%%%@@@$%%@@@#$$%$$$%=;<:*%*%%==;:=%@@%==**==%%*=,3333<=%=<33<;=*=:<3:*@%$@%%%@%;<=%%;==,33,*$%:3,=*%==%$@$$%=:==:<<;%*;;::::=*$@@@%%=*==:==%=:3<:;;:=%%%%%==%*=;<4<;%=,43:=%$#$=::%@@@*=*@%;:,,<<<<333<<:=<444<:%%%**%%%**%%%*;;==*==;;:::===*=====%$$%*%%@@$%%%%%%%%===%=:::;:::=%===*%%%*=*==:3343<::33333333<<,,,::%@$=*$@@%;:=$@@%*:,,=%%:<<<==%%=*%$$%%====:<4:=%%=====*%@@@@@$=:<:;=%*;<3,==;;=%$$@%%%%=;,3<:%%=:<<:=*%@*:,*@@%%$%%%%:<<:=**=:<43:%=:<<3<,==%%=====-%@@%:::;==*%*=<<<;=%%=*%%$$$%*%%$%*=====%*=;:===;===*=;:=*===*%%%=====<3443<:<333<:%$@@%%=*$%=,<,==;<3344<:====*%%%=:<3<:*%%*$@@@$%%%$%%*;,<:=$*==%@@",
"$@@$%=:;*%=,<3,;=%%*=%%$$%=;**=:<<:;;;===;=;:34443,:=:<44:*%*==%%$$%=<<3<:,<33<<=%%%%%@$%%%%%$=;=*%%%====::=*%%%%**%%@@%==%@@%%%==%%=,<3:=%%%*==:<=$+@%;=%%=%%*=:<333<:%%;<3<:=*=%=,3:=*=%@@$@@%:<,::,==:343,%%=<:=%==:=%@$%%=;==,<,=%*;:>:==**%%%%%***=:::=%*:<4:==:=%%%%%======<<:%*:343:==&%$=:=%%%$%%%%*:<333<<<4333<;=<433<:==*==**==*%@@%::;====*=,33,;**=;:;=%$%%==%@%%%%*%%%==:<:====*=;::=$%*===%%==%%=:3344<::33333333<<333<:%%%%%$%$%*:=$@%**:<2<=*=<<:==*%==%%%%%====,3<;*%*=::==*%$@@@@%=;::::=%=:3<:=;:=%$$@%=====:<<=%=:<3<;====:,:%@@%%$%;;;,3<====%:<44:*%=:<<<<:=*%%*==::%@@%:<:==*%%*=,<3<==:,:=%$$$*=*%$%%;:::=%*:<<,;======::;*%%===*%*=**==<3443<=<3333<:%@@@%%%@@%===%;<433<<<,=======*:<33<;*%%%$@@@$%=%%%*:<3<;*%===%@@",
"+@@$$*;==%%;<33<:*%*=*%$$%==%%=:<4<<:=;:;=*;<34443<,==:<<;%%===%$@%=,<3<<::<333<=*%%**%%**%%@@=;:===*==%;<<,===::::*$@@$%=%$#$*;<<:%=,3<:=%$$%==:<;@X+=,:*%%%%*;:,::;=%%*,<<<===:;:,<:::=%@%$@@*:3<<<<==,343<=%%;=%%%==%$@@$%===*:<:%%=:::=*%*=**=***%%=;:;=*%=,3:==:=%$$%%;:==*=::=%;<443:=;;==:=%$%%@@%=*=:<3<,:;:<<34<:=:<333<>=*%=**=:=%@@%:,:===*%*:<3<:==:<<<:*%%%*%%@$%*:::==;<<<:==*%*==::=@$%=:=*=====;,4444<::333333<:;:,<3<:=*=%@@%%$$;:====%:<3<:=%:::=**===%$$%%====,3:=%%=::;=%%%%$$$%%%*=:::=%*:<<:*;:=%$$$%=;=*=;<:**:<44<==:<,<<,*@@%%%%;:::<<:::;%=<44<;%%%==:::=*%%=*=:<=@@%,<,=*%%%%=,<<:==,3<:%$@$%**%$%=,<<<:==<3<:=*%*=;;:,;%$%==;===;===:<434<,=<34443<:=@@@@@@@%*===:<43<:===*%%%*==:<<44,=*$@%%$@@%%=%%=:<<<:=%*==%@@@",
"X+@@@%===*%=:343,*%*;*%@@%==%%=:<443,;===%%=:,,<333<;==::=%%%*%%@@%:<33<<;:<343<:=*%==%*==*@@@=:,=====%%=<3<;==,<<<;%@@@%%%#@%=<4<:*=:<<;*%%%%*=:4:%X$:<:*%%$$%====*%@@%;<<<,==;3,::,:;:*%@%@@@=<4343,==<3333:*$*=%$%%%@@@@$%;==*::;%*=::==%%*=======*%*====*%=:<:==:=%$$$%===*%*==%%<2443:=;:,:,;$$%%@@%;;;:33<;=%=:<443,==:,<<<:=*%*%%*::*@@*<<;==*%%%=:<<:*=:<43<;%%$%$$$%*=<<<;=;<<<:=*%%*==::=@@*::=*====;:<443<:::34333<:=*=:<<<:;;;%@@%%@$:,,,:=%:<33<:%====%%===%$$%%==*=,<:=%*;::=%%%%%%%%&&%%=:::=%%=<,:*=;;%%$@%*=*%%=:=%=<444<==:333<<=%@%%%%==;::,:<<:%=<44<:%@@%%**=*%%%%%=:<:%$=<<<:=%*%%=:<:=%=:<<<;%@@%%%%$*:33<<:==,<<:=*%*=;=,<:%$%=::======:,3434<:=<344444<:*%@@@@@%====:<3<,=%%%$@@$$%=<<344:=%$$%%@@@%*=%%;<33<=%%=:=%@@@",
"@@@@@%;;==%*;<44<=*=;*$@@%==*===<444<:%$@@@@%%%=<343:=%**%%$$@@@@@=<4443<=:<3444<:=**==%=;=$+@=:<===%%%%=,<<=*=:<44<;$@@@@@@@=,34<=%$%;,;*%%%%*:<4<=$:<<:%$%$@@%@@@%$@@*,3<<<==:3<:==***@@@@@@@=,4443,==,<444<=@%*=%%$@@@@@$*:;==<:=%==;=*%%=====*====****==**=;<=*=:-*$@@@%%%%%%*$%=3334<:=;<44<:%@$%$@%:<<<43:*%%%*,444<:*%=;;;;=**=%%%:,:$%=<<=*=%%**=:<;%%%%=<34<=%@@@@%*;,3<,;%%:<<:=%%%%%=:,=@@=,:=%***=:<344<:=;,44433:=%*==,<<<<<:%@@%@$%:<44<=%:<333,%%%**%%%==%$%%%==**:<=**=====%*========%*===;;*%*:,:*=;;%%%@@@%%%%==%%:<444<==:<343<=%@@$$@$%**==;<,:%=<44<:%@$==%$$%%%%%%%=<<:=;<3<:=====*;;=%%*=:<3<=$@@@@@%=<4<:*%%%=:,;=*%%===:<,%$%:,:**===;,44433:;:<4444444<,:=%%@@$::*$=:<<:%@@@@@@@+@=<<344:*%%%=$@@@%*=%*-<3<;*%=;:;%@@@",
"@@@@$%=%*=%%=:<3<=%=:*%@@$%=*===,344<;@@%%%$@@@%=<3<=*=;=%#@$$@$$%=<4333<:=;,<<<<:=%%%%%*:,*@@:<<===%%%*=;:=%%%%=:43:*@@++@$*:<<===*%*==%%%%%%=,44:==,:;%%$$%%=;=*%;:=%*=<<3<=**==**====%@@@@@@=,4<<<:*%=;:<4<=@%**%%%@@@@@%*:=;,<;&%=;;*%%*===:;=;====%%*===**=<:==:=%@@@@$%%%**%@%=3333<:=;<444,*#$%$@%=::::<<:<:=%:344<:%%%*%%%%%%*%%%=:,==:<<;****=**===***%%=<<,=%@@@@%=:<,;==%%=::;*=*%%=:<<:%=:,=*%*=*%==;=====:<44433:==:<<<,:=;=*$$$%@@%<333:==,<333<=@#%%%%%%%@@$%%==*=:,=*==*****======;;====**=:=%*:,:=;:;%%$@@@@%%*=%%*<<<<<:==:<<<2<=%@@$$$%=:;==%==**:<4<:**=::;==:::====%*=::;=,33<:=**%%*======%=,,;%@@@@%*;<<;%@%*%=======*=;;<<<=*:<:=%*==*==::;;;;:,<44444<<<<<<,;%@$*%$$$%:<:%+@$%*==%$$=:<3<;%$@$%@@@@%==**;<<,=%%=;::=%@@",
"+@@$%*=%==*%*;<<<===;*%@@@%=**==:<4<:*%*;:=%@@@%=<,=%%%==%#%*=*===:<3333<:;====;;=*%%*%%%;<;*%:<<:==%%%%*==*%%%$$=,<:=%@@+@$=::;%%==*==*$@$$%=:<3<=*=;======;:,<:;=:<<:==;<3<:=%%%%*=:::=%@@@$%:<<:::=%%*==:3<=@%=*%%%@@@@@%=;=;<<=%%====%%==*%;==;====*%====*=;<,;=;=%@@$$$%%%==*$%:3<<,::==<444<=$@$$@$%====:,<<:=%:33<:=%*==*%*=****%%=;::=;<<;***%%%%====**%$%;,:=%@@@@%=::=%%=%*====%**%*;:<,:=:::=%%*=*%**==**%=,34443<:==<<<:;=*=*$@@$$@@*<333:==:,,<3<=$$%=%$%$$@@@%*===;,:%*===*%%*===;:=;=====%%=:=*%=<<;;;;%%$@@@@%%*;%%=<<<:;=**=::,<<:%@$$$%;:,,:=%%*=;,<4:=*:<<<:=:<<<,::::======;,<<:=*%%%*;:;==*$%=:=%@@@@%=;::%@$%*====*%%%*=::<<>==:,;=%*==%*=====*=;<34444<:::,<4<:%@%%$@%@@*::%@$%%=:<:=$@=<3:=%$%%%@@@@%=;==:<<:%%==;:::*%@",
"+@@%***====**=,<<:==;*%$$$%=****:<4<=$=,34:=%@@%=,;%@@$%=%@%:,,<<<<333<<<<:*%%%%%%%%%*%%%=:::*:<3,:=%%%%%%*==%*%@@=::=%%%@@%*;=%@%**=:,=%@@@%=:,:;*%%%*=:<<<3444<:=:<33,=*:<3<:=%%%=:<<3<=$$$%;<<:=***%%*===<:=$==%%%%@@@@@%==*=,:=%%====%%*%%%====**===*===;==:<<:*;=*$%%%%%%%===%*:3<:===*=:344<=$@@@@@%=====:,<:=*:33:=%=:<<;=;::;========*=::=*=*%@$%=::;%**%@%;:=%%%$$$===%%%**=:=*%%%%%=:<<:==:===*%**========%=:<343<<:==:<:=====*@@@@@@$=<33<;====;,<<=%%*=%$%$$$$$%*===,<:%%=;=*%%====;:===%==*%%=:;=%=,<:==;%$%%$@$%%%=*%=<<:==*%%===;:<<=%$$%=<3<<<:**=:,<3<==;<3<<;=:<3<<<<<<<:=%%**=:::=%%%%=:,==**%$%==%$@@$%*=:%@@%%==::=*%%$%=:<<,;=;:==*****=***===**-<3344<,=*%=,3<;%$%@@$%$@$::=%*===,43:*@%:<:=%%==%@@@@%=:==:3<=%*=:::::=%$",
"%%%%&%%=:::=**:<<:==:=%$$$%===**=,3;%%<333:=*%$%=:=$%%%$%%%*:<444<<343<<<,=%%*=%%%*%%%%%%%%==*=:<<,=%$@@%=,<-*%%#@@=;*$%%@@@%=%@@%%*%=,;=%@@@$%%%%%$$=:<4<:::<34,=*:<33<:=;<3<<:=*=::::<<:%$@%;<<:==*$$%=;==:=%%=*%%%%@@@@@%==%=::=%%**%**%%$$%=;;===*%%%==;:===:,:*==*%%%%%%*====%*:<:=**%%=:,<33:=%@@$%=:,:;===***;<3<=*=<33<;;,43<,,<<<:=%%%%%$%%%$$%=:<<;***%$%=,%%%%$$$*%$@%%**=:,=%%%$%==;==*%==:,,:::,<,:::<<:==:333<<,=%***==:<<:=%@@@$=,<<::=*%%%==<<=%%==%%%$$$$$%*===,:;%==:=**%=====:==%@*==*%===*%=:,:==;%$$%$@@**%==*%::;===*%%%==:<<=%$$*:3<;=::=;:<<3<<==,33<<:=;<<,:;;:,<<:=%==***%%%%*==::%%***$$=*%%%%%%*;:%$%%*==<<:=%%@%=::;======::::::,,:=:,<:==;<344<:*==*=<3:;=;%@@%@@%:<,:::==:43<:$%=,=*%*-=%@@@@*==*=,<:%$=;::;=*%%%",
"**%*&%%==:;=*%=,<;==:=%$$$%===%*=:,%%;3443:==:==:=%$*%%@%===:<43<:;:<3<<<===;::=*=::;;;:::==*%*==;=*%$$%%:<<=%%%%@@=:*$$%$@$%=%@$%%%%=:;=*$%%%*====*%*;::=*%==:3,:=<<<33,==:<<3<:==::==:<:=@@%=,<:=;=@@%-:;==%%%=*%%%%$@@@@%==%=,:=%%**%*%%%%%%*===**==*%%==:===,,;%===%%%%%%%%===%&=,:=:;=%%=;:<<<=%$$%=,<3<<:=**=;,<<:==:<44<;;:<<:;=;:<<:%%*=$@@$%%$*=:<:=%**%$*;<*%$%%%%==%$%**%=:,:=*%%%%*====%=:<<<::,<3<::><3<:=;<3333<:;=**=:<<3<:%$@@%;<<:==%%%==-=::=%%==%%%%$$$%%====::=%==;=*%%*=*==;==%@%*=*%*==*%=:,:=;:%$$%$@$%%%==*%;;==::=%%*;;:<,=%@%=<<:==::;:,334<,==<3<<<<::<,;*%%*=::===::::;=*%%*==::%%***$%==*$%%$$=::%$%%*==<<:==%%%%=====*=;:<<,::<33<::<3<:==:<44,=*::::<<::;=%@@@@@=,<<<<:*=>443,=$%;=%$%%%%@@@@*==%=:<=%%=:::=*%%%%",
"====*%%%====*%*:,=*=:=%$$@%==*%**==$=,4444:==<<<<=%@*%$@*;:;:<4<:*%=:<<<:*=:<<<;-:<<,:::<<:=*%==%%%%$$%==:<,=&*%%%$;:=$@$$@%==%@%%%%%*:;=%%%%%=:<<<:====%@@@%%=<<<<<<,33,==:<<33,=-::===,<:%%==:<<::;+$*=:-=%$%*==%%%*%$@@@%==*;<,=%%**&%%%***%%**%%*;;=%%*=;=*=,<:*==*%%%$%*%%%*=*%%:==,:=%$%==:<3;%$%%:34433<:==:<33<:==<33<3:;::;*%$$%:::*=::%@@%%%%==:<:=*=*%%%=<=%@%%%%:;%%%**%%=::=*%%%%*=;:;=;:<<:==:,<<::><33<;=:<443<<<:=*:<<<<<<=%$@%:3,;*%%$%;::=;;%%==%%%*%$$$$%===*::=%==;=%%*===*===*%%%*=*%%*=*%=:,:;;:%$$%@$%%%%===%====::=%%=::,<:==%*:3,;=:,,;:<4443,=;<<,:<<<<<:*%@@@%===;:<<<<:==***%=::***%*%%::=$%%$@;,:%%%%===,,:===%%%*===;==:<<<::::<3<::<33<:=:<44:==:<<:::;;=%@@@@@$=<333<:*=>333<:%$*=%@@@@@+@@@*==%=::=%%=:;=*%%*==",
"%*===*%%**===**::=%=;=%$$@@%%%%%%%@$=<3333:==<444:%@%%$@*:3<<34:=***=,<<==:<43<;;,<<:===:<<:=*;;=*%%%%%==::,=&*%%%$;,,$@$$@*,:=@%%*=%=;*%%*%%*;<444<<:=&$@+@$%&:<43<::<3,==,333<:==:3,;*:<<:::==,<<,;@%=***&$$%*==*%===%$@@%=;;,3:=%%==****===%*=*%%=:;=%%*=;=*=:<,=;=*%%$$*==%%*==%%===:;=*@%==:,<=%$$=:44<,<<:=:<444<==;<<<<4<:==%%@@@@%*==:<<:=%*=***==,:=;;=%%%=<:%@%%%;<:%%%==%%*:=*%%*==:<<<,=*=;=%$%%=::::<33<<:==<443334<:=:<,:<<<;%@@%:<:;==%%*;::==*%%*=%%%=%%$$$%====,,;*=;:=%%=::=%%%%%%====*%%**%%*:<<:;:%$@%$%=%%=;==%%*==;;;%%=<<<<:::::<4,;:3<,;:<4443<==<<:=<<3<<=%%@@+$=::<<333<:====%%===**%%*%%:<:%*&%@;:=%%**===:::==***==:,<<:==::=%%%=;::=:<333<=;,44:==:<<=***&%@@@@@@@=<333<:*=:<<32<%@%=%%%@@@@@@@=;=*:,:*%*==*%%%====",
"%=;===*%%*===&%;,:==;=%@@@@@%%%%*%@%:2333<:==<444,=@$%%#%=:::,<<<<,==:<:==:2<2<:=::=*%$$%====;<<<:=*%**%*=::=&&%%%@*=;@@%%$=<:%@%&%%%*;;=%$%%%=<4433<<<:=$@@@%=<233<:=;:=%=<333<,===,:=*:<<<<,==:33<:@*=;=*%@@%*==%$%=;%$@@%=;:<3,=%%==****%%*=::::====*%%*=:=*=:<<:;=*%%%%==*%%===%$%*=*==%@*::,<,==*%:<4<:;<<:=:<443<;*=<<::<3<<=%$@@@@%=::<3<:=%%%%%%*;:;==*%%*%%=%@@=%%=,:%%*=%%*=;=*%*===:<<3<,;==%$@@%*=::<3<<<2:==<443333<;=:<<=:,<,=%*=:<,:::%%*==*=%%%%==*%%==%$$$%==;:<:=%*=;=*&*===*=====*==*=%*==*%*:<<:::%$$%%=;=%*===%$%%==;:%*:<3<,;:<3<<3,;=,:;=:<3333<=*====<<<<<:=%$$$=:<<<<22<<:=*=%%*::=%**%=%%=:=#&*%@%=&$%%%%*=::;=**=*=;<<<<<:==*%$$%%==::<<<<<<;=:34<-%==*%%===*%@@@@@$;<<<<:=%%=;:<<<%@%=%$%@@@@@@$===;,,=%%=;=%%%%===;",
"%=;*===%%*===*%;,<;=;=%@@@@@%%%*=%#%:3<<,:;==<444<=@@$$$$%===;:,<3<==:<:*;,<:<<<::=%%$@@@%%=:<<33<;**=*%*;:=*%%%%%@%%%@@%%@%;*%$*&%%%=::=%@$%%;<3433344<,=%%%=:<333<:=%%%*:<3333<:=====*:<<33<:=:<4<:$*;::=%@@%*==%@%=:%@@@%=;;:<:=%%==*%%%%%%:<,:<:=%**%%==:===:<,;==%$$%=;==**=-=%$$*=*==*@=<<<<:;::=<33:=;<<:*:<443<:*=::==<443:=%$#$%=:<343<:=*%%%%%=:<:=*=***%$%$#%=*%%=*$%==%&*=:;=%***=:<<<3<,:=%$@@%%=,<34::,<:==<333333<;*:<,==:<<:=:;::<<,:%%=====%@%*==*%%=;*$$$%==;:<:=%==;=****==;:::::****=*%==*%*:<<::;%%%%*=:=%%===%$$%=::,%=:<3<:=:<4444<:=====,<33443:=**=;33<<<<:====,<333222<<:=%%%%=,,:%**%=%$$%$@==%@$$$$%*%*==:::=*%*%*=<<<33<:;*%@@$%*;,<3<:,<<;=:<4<:=*%%%=;:::=%@@@@*,<,:;==%%%*=:<,%$%=%$%$@@@@@%==*:,:=%%===%%%==%%=",
"%==%*==%%*==;=*;:<====%$$%$$%%%*=*%%:3,;===*=<344<=$$@@$$%*====:,<:==:,:*:<<=:<3<:=%$@@+@%=:<4333<=%**%%=:<=%%%%%%@@@@+$==@+@@@%*%%%%=,,=%%$%=:<343333333<:;:,<<3333<;$$%=<33<333,;*%%*=,<333<<==<3<:%*;<<:=@@$%==%$=;=%@@@%====;:=%%==*%%%%%*:<:=<,;%%**%=;:=*=::;*==%$@%=::======%%$=::,:=$=<44<:;:<,<32:;:<:==:<443<,=*====<333<:=%%*;<34444<,;=%%%$%;<3:==;=**%$$$%*:=%+@$%***%%*;,>=%%%*=:<<<<3<<,=%$$%=;3443:;:<:==<3<<<34<:*=::=;:33<,<:;:<<<:**:::;;%@%*===%%=;=%$#%===:,:=%=;;=*%%%%=<<<:<,*%&==**==*%=,<<:;==%%%=;:*%%===%@$*:<<,%=:<3<:;:<4444<:=**=:<<33344<:==:,33<<<<<<,,<333333333<<;****=:<:**%%=%$@++@;:=@@@@$%**===:<<;*%%%%=<<<<43<<;*$$%%=,344<-:<<==:<44<:=*%=:,<<<<=%@@%=<<:*%%%$%%*%;::%%**%%*$@@@@@%==%=::*%%*=*%%%*=$$=",
"==;*%%%%%*=;;=%=:<=%==%$$%$$%*====%%:<:=%*%%*:,<33,=$@$$*;,<,:======;<,:=:,,=;,44<:%$@@@%:<<<333<<;**%%*=<<:*%=%%%$@@@@*::%+X+@%%%%%%=,<;*%%*=:<3433333333<<<<<<3333<,==;:<3<<<<<<,;==;:<<3333<==:<<:%%=<<,=@@$%==*%%=*#@@@%===*=:;=%===***%%%=:;;<:=%*%**====*=:;=%*=%$@$*;;=%====*%@=,<3,=%=<43,;:<2333<:;=====<34432<:=%%=:<3333<,::,<3444443,:==%%*=:<<:====*=%%%%%=<:*@@%%=*%%%=;<,=*%%*=:<<<<3<<<,:===:<443<:==;==:<3<<<<4<:=*===;,33<<3:;;<3<:==:<<<:%@%%*==**=:=%##%====;;=%*=:=%%%%==<,:;<,*%&=%%====*=::==;:;*$$%=:=%%===%@%=<4<:%=:33,=;,344333<::::<<<::<34<:==:<33<<<<332<<333333333<<:==**=<:;***%*%%@@@%>,;%%$@%%**===,<<:=*%%=:<<<<3<<<,:=**=:<344<:=;:==:3443<,;*=::=;,<=%@@%=<,;%=%%$%=:====%%**%$%$@@@@@%=*%=::%%%%%**%%%%$%=",
"*==%%==*%%*;;=*=:<=*==%$$%$$%%%%=*%%;:===:=%%*=:,4<:%$%%;<444<:;===:,<<:*=;;*;<443<;=**=:<3333333<:*%%%==<<;*%*%%%$@@@%=,:*@X@$%%%%**=:<:=====,<34333334433333333333<:===;<<,;==:<<<::<<<<<332<:=;<:=%%=:<,=$@$%==*$%*%@@@@%=;===::=%*===***%%%;:<<=*%%%*%==***=:=**==%$$$%;;=%*===*%@*:43,=%=<4<:;:<3433<,:====:<<33333<:==:<333333<<<334444443<::=*&==:<<:=***==%%%%*=<:=%%%%=*%%*==<,;=**==:<<<2<<<<<<,>,<<433<,;*===:<33<<<<<<:====:<33333,:=,<<:==;<<<=%$%%===%%=;=%#$%==*%=;;%*===*%%%*=:,,::=%%*=%*=;=**::;*=;:;*%$%=;%%%===%@%=34<:*=:<<:=:<3443333<<<<<<:*=;,<:====:<33<<3333333<<333333<<;====;<:=%==**%%%$%%::=%%%%%%***==:<<:==%%=:<<<<<<<<<<,::,<3443<:====:<43444<:=-:;%=:<:*@@%=,<:=:*$@*;:=*%%%%**%$%%$@@@@%==%=::%$%*%%%%%%%%%*",
"%*%%*=;=%%%===%=:<====%%%$%%*%%%*=%%===;::=%$%%=:3<:%%%%:344443:=-:<<3<:=**==:<3343<>::<<<33344433:=%%*==<<=*%%%%%%%%%%=::=%@$%%%&&**=:<:::;==<<4433334443333322333<:=====::;*%*:<33<<333<<3322:==::=%%*:<:=$@@%==*$%*%@@@@%*;;==::;%*=;==%*%%%:<4<;*%%**%***%*;,=*===%%%%%===%*=*=&%@*:3<:=%=,3<:;<<44333<:::;:<<<,<<23<:::<3433333344444444443<,:=====:<<;=*===***%%*=:;=%%%%**%%*==,,:=====:<<<<<<<<<<<3333332<<:===;:,<<<<,,<<<::;:<<33333<:=:<<;==;<<<=%$**===%%==*$$$%===%=::*%*====%%%%:<<,:=%%==*==;=%*::=*;::=%%%%%=%%%==*%@%=<4<=%*=<:;=:<344333443333<:**=;:=====;<33333333333<<333333<<:=::::<:=%====*%%%%=;==**=*%*****=:<<:===*=:<<<<<<<<33<<3444433<,===;,343344<:=-::=*=,,=%%%=:<::,*@@*=;=%@@%%**%%%%%@@@@%==*:<:%$%=%%%%%%%%%%",
"=*%%=;;*%%%=-=%*:3:;;=*%%$%*==**==*%%%==;==%$*==:<<=%%%*,44<<<4<::<4443<:=%%=<33344444333333344433:===*=;<<=%%%%%%%%%%%*===*%%%%%*=&%=,3<<4<::<33433334444333<<<333<:=::;===**;:<44443344333333<;*;;=%%%=::*@@@%*==%%%%$$###%;:;=:<:%%===*%*%%=<444,=%%**===*%*;<:;;;=%%%%%======*=*%%*:<<:%%=:3,::<34444443<<344,=*=:<<;*%=,3433333344444444444<<,==:,:,<3:=*;;=======%%%*===*=**=%%=,<,;:;==:<<<<<<<<<<<333333<<3<,:;=**;,,;==:<333333333444<:=:<<=**=,<,*$@=*===*=;=%$$$%=;===::%%*==;;*%%%:<44,=%===*=:;==;,:;=::=%%%%%%=%%%==%%@%=<3,%%%=:;==:<<34333344333343:====;,<:=:<33334444443334333333,:<33<<<:=======%==**%%=**==*===*%:<<::;==;:<<<<<<<<<<<<344333333,::<34444443,==,3<==:<<:,;=;<<<<*$%*%%%$@@%***%%==%@@@@%=;:<<:%%&-=*%&&*=***",
":::=*==%%%%=;=%=:4<:=;*$$$%==*%%==*%%%=====%@=:::<,==**;<3<::<4<::<3333<<;==:<<3333433333333333333,==::::<<;=*=***=*%=*%%%*==*==***==:<3333<<<3334333333444333<3333<;=:::;*%%:<<<34443334434333<:====%%*;,:=$@@%%==%%%*%$@@@%=:;=:<:*%%==*%%%*=<334,=%%%%*=*%%=:<:;:;*%%$%%==*===*=&%%%:<<;%%=:<;=:<3344333333344<:=*==;====:<333344344433444444<<<:,<<<<33<:::========*%%%====;=*===:<<<,<:;::<<<<<<<<<<<33<<<3<<<<<:=========:,<<<3333333333<,;=:<=**=><:*$$%***=====%$$$%%=;=;,,=**====*%*=,334<:*==*=;;=%*:<::::=*%%%%%**%%===%%@%=,<:%%==:===:<<<<33<344333444<;%%=:::==:<33333344443333<<<333<<<<<<<<,:;=====*=*&*%%========::;,<<<<<>::,<<<<<<<<<<<334443333<:;=;,<3<,,<<,===::==:<<<<:==,<<<=%%;;**$@@%%**$@%==%@@@%=;:<<:%%%==*%*%%%%=,",
"=:,:*%%%%%*=;=%=:<:;==%$#$%;==%*==%%%@=====%@=,<<<:=::;,33,=:<4,::<<<<<<:===,<<33334333333333333<3<:;,<<<32:;;;=*===*=*%%%%*=====%=::<<333333<333433333334333333334<;*=:::*%=<333334433344442<,,:;===%%*=,:=%@@$%==%%%==%@@@$*;;;:<<;%%=;=%%*==<333:=%**%%=*%%;<,:;:;*$$$%===%*==*=%$%*:<,=%*=::=;<<33443333444443<:=%%=;;==;:333444444434444433<<<<<<333333<<:========*=*%*===:===;:,<<<<<<:,<<<<<<<<<<<<33<<<3<<<3<:==;==*%=;<<<<<<<333333333<:=:,:=*=:<:*%%%***==**=*$$$$%=:::<<==*====***=,<34<:==*%=;=%%=:<::::=%%%%%=*%%*==*%$$%;,,;%*======;:,,<33<3443334443:*%:,:;==,<33333334443333<<<333<<<<<<<<<<:;=====*&%=========*=:<<<<<<3<<,,<<<<<<<<<33334444333<<:===:,<:;;,<<:====*=,<<33<;*:<3<=%%::;=%@@%%**$@*==%@@@%===,,:=%%==*%%%%$%:<",
"%;,<=%%%%%&-==%=::=*==%@@%=:;=*===**%@=;:<:=%=<44,;=<<<34<:=:<<::::;;,<:=**=:,<33334333333333333<<<<<<33333<<<:**===**%&==%%%*===*=,<333333334444433333333333333334<:*%=:<==;333333333333344<;====*%%%%%*::=%@@$%***%%=;=%@@$%=;;:<3<=%*==*%**=,<4<:=%*===***=:<,;;:=%@$%%;==%*===*%$%*:<:=*=::==:<3333344444444443<:%%=::;=;,33344433444444443<<<<33333333443:=====*%*=;=%%==;:===:<33<<33<<<<<<<<<<<<<<<<<<<<3<<<3<:==;:;*%=,43<<<<<333333333<<=;:,=**:,:*%%%*=*==%%==%$$$%=;;;<<:=****%%%*=:<44<:==*%===**:<<:::=*%%$$%==%%*=*%%@%*;<:=%==*====*=;,<33<3443333344<;*:<:==:<<33333344444333333333<<<<<<<<<<<:=====%%*=;-&&*===*=:<3<<<<<<<<<<<<<<<<<<33334333<33<,======;===<<<<;*%%*:<<333<:%=,3<=%%:<<:%@@%%*=%$==*@+@@%==%=;:=%%*==%%%%%%;<",
"*:::*%%%%%*==*%=:-*%==%@@$*:;=%===**%@=:33:=%=<44:;;<3334<,;=;=;::;==;:======,<33334433333333333<<<<<<3333<<<<>**===%%%=;;*%%%=;;;:<3333333334444433333433333333<<<<<:=:<<;;:433333333<<<34<=%%%%%%%%%%%%::=%$@$%*==*%*==*$$@@*=;:<3<;*%===%***;<3:=%%%==;*%*:<3,:;;*%@%=;:=*%*===%%$%=:<:=&=::*-:<<<333444444444333,*%:<,=%=,333343333444444443<<<3333333344<<:=>:=*%=;;;=%*==::;:<<33<<33<<<<<<33<<<<<<<<<<<<3<<<3<:=*;,:=%=<43<<<<<333333<<<<<:;;:;=*;::*%%$*=*=*%%===%$@$=;;;<3<:=****%%*=:<44:=====;==*=:3<:::=%$$$%===%*==*%%@%=:<:=%%%%%*%%%%*;<<<,<443<22344<:=<<<:,<<<,<<33344444333333333<<<<<<<<<<<<<,:;====:::====:;=;,<<<<<<<<<<33<<<<<<<<3333433<<33<,;;::;=*=:,343<,;==:,<<333<:==:<,=%%:<<:*@@$%*=%$%*%@@@@%==**=;=%%*==*%%%%%=:",
":,>;%%%%%%*=*&&=:=%%==%@@$%;;*%*==%*%@*:33:=*=<43:;:34433<<:===::<,;=*==;:===:<33334334443<<334333333333333<<<<;;::-=%==;;=*==:,,<<333333333344433<<334433333333<:;::>:<<<::,4<<:::<33<,:,<;**=;=*%%%%%%%=;=%%@@%**==*%===%%%@$%=;::::=%*==****=,<=*%%%=;=**=:<<::==%$%=;::=*%==**%%%%=:<;*%===%*===:<343<<344444333<=*:3<:=:<433343333444444443<<<343333444433<,<<:;==::;==;::<<,<<333<<33<<<<<<<3<<<<<<<<<<<<3<<33<<:;:<,:%;<33433333<<<3<<:====**;==%=::=%%$%**==**==;=%%@%=:;,34:=**==****=,3<:=====;=*=:<<<:::*%$$%*;==%==**%%$%=:<=%%%%%%%====*=:<::<44<::::<4<:=<3<,,,:;;:<344444443<<<22333<<<<<<<<<3<<<<<<::;;:::;:::<,:,<<<<<333<<<343<<<<<<<3333432<<33<,;=:<:=*=:<4443<<::<<<<<<<<<==;,:*%%=:<:*@@$%*=%$%*%@@@@$=====::*%*==*%%%%%*;",
"43<=%$%%%%**%%*;:=*===%$$$%==*%*=*%%%$%:<3:=%=<3<:::344333<,:::,<33,;%%=<:;==,34<<<3334443<<334433333333433<<<<,,<<,:---;;==:,<333<33<<<3333444433<<333333333334:=*=;::,<<::,3,;**=:<3<,;::**=<<<:=%%%%%$==;%%$@%%*==*%==%*=%@@$*=**=:;=%%**%%*=;:=%%%%=;=*=:::::;=%$%=;::;=**=*%%$$%*=::=%%=*%%%%%%=:<3<,,<33<<<<33<;=<33<,<<<<<<33333444444443<<<3443334444444343<<::;:;;:<<<3333333333332<<<<<<<<<<<<<3<<<<<3<<<<<<<,<<<:=:<<<<<<<34,::<<:****%%%*=*%*::==%%%%*======;:;=@%=;;:<3,;*====*%*=:<<;==*===**=,,:::;=%$%%*=;==*==*&%$%*=:<=%%%%%==:,<:=*;:=:<44,=%%*:3<:=<<<:::===:<443444433<<<<2333<<<<<<<<<3<<33333<:=:::=,<<<<<<<<<<<3443<<343<<<<<<<<333332<<33<<:=:3<:=;<3444333333<<<<<<<<:==:=%$$%;<:%@@$%**%$%%%@@@@#====;:<=%%==*%%%%$*:",
"43<,*%%%%*%%%%%:,===;*%$$$%==**==***%$&:<2-%%%,<:=:<<333333<<<<4433<:%*:3,;=:<44<::<3344433<33443333333343<<<<<<<<<3<:--;;=;<3333<<33<<<33344444433<333333333344,;====%=:<::><;%@@%=<33<;==%=<3332<=%%%$@%=;=*%@@%%%**%**%*;=@@@%%%%%===%%%%%%*====%%%%==%%=:=====%@%=:;;==*===*%%@$%%=:;%#%%%$%=;:;=*:<:=:<3<:;;:<3<;=<33<<,:==:<3333344444433333334434444444443333<::;:;;:<3<3333333333332<<<<<<<<<<<<<3<<<<<3<,:;::<<<<<,=:<<:==;,34,:-<:==:,,:=%%%%%%=:;=*%%%**===*=;;:;*$%=;;;-::=**==*%===::==*%*=%%=::==-;=%@%====;=====*&#@%=;::%%%%%*:<<<3<:====:<44,=#@@%,<:=<<:*=;;;:<3333344433<<<<3333<<<<<<<<<3<<33333<:=;:;=,<<<<<<<<<<<3443<<333<<<<<<<<333332<<33<<<<<3<:=:<3344333333<<<<<<<<<===;%$$%;<=%@+@%**%%@%%@@@@@%===;:<=%%===%%%%$=<",
"33<,=%%%&%*%%%=:,;;==%$@@$%=%%*==**%%$&:<<=%%*:<==:<<333334333444<<<,*=,4<<,<<<<,:,3344443333443333<<<3343<<<<<<<333<:=====:<33333<3333333334333443<<<3333333344<:=;;=*=:<;;::%@@@*:243<:==%;<,<<3<<:%%%%%=;==%%@$%%%%%%%%%=*@@@$$%*==*%%%%$%%****%%%***%%%%=****%$@%=:===**==*%%@@%**;;%%%%%%=:,<<<:=:::=<33<;%@$=:<;;<<<::;===:<33344444444333333344443334443333333:=====:<3<<<33333<<3332<<<<<<3<<<<<<<<<<<<3<<;====;:<<,=::;%$%=:34<:=::=;<3<<,;*%%%%=::=*%%%%*=======;;=%$%===%=;=%*==%***=====*%&*%%====*==%$@%===*=**===*$@$*=::=%%%%=:<3<<<<,====:<44<:%@@@=::;,:==-;;;:<33334443222<<<<333<<<<<3<<<3333333<<:=====,<<<<<<<<<<<3332<<333<<33<<<3333333<<::::<<<32,;:<3333<<<<<<<<<<33<<<:===*%%%;<=%@+@%%*%%@%%%@@@@%=;;::<:=%*==%%%%%;<",
"33<:=*%%&**%%%;,,;;;=%$@@%*=%%*==**%%%%:,,=%*=::*;:<<3<<<<<<33444<<<<=:<43<<,::::<<3444443<<3333333<<<3333<<<<33<<<3<:*%**=:<<3333<3333333333333343<<<33333<<333<:======;:;===$@@$=:<3<:;==%;:::,33<<;=*%%%=;=*%@@$%%%*%%%%*%%%$@@$%==%%%%%%%%***%%%%*%%%%%%***%%#@@%=;*%%&==*%$$@%%*=;=%%%%%=:<<332,:=::=<<3<:%@+$=:==<<:=====-:333334444334443333334443333333333333:=%=*=<22<<<33333<<<333<<<<<<<<<<<<<<<<<<<<<<:======,<,=;;%@@%=,33<:=:;=:<334<,;=*%%*;:;=*%%%%*=======;;%$$%**%==*%*=**===*====*&%%%%%*===*%%$@%===%%%*==*%@@%=;::=***=;<33<:;:,==;=:,<<,:%$@$*;:;::======;,<33344432<<<<<3333<<<<<4<<<4333333<<:===**:<<<<<<<<<<<<333<<3433<<<<<<<<33<<<3<:===:<<<<<;,<<,,,:<<<::<<<<<<:::;=**%%%%=,=%$@@%%%&%@%==%@@@$*;;::<<;%%==*%%**;<",
"33<;*%****%***:<,;;;=%##$*==%%%==**%$%%:,:=%=;;=%:<<<<<<<,,<<<<<<<<<<=:<4<<,:===:<4443344<<<<333333<<<<333<<<<33<<<3<:%%%%=:33333<<333333333333334333333333<<<<<:=****===;==*%%%@%=::::==;:*=:==:3333<:=%%%%;;=%%@@@%%%%%%%%%%$$@@@$*=*%%%%%%****%%%%=*%%%***==%@@@$%==*%%%=*%#@#%%**;;=%%%%=,333<,,::=:;=:<33,=$@@%;==<:======:,<3333334433443333333444333333333333<=*%%%=<333333333<<<<<33<<<<<<<<<<<<<<<<<<<<<<:;=====:,:===@@$*:<<<:;=:==::,<33<<:=%%*=:;==%%$%%*===**===%%@@%*=*%%**%%===*%**==**%%%%%%===%%$$$$%=%%%%%==%$@$*=::=%*==:<<<3<=*=:=;::;;:;;=%%%=====:;===*=*=:<33344433<<<<33433<<<<343<343333<<33:==*%%:<<<<<<<<<<<<344<<3433<<<<<<<<33<<<3<::====:<<<;,<:====:<<==:<<<<:=%%=*%%%%%%=:=*$@@@%%*%$%=;=$@@@%=;::3<:*%*==*%**=:",
"3<:*%%=*==%%*:<<:;;=%@@%=;;=%%%=*%%$$%*:,;*%=:===::,<<<<:=:<<,====:<<=:<4:====;:<344443443<<<33333<<<<<333<<<<33<<<3<;%$$@*:33333<<3333333344333343333333333333<;=*=*%%%%**%%::=%%%%%%%%=:<=***=:33333<:%%%%*===%$@@@%%%***%$%%%%%$@@%*=;=*%%%%%*%%%$%%*====*%@@@@$%%%**%%&%$@@@%*%*=;=%%%=:<3333<=:::=,:=*=::;=%%%**%=,;=======:<33333344344433333334443333333333333:=$@@*<<33333333<<<<<<3<<<<<<<<<<<<<<<<<<<<<:=======;::%%**%%%======:,;=,::,33<<<,=*%*=::==%%$$%%==%**=*%%@@@$%=====***==%%==**%%%%=*==*%$@$@@%%%***%%%%%$@$%=::=*%*=,<<<<3:****=:<::=====%%*=:=%%**%%%*===:<333344433<<<3344<<<<<<3<<344333<<33,;%%%=,<33<<<<<<<<<443<<<3333<<<<<<<33<<<33<:;;===:<<;::=$$%=,<<:=:<3<;%%%%%$@$$$%%*::=%@@@%%*=*%*==%$@@@%=;:<<<;%%=;=%**==",
"<,;%%%*===%%=:<,:-=*@@%=;:=*%%*=%%%$%%=::=%%===%*===:,<<;=:33,=%##*::=:<<:====::<344443443<<<443<<<<<<<33<<<<<<<<<<3<:*%$$=,<<33333<<<3333<44333343333344333333<:====*%%%%%%*==%$%%===*%*;,:===;,333343:**%%%*===%%@@@@$%%*%$$$%*=*%$@%=;==*%%%%%%%%%%%=:;=*%$$%%%%%%%%*%%$@@@@%%*==;=*%@%:<33333,=====<,=%%*==*%%*==%*;=****===;:<<<33333344433<33<33333333333333333<;%$%=<3333333<<<<<<<<333<<<<<<<<<<<<<<<<<3<:===**=====%*==%%%****%=:<:=:=-:34333<,=%%=:::==%%$@$%%**=*%%%$$$$$%*=====%%%%%===%%%%====*%$$%%%$%%%===*%%$@@$*=;:=*%**-<<<<<<,====:,:=:::::;=%%%==*%%%&&%*:=;:<333444443<<<<344<<<<<<3<<3433443<43<:=*=,<333<<<<<<<<<43<<<33333<<<<<<<<3333<<:;=;;;;;<,;;=%@$*:<3<:=:<<:=%*=;=*$#$$%$%=:=%%@@%%*==%%==*%%@@@*==;:::=**=*%%%*=",
"<:=%%%%==*%=;:::;=*%@%=;;;=%****%%$$%*=::%%%*%$$%%***;,<;:<33<;%@@@=;=:>,====;=;,<4443333<<<3333<<3<<<22<<<<<<<<<<<3<<:*%*:<<<<3333<<<333<<333344443333444433333,:====**%$@%*%@@@%=,<<:;*=;<,:;,<333343<;==*%**===*%@@++@@%%$$@%*=;=%$@$*===%%%%%%%%%%=;:=*%@%%==%%%%%%*%@@+@@%%==;;-*%%@=<43333<:=**=:,:*%%===%$$%=;*%*%$%%%===-:<<<33333333343<<<<<33333333333<<33<<:=%;<34433333<<33<<<<3333<<<<<<<<<3<<<<<<3<;===*%%%%%*%==*%%%====**=,:;===:3433333=%%*=;::==*%@@@%*==*%*%%%&%$$%==;;=%%%%%*==*%%==:;=$@$%==%$%%%==*%%@@@%*;;==%*===:<<<<<<<::;:<:==:<3<<:*%@@%*=%%&=***:;:<<3334444433<<<3433<<<<<33334334433432<:=:333<<<<<<<<<<<33<<<33333<<<<<<<<3333<:=====;;=::==*%%%=:<<,==:<<;%%:<<<:=%$%%$%%;=*%@@$%%*=%%=&*%=%@X$%=%%*:==%%%%%%*=",
":=%%%%%**%$=;=%*==$@$=;;===%*==*%$@$%%=:=@@%%%$%=:::*=:<;;:<3<:*%@@%%%-::===%====,4443333<<<3333<<3<<<<<<<<<<<<<<<<33<<=%;<<<<<3333<<3333<<333344443334444433333<<;=*%%=%$$$$@@@@@=<443<;==<33<333344433<,,::=**====%@+XXX++@$$%%*==*%%$@%=;*%%%%$%%%%:;=%%%%=;;=%%%%%%$@XX+@%*=:,:=%%%%=:<33333<<=%%=<;*%=:<<:=@+@$==*%$@$%====:<<<<3333333344333<<<<3333333333<<3333,==,333333333<<33<<<<3333<<<<<<<<<3<<<<<<3<:====*%%%%%==%@@@%:<<<:=%=::===<<33333<:=%*%*;::==*%@@@@%==**%%====%$%*=::=%$%%*==%%%=:=%$@%*=;=%$%%%*%@+@@@%=::==*%=:<<<<<<<<<<<<<<<;==<444<:%%%%$%%%%*=*%%=:<<<3334433333<<<34333<<<<333343344334333,::333<<<<<<<<<<<3<<<233333<<<<<<<<3333<:=;=====*=====;====;:==;,<<=%;<<<3<:=%%%$%%;==%%@@%*%*%%%%%=;*$+@$%$$%==%%%%$$%*=",
"*%%%%%%%%%$%*%%%%%@@%===%**%==%%$@@%%*;=*$%%%%=:,<<<:=;<:==;::=%%%%*%%=;=*==%===;,3344443333333<<<<<<<<3<<<<<<<<<<<33<<=*:<333<<33333344433<<33333333344444433333<:=****%@@$%=;==%=<3<<4:=*,<333333<<<:;==;:<,:;==*%%@@@@@$$$@@@%%==%%*%$$%==*%$$$$%&=;=%%*=*====%%%%$@@++oX@%=====*%*==;,<443333<,:::,=*=><<<;%@$%%**%%%%%%%===:<<33333334334433333<<3333333333<<3333,==,33333<<33<<<<<<<<<333<<<<<<<<<<<<<<<<<<:;==*%%%%%%**%%%$$=,<3<:==:<,,<<<33333<<:-=**==;;:=%@@@@@$%**%%*====*%%%=:;=%%%%%%%%===%$$%%*==*%%%$@@@+XX@%=;;===;:,,:,,,<<<<<<<<<<<==:<443<;%;:::;=@$%=**==:<333334443333<<<3444433<<3322344443<333<:;:4433<<<<<<<<<<33<33333443<<<<<<33444<,;;;==**%*==;:=**===*%%:<3,=%::::<<<,=*%%%%===%%$@@%%%%%%%%%=%@+@@@%%**%%$$%%%%%%",
"%%%$%%%$%%%%%%%%$@@@%==%$%%*=%%$@@%%*=;=%%%%*;<<333<<:=,:=%%*==%%%*==%=*%%%%*===:<44433333333333<<<<<<<33<<<<<<<<<333<<;*:<<<33<<3333333443<<33333333334434433333<,====*%@+$=:<<<==,<<<4,=*><333333<:=%%$@%;<<<,=%$@@@@%*===*%@@$%**%%%%%%%%*%%%%%$%*==%%%*=*%**%$@@$%$$$$@@@#%%*===;;====:<33333<<<<<:==:<3<<=%*=::==%$%%%%%*=:<32<<3333333333333333<<<33343343333222<:=:<333<<<<<33<<<<<<<33<<<<<333<<<<<<<<<<<<:=*%%%=%%%*=::;=%%:<<3,=*;<344333<<<<,::;;;======*%@@@@@@$%%%%**=====%%%=;=%%$%%%%%**%@$%*%%==%%$$$%%$@@+@$%===;:,<<:=====:,<<<<<3<<==:<<<<,:=<<<,:*@@%**===,<333334443333<<<3444443<<332233333<<333<:::44433<<<<<<333333443334433333<<334433<:;==***%%*=;=%$%==;=*%;,3<=%:;==<<<<,:=%%$%===%%@@@%%%%%$%%%%@@@@@@%**%%%$%%%%%%",
"%%$$%%*$%%%%*=%$@@@$%=*%%%%=%%@@$%%*===*%%%*:<443<<,<:->:=%%*==*%$%*==%%%%%%====,34443333333333333333<<333<<<<<<<333<<<;*:<<<<33333333<3443<<33333333334433333333<,====%$++$==:<4,:,,::4:==,<33333<:%@@@@+@%:<33;%@@@%%=;::::=%@@$%*%%%$**%@$%%%%%%%*=%%*=%%$$%$@@@@%=;;==%%$@+@$=,<<,=$@@%:<<333333<<:*=,<<<<==:<33<=%@%%%$%%*:<<<<<3333333<33333<<<<<<33333343333222<:=,<333<<3<<33<<<<<<333<<<<<333<<<<33<<<<<<:=%%%%=%%$=:<33,=%:<<<,=*;,344433<<<:=%%*:<<<:=%@@@@@$%*%%@@@$$%%%%%==*%%===%%%%%%%%$@%%%%%%%%%$@@%==;=%@@@@@%=,<3<:=@@@@$%;<<<<333<;=:<,;:<<<3<:==%@@@%==;:<3333334444433<<3333344<<<3<333<<33<<4443::<43333<<<<<<33333333443333333333333334<:;==%*==%*=*$@@$=:<<:==:<3:%===%:<<<<<,=%$$%=;=%%@@@$%%%%%%%%@@@@@+@%=**%%%%%*%%",
"%%%%$$%%===*%%@@@@$%%%%%$%%%@@@@%%%*===%%%=:<3444<::<:=:===:,,:%$@@$%=%%%==%%*=:<34443333333333333333<<333<<<<<<<2333<<;=:<<<33333333<<3443<33444333333443333<<<43<,:==%@++$*==:<<<<<==:===<333333<=%@@@@@@@=,<,%%%=;==========%@@$%%%%%%*%@@@%%%%%**%%==*%$$@@@+@$%===========%%*,<<=$@@@@%*:<3333<<<:*=::::<::<<<<,=%@$$$%**=:<<<<<3333333<3333<<<<<<33<<,<333333323<:=,<333<<3<<333<<<<<<33<<<<<333<<<<33<<33<<,-&=*%%$$$*;,<<<:=:,:::**:<444444<:=%$@@@%:<4<=%$%%%%%*====%%@@@@$%%%*==%%*=%%*%%%$@@%*%$%%%%$@@$*=::;=*%%%%$$=,34,=$+@@@@$=<<<<<33<:=====:<33<:==*%@@$%=;:<33<<,<34444433<<<333333<<<<,,<3<<33<34443::,43333<<<<<<<<<33333333333<<<3333334343<;=*&===%%*====%%=<3<:==,3,=%%&*:<<<<<<=%$%%%===%$@+@@$%%%%$$$$$%%@@@$*===*%%%%%",
"%%%%%%%====%$@@%%%%%%%%%%%$@+@@$%%====%%@%:<44444,;=::==*=,<3<;%%*===*%%%==%%%=:344444443333333333333333<<:::<<<23333<<:=:<3<3443333<:::<33334444344333443332>:,<44<<::=%$$%%===:<33<;=*&=:3433343:*@@@$%%@@$;:=@@%=:,:::======*%@@@@%%%%%%%$@@%%%%%%%%==*%$$@@@@$%======;:::>:=%$=::%@@$@@@@=,3333<<<:=*===:<<<4<::;*%@$$%*==:<<<,<<333333333333<<<33<3<:;=:<33334333<:;<3333333333<,,<<<<<33<<<<<3<333333333<<<<<:===&$@@@%=;:,<<:,,;==&=:<444444<=%@@@@@@=:<:*%*;::;=======%$@@@$%%%*=;=%%*%%%%%$@@$%*%$%%$$@@@%=========;=*%$=,<=%@@@@@@@%:<<<<333:=*%*;<343:====%%%%=;:<443<:;:<44443333333333333<<,;;:<<333334443::<333<<<<<<:;;:<<<<333<<<<<<<<<333334443<;=====*%%=:,<<===<<<<;=:<<:===;<<3<<33;=%%%%%==*%$@@@@@$%%$@@#$%=*%@@$%=;=%$$%%",
"%%%$%%=;==%$@$%==%$%%%%%%@+X+@$%%==:=%%$$=<444444,;=;-=*=:333<=%=:<<:=%$%==%*%=,44434444433344443<334333<:=%=:<<33333<<:=:<3<344443<:=*=:<33444443443<344443<:=;<34443<;*%%%%====<343,=%=;<4433343:%@@@$%*%$@%%@+@$%:<3<<,::;====%@@@%%*%%%=%$@$%%%$$%*%%%%$%@@@%*====;::,<<<,:=%+%*=$$%%$@+@%:3333333<=*%%=:3333,;==%%$%%==;:<<3<;:<333334444433333333<:====:<3344333<::<343333334<:;;:<33333<<<<<3<333333333<<<<<<::;=%@@@$*==:,<<<<:*%*;<4444443:%@@@%%$$%=:%@%=:<<<,:;=====%$@@$%%%%===&%%%%%%%@@$%%%%%%$@@+@%=======;:,,:=%@$=:%@@@%$@@@%=:<<<333<:=*=,<44<=*===****=:<444<:===<34443333333333333<,;===:<33334443<::<333<<<<<:;*==:<<<3333<<<<<<33333333<33<:;;==*%%%=,<<4<;=:,<<:==<<<:::<<33333<::==*%%%===*%@XXX+@%$@@@@%=;=%@@$%===%$%%",
"@@$%%=:=%$@%%=;-=%$%%%%@XXX+@%==:::=%%%%=<3444444<:====*=:<<<,%=,333<;%$%%%===;<343<4444433344443<<3433<,=%%%=,<3333<<<:;:<<<<33343<=====:<344433333<<344443<;*%;<4443:=*%%%%*==;<3433<:,<34433344<:*@@@@%%%@@@@@@@@=:444444333<<:*@@%**%%%=%$@@$$$@@%*%$%%%%@@%=:::<<3<344<:%@@@+@@$%**%@@@@%=33333333,;*=:<343,====*%%*=:<<<<<<:==,333344444433333333<;=;;=;<3333333<:=,343333334:=*%=:33333<<<<<3<33333333<::,43<<<<:=%%%%*===:<<<<<:;;<<344444<:%@@@%*=*%%*@@@%*;<3443<,::::=%@@%%%%%%==%@@$%%$@@%%%%%%%$@+@%===;:::<3<<,%@@@+@%@$%=%$@@@*:<<<<3333<<,<3344<:==%%%%**=:<444<=*%=<34444333333333<<<<:=::;=<33333333<=;,333<<<<<:==;==,3433333<<<33333333<<:<33<,::=*%$%%=;:34<=:;:<;==><<<<<3333333<<<,<<:=*%%===%@XXXXX@@@@$%*==%%%$@%==%%%$",
"@@@$%=;%%$%%**==%%$$$@@XXXXX@$*====*%*==:,<344334<<:::=%=:<:,,=:<<<:;*$@$%*==;,34<::<433333333333<<3443<:==;*=:<4433<<<:=:<3<<33343<==::==,,,<443343<3344443,=%%=:<43<;==*%%%*=-=,<443<<<3444343344<:%@@@$$$@@@@$@@@$=,343<:,<3433:=@%*=%%*=%$@@@$$@$%%%%%%%$@%:<<<<<333343:*$@@@@@@@%%%@@@@*:<33333<<3<<:,<<343:===&%%%%=;<33<<:=%=:33334443443<<<<<<<:;:<:=;<3333333<::<343334334:==:==<<333<<<<<33333<3333<==:<<333<:=*%$%%===:<3333<<,<<334443<<;*#+@$%=%%%@@@$$%;<3443<<<<<:=%@%%%%%%%*%@@$%$@@@%%%%%%%@@$=:::,<<<<<4<:=$@+@@@@@$%%%@@@%:<<<<<333<<<<<3343,;==&&&*===;,34<:*%%=,3444444333<<<<::::::<:;:<4443<<3<<;:<33333<<<:;;,:;:<3<333<<<<3<<<<<<<<:=:<43<<,:=*%%*===:<<::;=;==;<<33333333<,:===*;:<<:==%%%$+X@@$%%$@+@%%=*%%*%$@%==%$$",
"@@@$*==%%%**%%*%%@@@@@@@@@@+@@%%%*=======-:<<3333333<,=%=;:;,<:<<,:==%@@%%=::,<43:==<4333433333333<<<<<:=;::==:<4433<<<:=:<33333344<;;:<;=:==:<3334433344443:=%@%=<4<:====%%=*=-=:<44334444443433444<;%@@@@@@@@@%$@@@%;<<,===:<333<;$%*=****%$@@@@$%%%%%%*=%@%=<3433<<,,<3<=$@@$$%@@@$$@++#*:<433333<<333333334<:===%%%%%*=<333<;%%%:33333443333<<<:;::==:<:=:<3444334<,:<343344333:==<:=:<<<<<<3<<33333<<443<===:<<3<,;**%%%%===;,33333<<<<34444333<:*@@@$*%$@$$$@@@%:<43<<3333<<:%%%**%%%%%%@$$@@@@$%%%%%%@@*,<<<<<,,<<4<=%@++@@@@@@%$@@@$=<<<<<<<33<<<<33342:===**======:<4<;%$%=,<4344333<<<<<:====;:<::,34344<<<<<::<43<33<<<:;;<,;=:,:,<<<<<<3<<3<2<<,;*=,3333<:;=%%=====,<<<:=**=:<33333333<:=%@@@@%=<3<:=%@@@@@%*===*%@@@%%%%%%%%$%%%%$%",
"%%%%*%%%**%$@@$@@X+@%==;==%%@@+X$=<<<:%@@@%;,<<333333<:%%%%=<443<-===%%%*=:<<344<;%%:344443333<333<,;::;=:<:==<3443<<<<:;:<333333343,:,<;=*%%%:<3344<<333443:*$@@=<4<:=::**==*===:<444444444444333343<;*%$$$@@@@%@@@@@*,,=$$$%:<<:;=%%=:=*%%%%%@+@%%%%$%=:;*@=:<333<:=%=:<<%@@$%%%@@@@+++@=<3444333333333334443<;===*%%%**=:<33:=@@%:3333333344333,*%%%%*;:;;:<33344443,:,<3333333<,;=<:==;;=:<3333333443333<:=%%=:<3<:=%*%%%%===;:<4333<<<3344433333<:*$@@@$@@%%*%@@@=<4<:::<3333<:%%=;=%%%%%$@@++@$%%%%*=%@%:<<<,:=%%=,4,*+++@%%$+@@@@@@$=:<<<<<<<33<<<<<334<;===%==*=:>;:<4:=@@$*:<<333<2<<333<==%***=:,<433343333<<;:<3<<33333,:=,:;===%=:<<<<33333322<:=%=:<333<:==**==;;=:<33<:==:<<344333<<<=@++++X+%;<3<=@@@%%%*=::::;%@@@%%%%$$%=%@@$%%",
"*%%*%%%==*$$@@@+X+$%=======*===%%*:<,=@@@@@$*:<33333<<,=&%*:<44<:*==*%%%*=;,<33<:*%%:<44443333<<33,=%*%%%=::;:<<333<<<<:==,<333333433<:=*%%%%=:<43443<333443:*$@@%,<,;=,<:===*==*=,4444444444443333444<,:;==%%%%@@@@@@%::=%%%%=::%%%%@%:,;%%%%%@+@%%%%%=:<;%%;;;:<<:=%%%;,:%@@@$$$$%%$%%%=:<3444333333333334443<;=====%%==;:<33:%@@%:333333333333<:==*%$%*=:<<33334433<:=:<333333<<<,::=***%%=:<223333443333<:=%@$;<4<;=:=*%======:<4333<<<33344333334<:*$@%$@%%%%%@@@=:<=*%*:<3<<<<=%*::=%%%=%@@+@$%%%%*;=%@%==:::%%%%*:4:%@++@$%$@%%%%*=;,<<<<<<<333<<<<<334<;===*==::<<::,4:*@@$*:<<33<<22<333<,,:=**==:<443444333<:==:<3333333<<,;=*%%%%=:<<<<23333<2<<:=%%=<<3<<:===*%====:<3<<<<<<<<3443333<,*@++@@XX@*,<=$@%=:=========%$@+@@$%%$%%%$@@@%",
"%%$%@$%%*%$$@@+X+@%*=====;:::::=%%=:;%@@@@@@#=<33333<<<>:;:<344<:*==%%%%===:<3<<=%$%:<444333333<<3:=%%%$%*=;:<<<33<<<<:=**:<333333344<==*%%=::<2444433333443,=$@@*<<:=:<3<,::;::=;,33433443444433334443<<:=%$*=*@@+++@%=;======:;%$%%@%=<:=$$%*%@@%*%%%;,<=%===%*::;%%*%=:;$@@@@@@*=*%*=::<3344433333333333444<:===*===*;::=<33=%+@%;3<2333333333<<:::=%*==:<43333443<:=%=:333333<<<<,=*%%%%==:<<23333443333<:=%@@=,3<==,;=*======:<3333<<333334333344<,:==*%%=%%$@@@@%;<=*%%=:<:;=:==%:,:*%%=%@@+@%*%%%::=@@$%%*=:%%*%%=<;%@++@@$%%%*==:,<<<<<<<<<3332<<<<334<::::::,<<33:;:4:*@@$=,<<<<<<3333343<<<:====:<44444433<,;===<34333333<<;==%*===:<<<<23333<<<<:=%%=:<3<:;===**====:,<<<<<<<334443333<:%@@+@$@@@%==%+@%=<,::;======%$@+@@%%%%%%%@@@$",
"%$@@@%*$%%$$$@+@$%%*=;:::<<<<:==$@@*%$$%%$++@%:<333333333333344<:===%%$%===:<3<:*$@%:<4444333443<<:;:=%%%*==<<3333<<<<=%%%=,333433344,====%:<<<3344433333443<=%@@=<3:=,<433<<<3<,,<333333333444333333433<:%@@*;;$@+++@@%======;::=%%%@$%::=%@$%%$@%%%$%=::%%=*%$$=;=%%====*@@@@@@$::=$*:<333334433333333333444<:===%*=::<<:=:<3=$@@%;3<<233333333<<<3<:=;:;:<44333443,=%%*:<<3333<<<<:===$%=::,<<<<333443333<:=%@@=:<:=;2,:;======;<<33333333333333444333<:=%*:=%@@@@@$=:;==*=::=%%%==%;,<=%%%%$@@%%%$%=<:*+@@$@%=;====*=;=%@++++%=;%%=:<<<<<<<<<<<3332<<<33333<<<3<333334,;:3:=@@%;<<<<<<<3344433<<<<:::::<44444444<:=*%=<24333333<::::=;:<,<<3<<333333<<<:=%%%=<<<::::=*==;;:::<<<<<33334443344<;$@@@@%*%@@$@+X@#%:<4<<:::::;;=%++@%%%%$%%$@@@",
"$$@@@%%@@$%%$@@%=:::<<<<333<;%@@@++@#%*%%@X+@%:<33333333<<33334<:=;===%%=:;;<3<:%@@&:<444443443<<<<<3<:*;::=,<3333<<<<=%%%=,333433344,=:::=::=;,<443<<33344<<:=@@=<<:=<3<,,<<44443333333333344433333343<:*$@@%;<=$@$%%%%*%%%%%%=:::=%$$$%===$@$%$@%$$%%==%%*;%%%==*%%%*%%%%@@@$%*=<:%@@%:<33334433333333333433<<:::::,<<3<,=:<3=$+@%:3<<333333333<<::::=:<::,4333333<,=%%*;<<3333<<<<:;::%-,<<<<<<<3334433333<=$@@*:<:;:2<<<<::::,,<<333333333333333443<<:=$$*,:=@$@+X@%======;:=&%$==**==*%$%%%@@%%@@%=;*@X@@%=;:====*%%%%@@+XX@=:=$@$*:<<<<<<<<<<<332<<<33333<<<3<<:::<4<:=<,=@$=,<<<<<<333343<:;;::::,:,<444444443,;=*=<34443334<,,<<;:<<,<33333443<33<<>=%%%=,<,=:<:=*=;==:;:<<<<<333444433443<:%@@+@%%@++@@@+@#*:<4433<<<<<<:*@@%%%%%%%@@@@",
"@@@@@%%@$%*%@@%:<<<<<<<<34<:%@@@@@@+@%%%@++$=:<233333<<3<<<<<<3:;=====*=:<:=,<<;%@@*:<334443343<<<<,:,:=:::=<<<<<33<<<=%%%=<334433333<:<:;=====:<433<<33344<<<:=%=<,;;<<:==;:<3444433<<3333333433333<<3<=%$$@%=,=*%%%=;::;%===%%%=;;;=*%%*==%$@$$#$@$====%*=:**==%%%%%%%%%%%$$%*;,<:%@@@%:<33333333333333334333<<<<<<,:,<<<=;,4;%+$=<333333<<<233<:=====:<:,<3<<<<<3<:=@$%=<<<333<<<<,:::=;::::<<<<3344433333<;%@@=,<;:,3<:::,<<<<<<<3333333333333333333:=@@$*,<:=%$@@$%%%%*=======%===%%=*%$@%%$%%$@%*=*%@@$%=;==%%**%%**%%$$@$%::=$@@$=,<<<<<3<<<<3333<<33333333<,:===:<<:;,<:%;,<<<<<<3444333<:=====:,,<<44444433<:=*%=,243<<<<33<<<<;::;;:<3334443<33<<,=%$%=<<:=:<<:::===;=:<<<<<3333344333344<;%++@@@@+X@@$@@@@=:33<:;:<<33<:*@$%%%%%%@@@+",
"@@$$%%$@%*=%@$;<233<<::,<3<=@@@@$$@+@@$@+@$=,<33433<<<<<<<<<<<<:===*=;=:<3,=:<,=$@@*:<33433333<<<<:====*;:::<<<,,<<<<<=%$%=:<<33<<333<<<:=%*===:<4333333444<<<<:=:<:::<:=%%*=<<444433<<333333333333<<<<:*$$$@$%;===**=:<<,==:,=%%====:=%%==:;*@@@@@@%:::=%=;:===%%%%===%*=;=%%%*=,<:%$$@@=<33<<33333333333344433443<<:;=:,<:;:3:%@=:<43<333<<<2<<:====%%;<<<<<::;:,<<;%@@$*:<<<<<<<<<<,,:=====;:<<<3344433333<:=$@=<<;:,<:==;:<344333333333333333333333<;%@$$%,<<=%%%%==*%%*==*%*====;;%%===%@@$%%@@@*==%$$**=;==%%===%=-;==%%%*=::*$$$@%:<<<<<3<<<33333<<33333333<>;=%%*;,:;,,:=<<<<<<<<3444433<:;;====:<3343<<<32<:=%%%%:<3<::::<3<<<<=====:,<333443<<<<<<:%$%=<<:;:<3<<::;;:::<<<<333<<34433<3444<=@@@@@@+X@@$@++X%;<<:*%=:<3<<,=%@*=*%%%$@@+",
"X@$%%%@@%=:%$%,<23<<:*%=:<:%@@$%%%@++XXX+@=:4433433<<<<<<<<<<<<====*=:<344<:;,,;$@@=,333433333<<<<=%%%%%=:<<<<:===:<<:%$@@$=:<3<::<33333:=%=;:=:<4334433444333<<;:<::::*$$%*=<<44444433333333333333<<33:%@$$@@%***=;==:<3<;;:<:==:=%%:;**=:43:%+@@X%:3<:===:,=*%%%%=<,;*:<<:=%%%*=,;%%%$@%:44<<33333333333344444333<;=%%%=<:;:3:=&:<34<<333<<<3<<:=;:;%%=<<3<,=%%%;,<=%@@@@%:<<<,,<<3<<<:*%%*==:<<3333444333333:=%:<<;:,:*%**=,443333333333333343333333<=$@%$%:<:=%%%=:<,==;<;*%%%%=:<:**=:<:$+@%@+@*::=*$%::=%%%%%:,:=;,<,;*%*====%$%%@%=<<3333<<<3332<<<344333333<:=%%%%::;,:::<<<<33<<3444433<::<<:==:3444<:==:<,=%@@$%=<<,=%%=,3443,%%===;:<33333<<<<<<<<=$%:<<::,<<<<<<<<<<<<<333433334443<<3334<;*%$$$@+@@@@+++@*<:*@$@%;<,==*%@=;=%%%%%@@",
"X+$*%%%=::=%%==-:<<;$$$%*:=@@@@@@@@%$@%%%=:<33444<<<<33<<<3<<<<<<<<<<<,,<4<:=,<:%@%,<333333333<<<:==:=%@*:<<<,=***=,<=$@+@@%=::=**=:<33<;=;,<,;:<43333<<4443:::<:;::::=%$%%=:<333334433333<<<<<23333<3<:%$%%$@$**;<<:;=:<<:;:<:=;<:=@%*%%=,44<:@XX@=<33,;===*$%=:==:,:==:<,===:=**=*$%%%@%:44<<333333<<<<<344444333<:=%@@%:,;;<:=:<<<3<<<<33<<3<<:::<<:==:<3<;*=:;:::%$@@@@$=::====,<<<,=%*;:==:<<3333334333333<:=:,,=::*$$%=:<33333333333333334433333<,%$%=%%;;=*====:<<:==,:;*;==%=::==;<<<:@@@X@=<<<;%%%=%%%:===::==;,<:==::=**%$%%%$%=<<<<<3<<<333<<<<233333<<33<;=%%%==;:;;::::,<<3<3334333<<:<3<:;:<33<;=;::,:*$@@$$%:,:;;;=:<44<:*=:<,::333333<<<<<<<<,==:<<;:<<;==:,<33<<<<3344433344332233343<<,:=%%%%$++++X@*:;*%%%*=;*@%%@@%:,=%$$%%$",
"X@%*%$%;::%%*=*%*::=@%%%*:=@@@@@+@*=%$*=:,<<33443<<333333332<<3<<33<<:;;;<<:=:<:**;<3333343333<<<:;:<:=%*:<3<:%=;;=::*@@@@@$%::=====<33:=*;,<<:<343<3333344<===:;==========:<3333333333333233<<<233<<<<:%$$%$@@%*:<<<:=;,<,==,:==<<:%=*%%=:443<%++%:333:=*%%%@*::==,:;=;,,;==:<:=**%@$%%@%:33<<333333<<<<<3444433343<:=%$%=:==:==::::<<3<<3333333<:<<<,==:<<,=*;<<:;*%$@@@@@=:::==%:<3<:=%;,<:;:<<3<<3344433<<,<,;:::;::%%%*:<333333344334443334433333<:%$%=%$*===:,:=;,<:;=:,:=;::%%*===;<<<<%@+X%:33<:%$%*%%=<:;=>:==:<:===<<:=*%@$%%$$=<<<<<3<<<<<<<<3<233333<<33<::--====;==;=**;<343334443443<<<:===:33:=;<<<,:%$@@$$%=;:>,:=;,44<:=:<3<::333<333<<<<<<<<:;:<,;:,:%%==:<333<<<334444444433333444444<:=%$*=%XXXXX@%==*%**==;=%$$@+@=:;%@@$%%",
"X@%%@@%=:=@%=*$$%=;=%*====%@@@@@@%::*@%:<3333333333333333<<<<<33333<:=*%%=:,=:::=;<43<33444333<<<,:,3<:=*;,3<;*:<<:;=%@@@@@@%:<<<,;*:<<-&%=:,<<343<<444333<<%@$%==*=**=:<<<<343333233333334432<<<<<<<<<:%@$$@@@%=;,<<:==:<<==::==,<:=:=%@&:333<=@@;<33<:=%%%%%=::=;<:==,<,==;<3<:*%$@@%%@%:333333333333<<333333333344<:=**=;==;===%%%:<3<<<333333<<<<<:;==:<:==:33,=$$@@@@@@=:<<<:%=,3<;*=:<<::<<333<3444433<:=;::;::;;====;<<344433334334443333333333<:%$%%@@%%=:33,==:<<:==::==,,%$$%*=;<<33=$++=<33<;%@#%%=:<:==:;==,<;==:<<<;=%@@%%$$=<<333<<<<<<<<<33333334<<333<<<<<;=***==%$@%:3433344444444<:=*%*:<<;;,444<:%@@@$%%%=,<3<;;:4<:=:,<3<<,33<<333<33<<<<<<:;,:=::=%%==:<333<<<<34444443333333334443<;$+@*:=@XXX+@@%*%%%%*=::=%$@+@%==*$X@$%",
"X@@@@$%=*%@==%$%==%%%%%%%%@@@@@%*:<:%@@%;<<33333333333333<<<<<33333<:=%%$%;,=:::;:<<<<33444333<<<<<<<,:=*=:3:=*<<<<=$@@@@@@@%:<433,=:,,=%%**;<4443<344433<:=$@@@%%%%%=:<<3333443<<<33333333332<<<333<<3,%@$@+@$%===;<<,-=;;=*=*%*:,:=::=$%=,33,=@@;<33<=%$%*==:,:==:==:<<:*;,<<:=%%%@@$%@%:333333333333<<3333333333443<,<,:====%$@@@%=,<<<<333333<<<:=*=%%=<,==,33:=$$@@@@@@*:3<<<;=:<:=%%=:<<<<<333<3444433,=$%%**====;:,,<<<344433334334443333333333<:%$%%@@%%*:,<<:==,<<:=::==:<=*%%%%=,<33:%@@:<3<:=@$*:=::<:====*;::==:<<:==%%@@@%$$=<<333<<<<<<<<<333333443334433333,=%%%%%$$$%=:<33444444444,======,,=:<444<=%@@@$%%%*:<3<:;:3:=%===:<3<333<33<<33<:==;::;::=:;=%==:<<333<<<<<444333333333333344<;$@@@%::%@@$%%%%%%@$$$%%=::=%$@@%==%@@@%",
"@@@X@*==%%$==%**%%%%%*%$$%%$@@%*;,<:%@@#*,<3333333<<33333<<<<<33333<,:=%%%=:;;:;=;:==:33333333<<<<<<,==*%%=<:==<3<<*@@@@+@@@%;<444<=:::==::=;<34433333433:=%$$@@@@$%=;<<<<<<<3<<,,<33333333333333333<<3<=$@@@@%=;===:,,;=======**=;=*::=%%%=<<:%@@%:<3:=%@%===::=**=**=:::;,<<:===%%$@@@@%:333333344333333333333333443<<<<,=%%%@@@@@$%=:<<33333<<<<<;==:===::=;,33:=@@@@@@@@%:<<3<:=:<;=*===:<<<<343<<33443<:*@@$%%%&=;:<<<<<334443333443333333322<333<:%$$@@$%%*=;,<<:::<:=%===*:<;===$%*:<33:%@@=<3<;%@%=,=;::=%=*%%====;:<:====%@@@$$%=<<333<<<<<<<<<333333443<<<<<,<33<:*%$@@@@@%%=,34434444444:;:<,:=;:=:<444,=%$$@$%%$%:<3<:;:<;==;==;<33343<<<<<333:=%%===;;==;;=;:<33333<<<<3444333<<<333333333:*@@@@@;:=%%%%==::=%%==%%%=====%$$===%@@@",
"@@@X*::;*%%::==%%%$%==%%%===%%%*;:<;%@%@%;<333<<33<<3333333333333333<<:=========***$%=<<<34333<<<<<<;**====;;==<43<*$@$@@@@@$=<444<=;;=;,<3;;,34443334333:=$$$$$@@@%=:<<<:=;:::,,:<<<334333333333333<<3<:%@@@$=,::==;::;;;:;;::;====%::;*%%%:,;$@@$;<<=%%$=;;==;*******===;:::==;,=%$@@@@=,33333333433333333333322<<<,:<<3<:*$@@@$@@@@%=<<333332<<<,==:<,:====;,33,=$@@$@@@@%;<<3<:=;:==::;==<<<<343<<<343<:=%@@@$@#%%:<33<<,<<3333333443333333322<<33<,*$@@@$%====;:<::::;=%**%%-::=;;%%%*,<<=$@@*:<:=%$%;<=*==*%=***=**=;::===::=$@@@@*:33333<<<<<<<<<3<<<<334<,::;==:<3<:=%@@@@@@$%=,34434444444:;:<<<;===:<444,*%$%%%%%$%:<<<:==:;::<,;=<33343<<<333<<=%%$%%%====:,,,<443333<<<<3344443<<<<<3333333;%@@@@@*==*==%=:<<:==::*%%***=:=%%==;;%@@",
"+X+@:<<:=*=::=%%%%%=<:===<2:%%%%%=:=%@%$@%,333<<443<3334433333433444443<<<:=**%$$$$$%*:<<344333<<<<,==:<<:=*===<44<=$@%%$$@@$=<444<====<443=;,44444444333<:%$$$%%%@%=,<<:*$%%%*:<,,<<334333333333333333<,*$@%%=<<<:::==;:,,::33<,:==%=::=;=@=;=$@@$=:,*%**;::=*%==:::;==*%%=*%*=:4:*%%@+@;<333333333333333344333<<<::=*;<33<=%@@%%@@@$@%:<333332<<<,==,<<<<=**=,44<:%%$%%$#@%:333<:====:34<:=<<<<34333444<:%$$@@@%@@$*>343,==:,<<3333344444433333333333<=$@@@%%:::=*&===***=;;=*%%=;;::*%%%:<,%@@@%;<=%%*=;,*%%%==;;;;;========:<,;%%@@@=<33<<<3<<<<<<<<<<<<<333<:%$%%@*:<<,=$@%*$$@@%:443333444444:==:<<,=**:<443:=%$%%%%%%=<<<<;===:<444,=<<334433333<,;*%%@$%%%%%;<<<<344<<<3<<<34444444333<<3433333=%@$%$@$%**=:==:<<,;=:,;=::=@$==*%=:<3:%X",
"XX@=<<<,=%==%@%==%=;,=*=:,:=*=;=**=*$@=%@%:<33<<333<3333333333433334444433<;%%$@@@@#$%*=:34433<<<<<,==:<<<:=*%*,344:*@@@@@@@$;<44<:%*=,43,==:<344433443333:%$@@@%%@%=::;*$@@$@=:4<,<<334333333333333<<<<<:;=%%:<,:;::=%:<<:==<43,;=======;=@%==$@@@=;;%%==;;=**=;,<<:=*:::=**==;:3:=%%%*=,<32<<33333333<<33333333<;*%$@%=::<:*@%%*@@@#%;<33333333<<<:==;,<<:=%*:<3<,;*%@@@@@*:33<,;=*=:<<<;==<<<<33333333<:%$%@@%=%$%=,<<:=%%%*=,<<<<<33333333<<<<<3333<:=%%%%*:<:==*&==;:;=;:,::==%=;:==*$=::%@@@%=:%%=;==;*%*=:,<,:==;;====:::<<:%%%**:<333<3<<<<<<<<<<<<<<333<:=$$%$%=;::=$$%%@@$@=:443333444444<:==:<<:=%=:<<<<:%@$$$$%=:33<<=*=:<3<,:;=<<333333333<:%%%$@%%%%%=:<432<333<333<<33444433333<<3333<<3=%@%%@@$%=;<<:==:<<:=:::=;,:%$%%%$=:<3<=@",
"X+%<<<<:=%%%@@*::*=::==;,:;*=:<,=%%%@@=%@%:<3333333333333333334333433<<344<,*%@@$$@@$%%=:34433<<3<3<:==;,<<,=%%:<33<;%@@@@@$%:<<,:=%%;<4<:=:,<333<<3444333,%$@@@$$@%=;=%$@@@@@*:4<<<<<<3333333<3333<<<<<<<,;%=:<:==;:=%=<3;%%:<<:%*=:=*%*==%%==$@@$===$%=========:<3:*%:<<=%*;;=;<:=%*=:,<3<<<<33333333<<<<333443<=$@@@@%%*::*@$%%@@@#=:<33333<<<<<<:;*=,<<<=%%=,<:::=%@@@@@=,<<::=%%=,<<:==:<<<<33333333<,=%$@@%=%%%:>:=*%@@$%%:<<<<<33333333<<<<<33333<:;=*%=,,;===%*=,<:==<3<:==**=;;;=$*=;%@@@*==%*;:=%=====:<3<-%*:,;*=;:;=:,:%%=::<<33333<<<<<<<<<<<<<<3333,=$$$$%%%=:;%$$$@@@$=,4433333<<<<3<<::,<<:=%*=::,<:%@@@$%*:<<<<:*%=,44<:==:<3333333333<:%%%$$%*%%%=<<3<,::<<<333<<<344433333<<<<<<<<<3=%@$$@@@%*:<<,===<<:=;::%=<<=%=%$@*:<<<:%",
"X$=3<<<:%@@$$%=::%;::=;:<:=*;<3<:*%@@@%$@$:<333<33333333333333444343<::,<33<;%@@%%$@@$%=,44433<3333<,=%*:<3<;%%;,<<<,=$@@@@%=:,:==*$%;<43<:<<3<<<,<<444333,*%@@@@@@%==$@@@@@@@&:3<<<<<<233333<<<333<<,<<33<:%%;<;=;=;=%=:<=%%;;;=@%=<:=%*==**==%@@%==%%*=====:=%%=,<:%$:<<=%=:===::=%*;<443<<23333333333<<<333343<=$@@$$@@@;;*+@@@++@$=<333333<,::<<<:::<33,=$%=::====%@@@@%;:,:==*$%;<<<;==,<<<<<33444443<:*$$@%*%$%::=$@@@$$$%:3<<<3333333<<<<<<3333333<<;===,:==::=*;<3;%*,33:=*;=*=;;=$%=;%@@@*=%%*==%%*=;=%=,<>=@%:<;%=:;===::%%-<<333333<<<<<<<<<<<<<<<<333:=$$$$%%$%=;%$@@@@$%;,333333<<:::<<<<<<<<:=%**==;::%@@@$%=::::::%%=<443:;:<<<<<<3443333<=%%%$*=*%*:<<<,=*%;::<<<<<<<443<<333<<<<<<<<<4;%@@@+@@%%=:<<:=*:,:%==;%=,<==:=$@%;<<3,=",
"@$=<<<<=%$$*=*:::%=;==:<<;=;,<,:=%$$@@%@@%:<33<<33333333333333444<<:;%%*:,<<:*$$=*$@@$*:<44333<<<<333,:;<33<=%%=::=;;=@@@@@$=======**=,333<<<,===;<<344433<<:*@@$%%**%$@@@@@@@=:3<<<<<<233333<<<333<<:<<33<:%%=:====;=%%;,;%$%%%*%%=<<:=*=;;====@@===%*=;=*=<<=%%%===%%:,:%%=:;=;::=%%=<4433223333333333<<<333343<=@@@$$@@@&=*@@@@@@@$=<333333<>=*=::,<<<33:=*===;*%%%@+@@@%*===*%*%%=:<<<<<<<<,::,<4444433:*$$$$$@@%:=%$@@@@@@%:3<<<3333333<<<<<<<333333<<====::==;;=%=,<;%=:<:=$$::=%=:;%%=;=@+$==%%===%%=,:%@*===*@%=:**=:==;=::%%-<333333<<<<<<<<<<<<<<<<<333<;%$$$$$$%%==*%$@%=,<<<333333<;=%=;:<<3<,;====%====%@@@@%%===;;====:34433<<<,::,<433334<:*%%$%=*%=:<:==%%%%%=<33<<<343<<<333<<<<<<<<<4:%@@@X@$%*==:<<:====%%%*%*:,==::%@@=:<<:*",
"+@%:<<:%$$%===::=%%%%%=;:=;:<:;==*%%@+@@@%:<33<<333<<333334433443<;*%%$%%*=::*$@%%$$@%=<344333<:;;::<<<<<43:=========%@@@@@$%****=:,:;:343<,:;*%=<<334443443<:;=;::=%$#@@@@@@%:<33<<<<<2343333<<333<<:<<33<;%%=:::;::=%*;::%@@@@%=**;,,:===:=**%@@==%%====;:<:=%%%$$%%*::=%%=:===:;=%%=<4333333333333<<3333443333<;$@@$%@@@$%===%$@$%=:<3333333<:=%==::<333:==::==%$%%$@@@$%***%%=::=*:<<3<<,:===;:<4333443:=%$$$$%%==%$@@@$%@$*,33<333<<333<<<<<33333<<<<<====::==;;=%*:,=%%***%$%:,:===;=**==%@$*========<<=%%%%%%$@%;;%*=:===;:;%%;<3333333<<<<<<<3<<<<<<<3<<3<:%$$%%$@$%*:::;=:<<3<<4333333,=%%==:<3<<::<<:==**=%$$@@%*==*==:::;;<4443<:;==:<<33<<343:*%%%%%%%=::=%%%%%%%=<33<<<<433<<333<<<<<33<34,=@@+@@*;:===:::========%%==%*::=%$%=<<=$",
"X+@=<:=%$%%==*:=*%%%%%%%==;::;==-;=%@@++@=<<<<<<3443<333333333343<=$@$$$$@%=:=$@$$$$$%=<333333<:=%*=::<3343:=;>;=****%$@@@@%%***=:<4<::34<<:==%=:43334443333<<<,<<<=%@@@@$$@@%,3333<<33333333333333<<:,<44<:%%*=:::::=%%=:,*@++@$=%%%=:;=*=;=*%%%%=%%%====:,:*%**$@+@$*,:=%%=:===:;=%%;<4333333333333<<34444443333:*@@$%@@+@%*:,:=%%=,<<<3333333<;*%*=;,<<<:==<<:*$@%%%%@$%%**%%*;<<:=:<<<<:;=%%%:<44333444<:=%%%*;:=*%@@@$%%$%;<33<344<<3333333334443<<<<<====::=*=;=%*=:;%@@@@%%*=:<:==;=*%%=*$$%==;====:<:=%*%@@@@@=:=%*=:;==::=%*:<4333333<<<<<<<3<<<<<<33<<3<<%@@%%$@@$%:<<<,<<33<<3333333<:=***=:<<<,,44<;=*==*%%%%%===%%;,<:;;<443<:==*=:<343<<344<=%$%%%%%=;=%$%%%%%%=33<<<<<44333333<<<<<33334<;@+@@%=,<:==;;;===;=;;;==**%%;;=%%%%::=@",
"X+$=::%$%=;:;%%%=;::::;=%%**%%=;,<:%%$++%:<<<<3334433333343333344<=%@@@@$$%*==*$@$$$$%:<3333344<,*%%==;,343,=;33:%%%==%%%%%*****=,343<<44<=*%%%:<4443344<<<<,:,<3<:=%@@$%%@+@%,333333333333334443332<:,<44<:=%%======*%%=:<=$X+@@@@@@@@%*==;=*%%=:=%%=:=====%@@$$@@@@@*<:=**==::::=***:<44433344334433334444443344<=+@@%%@++@%,34<,::<<<<<3333333<;%*==;:<<<::<4<=%@$%%**%%=%%%%=:33<:<<<<;=*%%&;<44444444443,=;:<4<=%@@@%%$@@*<<<<<344333333333334443333<<==**=::====%*=<;%@@@@$*=%=:<:===*%@=*%@$%*;=%*===%$%=%@XX@$,:=**==::::=%%*:<4433333<<<<<<<<<<33<<333333<*$@@%%%%$%*;,<:::<<::<3333333<:*%%%=:<<<<44<:=*%%=======*%%=,33::,343,:;===:34443333444,=%%%*::=*%%@@$%%@$=33<<<<<34433333<<<<3333443:*$%%%:<<::::===:,:=:,<<::=%%====;*%*;*@",
"X+@*:=$$%=;;=%%*=,<<:*=::;=%%=;=:<,*%%%*=<<<<<3333433333343344344<=%@@$#@@$%*==:=%%$=:<343333443<:=%===;<34<::<4<;%$%%%*===*%$$%=<444444<:*%%%=,4444433<:;;:===;::;=%@@%%%@@$;<333333333333334443332<:,<443<=*%%%*==*%%%*=:=%@@@$@@@@@@@%*======;:=%*=:;=%%$@@@@@@@@@%=:==*%*=====*%**:<44443344333333344333333333<;@@@%*%@@@%:<3<:;=::::<<333333<:*%%*=;,<<<<34<=$+@@%*=*%%$@@%=<33<<<<,;*%%$%;<34444443<<3<:=:<33:=%@@%*%$@$=<<<<<334333333333334333333<<:=*%==;===*%*=::*@@@@@@$@%%====-=*%*==%%*=;=*=%%$@@@@@@++@%<:=%=**====%%%=:<433333<<<<<<<<<<<<<<<33<<33<;%@@%=*%%%==;;===;;==:,<34443<<=%%%=;,<<<34<:%%$$%====*$$$%=<33<<<43,;;;==:<44444344444<:==:,<,=%%#@@%%%$%;33<<<<<3<<<<<<<<<<<<333443<,;=%%:,:==::=*;<<;%=:3<:===*%%%*:*%%=%@",
"X+$*=*@%=;==***%=,2<:%=:<:=%%=;=::,=%%=:,<<<<<<<3333<333344444444<:%@@$$$@@%%=:<,:=%;,33333444443<:=*===:<44<<34<:%@@@%*=;=%@@@$=<444444,;*%%*:<444444<,=======*====*$$%%$@@%:<333433333333334433333<,<<444<:=%%$%==%%$%**%**$@@$@@@@@@@$%=*==:===%==;:==%@@@@@@@$$@@%%%%==*%%==*%%%*=,334444444333333344333333333<:$@@%*%@@@*::,,:===;;;:<3333333<=%%%*=:<34443<=@X+@@*;=%@@@@$=<333<<<:=%%%%=><4444443<::,:;=:<<,;*%@@*=%@@%=<<<<<33433333333333443<33<<<:=*%%*==*%%*====*$@@$@@@@@@@%*=;;=**==========$@@@@+@@@@@$*:=*%%%%===%%%%=><3<<<<<<<<<<<<<<3<<<3333<<3<<:*$$%%%$%=;==**=======:<444443<:=%*==:<3334<:%@@@$*;:=%@@@%=,3<3433<:=====,34444443<<<<,:=:<<<:=%$$$%%%%$=:4<<<<<<<<<<<<<<<<<<<33334443<;*%::====:=%=<<=@*:<,=%%==*%%%;*%%*%$",
"X@%==%$*==%%=:=$@;:,:$%:3:=%===*=:,=%%;<3<<<<<<<<33<<3343333444433<=@@%%*%$$$*:443<;;:<,,<34444444<;%%%*=:<44444<:%@@@@%;:=$+@@@=<44444<:==**=<3444443<:=;=====%%*===%$$@@@@%=:<33333<<<<<<<33333333<<<<3343<;*%$%*=%%@%==@%%$++@@@@$@@@@%%**=:*%%%=::==%@@@@$$$$%$@$%$@%*=%@@*%%@%%*:<334444433333333344333333333<:%@@@%%@@%======;;=====><443333<:=%%==;,<3333<=@X@@@%::*@@@@$=<333<<,;*%%%%:<<344444<:====;;=;;===%@@&&%@@%;33333<3333333333333443<<<<<<,=*%%%%*%%@*==%%%*@$%$@@@@@@@%==;==*==*=;=*==%@+@@++@$$@@$%%%%%$%%==*%%%=:<<<<<<<<<<<<<<<<333333333<<3<:=%$$@$%%*===%%*=====;=:<333333<:=*%==:<3334<:$@@@@*::=@@@@$=,<<443<:==*%*:<4344443<:;=;;==:<<<;*%$%*=*%%$=<4<<<<<<<<<<<<<<<<<<<33334344<;&%;:====;=%%,,=@%===%@@;>;&%%==%%*=*",
"X@%=%%%===%=,<=$@%%*%%*:<=%%=;===;:*%%-<3222<<<<<33<<<34333344443<<=@@#%=&$@@%;<3<:===;==:<4444444<:=%%%=:,34444<;%@@@@%:<=$o@@@*,34443,:==%*=:<34444<:==;;=*%%%%%%%%**%@+@@@@=:<<33<<<<<<<<333<<<<3<<<<33333:=%%%%%%*%=::%%%@+@@+@$$@@@+@%====%%%%=::=%$@@@+%%$$@@@%==*==%%%%%%%%%%=,<33444443333444334333333333<:=$@@@@@@%=-==%%=-;=;;==;,443333<,=*%==;:<3333<=@+@@@%;=%@@@@@=:333<<:==%%%=:<<<34443<:;:=;::==%==;;%@@@@@@$=:<333<<333333333334443<<<<<33:=%%%%%%%$%==%@$*@@%%@@%%$@@$%=::=%%%%=;==*%@++@@@@+@@X@@%$&=%$$%**%%%*=,<333<<<<3<<<<<<3333333333<<<:=%%%$@$*===%%%*%%%%=;;==;,<333<:;=*%*==<3333<=$@@@@%;:*@@@@$=,33444,:;====,<4334443<:;==;:::::;=*%@%==*%%%;<3<<<<<<<<<<<<<<<<<<<<3334344<;%%;:;=*=;=%%=:=@@@@$%%$=,2:=%====***",
"+$%=%%*====:::*%%@@@@$=:,*%*;====;:*%%;<3332<<<<<33<<333333344443<<;%@$%=*%@%==:::;;;====;,34444443<;=%*=;:<3444<;%@@@@%=;*$@@+@%:34443:==*%*==:<44<,;===;=%$$@$%%%%%===%@@@@@%=;,<<<<<<<<<<333<<333<<<<33344<:==*%%%==:::%%$@@@@+@%%@@%+@*:====*%*=;:;*$@%#@%%$@@$@*==*;:=*%%%%%**=:<33334444333344444433333333<:*@@@@@@@%===%$@@%*====;-=;:<<33<,:=%%*===,<333,%@@+@@$%%$@@@@@%:333<,;=*%%*=;:<34443<:;;:;;::=%$%==;*%@@++@@%*:<<<<<333333333333443<<333<3<:=%%**%%%*=;*%%=%@$%@@*%$$@@%=;::%%%%=====%+@@@@@@o+@X@@$@*;=%%%%****=:<333<<<<33<<<<<33343333333<,;=%$%%$$%;:==$%%%%$@#*======:<3<:==*%%%*=:<3<3,=@@@@@%*=%@@@@$*:3333<:;;====:<334444<:;;;=:::;======%%%*%%%*:<3<<<<<<<<<<<<<<<<<<<<3333344<;%%=::===:=%%=::@@++@%*%%=,:=**===%%%",
"$%*%$%====::=%%%%@XXX@=::*%%===*=;=*%%:<333<<<<<3333333333333444333:%@$%*%%$==;=*==:::;;:::<344444<,;=**=;:,<444,=$@@+@@$%$@@+@@@;<444<;=%%%%*=;,4<:=%*====%@@@@$%%$%=:;=$$@@@@@%;<<<<<<<<<<<<3<<333<<<<333334<,:====;:<:=%@@@@@@@%==@@%@$=,=*=:=*====:=%$%%@**%@$%%%%%%=::==*====;:<<333344443333344333333<<<3<<=@+@@@@@%=;=%@++@@%%&%=;===%=:<3<:=%%%%%==:<33<:%@@++@$@@@@@@@+$;22<<:=*%%%%**=<3443<:--;:;;==%@@@%*;==%@+@@@@@=,<<<<333333333333333<<333<3<<:====***=::===;%%$@@$=%$%%@$==;:=%*===*==%+@@+@@@X@@+@@@@=::;=*%====:<343<<<<<33<<33333344333333<:%%%$%%%%=::=*%%%$$@@@$*====%=:<<:==%%%%%=:<<<3:%@@@@@@%%$@@@@$%:<33<<:===**=:<34443<:;::;=;::=%%==::%$@$%%%*:<33<<<<<<3<<<<<<<<<<<<33<3344<;%%*=;;;;=*%%=::%+X++@%%@$====%==*%%%",
";=%@%=:=*%=*$@@@@@XXX@=::=%%*=;;:;=*%%:<433<<<<<3333333333333444333:%@@$$@@%;:;=%%*;;;;;:;==:33444,==***==;>2444:*@@@+@@@@@@@+@@@=<443<;=**%%*=;<4<=%*===*%%@@@@@$%%%*;;=*=%@@@@@=<<<::,::,<<<3<<<<3<<<<33333433<<,,,<3,:=*$@@@@+@=,<*$@@$=<=*=:=*====<;%$$%*::=@$%%@@@%*=,<::;:::<333333444443333333333333<<<3<=$@@@$@@$*;;=%@++@@@#%%%==::*%*,<<:*%%%%%*=:<33:=@@@@@@@$@@@@+++$=22<<:=%%$$%%%*,<43,;==--====%%$@@@%=;;=$@@@@@@%=<<<3333333333333333<<333333<<,:=====,,:*%%%**%$%%=%%%%%%:;=====:==*:;*@$@+$%%@@@@@@+@%;<<:===:,<<2343<<<<<33<<33333344443333<:%%%$%%===::=%%%$@@@@@@%%===%%=:<:==*%%====,<33:%@@@@@@%%$$@@@@@=,34<:;=*%%%*=:<44<:=*=::;*===%%%%*=:=%@@@@@%=:<3<<<<<<33<<<<<<<<<<<3<<33443:*%%%*===*%%%*:<=@X++@@@+@@@%%%==*%%%",
":=*%%=:=*%@@@@++@@@@@%====%%%%===*%%%*:<433<<33333333344333334443<:*$@@@@$%=:=*%%$%*====;;;===,<4<:===***==:<44<=%@@@@@@#%$@@@@@@%:34<:;===%%*==::=%%=;=%%$$@@@+@@@@%*;==%==%@@@@=:<<:::::,<<<3<<<<3<<<<33333343333<<<<==*$$@@@@@%:<4:*%**=;===;=*====:=%%%*:<<=@@@@@@$===-,<<<<<<3333344444443333333333333<<<3,=@@@$%%$$%;;%$@@@@@@@%%%%*=::%$*:<:=***%%==:,<:*$@@@@@@$==%@@@+@@%:<<<;=%%%%%%*=<<<:=*=:==***%%$$@@@%=;;=$$%%%$$@=,<33334333333344333<<<<<<333<<<<,<<,,:==*$@%%%@%;<:=%%%*,:;=;=*;===:=%$@@%::;$@+@@@@%*=:<<<,<<<<<33333<<<<33<<<<<33333333333<=*%%%*==*=::=%$@@@@@@@@@%*;:*%$*===**==*===,<<:*@@+@@@$*=%@@@@@@%=<3<:==***===:<<,;*==:;==***%%%%$%=::==$@@@@$%:<<<<<<<<<<<<<<<<<<<<3<<<3344<=%%$%*==%$$%%===%@@@@@+++@@@%***%==%",
"=*%==;;=%$++@@@@@$@@@%%%%*%%@$%=%%%%%=<<333<<33333333344333344443,*%@@@@@%=;:=%$$$$%%%%==;:;=*=:<<:=====*==:<3<:*$@@@@@#%=%@@@@@@%=:<<:;====***===%$%::=%$@@@@+@@@@@%*;=%%*=*%@@@%=,<,,,,,<<<<33333334333333333334444<:%%%$$@@@$%=:<<:=====*%%==========;;==,3<:$@@@@@$**%%:<444433333344444443333333333333<<<<:%@@%%**%@%==%@+@@@@@@$%%%%=:,%@$=::;===**=;:::=%@%$@@@@%:;*%@@@$@%*:,,==**%*%%==:::*%=::=*%*%%$$$$@@$%=;*$%***%$@*:<3333333333344433333<<<<<3<<<<<<3<<:===%@@@@@@%:4<:***=::;=;==-==*===*%%=<3:%@+@@@@%%*=:<3<3333333<<3332233<<<<<3333333333<:*%%%*==*%*;:=%$@@@@@@@@@$%;:=%@$%==*=====;;:::*%@@@@$$%=:*$@@@@@@%;<<;;======;:<:=%%=::====%%%%%%$%*=::;%$$$@@$=:<<<<<<<<<<<<<<<<<<<3<<<3334<:*%$$*=*%@@%*%%*%@+@@@++@+@@@%%%%==*",
"%$%=::=%%@@++@#@@%@@@@@@%%%%@@%%$@%%*;<<3<<<33333333333333333344<;%@@$@@@=::==%$@$$$%%%*==:::*%=:3<;====*==:<<:%%$@@@@@%=:=%$@@@$@$%::::-=*==*%*%%@@%<:=%@@@@++$@@@@%*=*$@$%%%@@@@*:<<<<<<<3333<<<<344333333343334443<:%@@$$@@%=::::;;===;=%@@%=;;=*%%=:<<;;,3<:%%$@@@@%%%@;<3333443334444444433333<3333333333<:%@$*==%$@@*=%@+@@%@@@@@$%%=:<*@@$*=:;==%*==;==%%%*%@@@%=::==$@$%%@@*::===**=**====*%%=,:=%%*%$#$%%@@@%==%@$*===%$*:<<333333333333333333333333<<<<<<<<<=%**%@@@@@@%:4<:=:;====;======%%=:;=*=<3<=$@@@@@@$$$;<3<<333<33<<<33223333<<<3333333233,=%@@%=*%@@%=;*%$@@%@@@$@@$%:<:%+@%%**====;:;;=%$$%%$@$%=;:=%@+@@$$$%::::;=====:,:=%%%;::=***%%$@$%%%%*::;%&*%@$$$=,<<<<<<<<<<<<<<<<<<<<<333333<=%%$%%%%@$%=%@$$@XX+@+@@@@@+@%%%==%",
"%$%=::=%@@$@@$%@@$+@%=%*==%%%%%%%%%%;<<<3<<<<333333333333333334<:%%@@$%%%=:;*%$$$$$#$%%%%=-,<;%%*=;:;====;::::*%%%%@@@%=;::=*$%==%%%*==;==**===%%%@$=<<=@@@@+X+@@@@@%*==%@@@@@@+@%=,<<<<<<<3333<<<<3443333<<344334443<,-=;:;=*=;::=**==**=*%%%%%%%=*%%%=:===::==::;%%%==;;=:<333344333444444443<<33<<333333<<<,=+@@$$@@@@%==%@+@@$@@@@@@@$=:4=%@@@%=:;=%*=;=%$*===*%%%=;==;:%%%=*%%%%====*==***%%%%$%:<;=%%%$$$%%%$@%%==%@@$$%%%@$*,<333444333333<33333333333<<<<<<<<<=%%%%@@@$%*=:<,:=:::=%%==;;=*%@$=;=%%====::=%@@$@$$@=<33<33<<33<<333223333<<<333334<<33<:=$@@%%@@@*;=%$@@@$@++@@@@%:<:%@@@%%====*===*%$%*==%%%=;==;=%@@%%%%%*=;::====::=%%%%*:,;*%%%%%%%%%%%%*::=%==*%$@@=:<<<<<<<<<<<<<<<<<<<<<33<<33<:=%%%%%%%%=:=%%@@X++X+@@X@@X@%*%==%",
"%%%=;;=%@@%@@$%@@$@$%=**;==%%%%%%%&=:<<<3<<<<<<<3333<3333333334<=$$$%%=*%*=;%%$$%%$@$%%%%*=,<:%%%%=;:;====:;==%**==%$$=;:=;=*%*;;===%%*==***=:=%$@$%=<,=@@@@+X+@@@@@%===%@@@@@@@@*:<<<<<<<<<333<<<334433<<<<344444333<<<<<<<,:====*%%*%%%%%%%%%%%%=%%%%&=%%%=*%%;:;==:,,,,:<<333333333444444443<<33<3333333<<<:*+@@@@@@@@%==%@@@@@+@@+@@@@*:4:*@@@@*::=%%==*%%;:;;=*%%=====;*%=;===%%%*=*%%%==%%%%%@=,<=*%%$$@@@$%%$$%==%$@@@$%$@@%:<34334433343<<333333344433333<<<<<:;;;=*%%=;;==--=*==;*%%%=;=*%%@$*=*%%=*%*::;=*======:<3<<33<<33333<<<<33<<<<<<33223<<<<3<=%@$$$$@$*;;=%@@@@@@+@@@@$=<<=%@@$*;==%%%*%%%%====*%%======*%%====*%&====*=:,=%%%$%=<,=%%%%$%%%%%%%%*:=*%*==*%$@=:<<<<<<<<<<<<<<<<<<<<<<<<<333<:=*%%%%%=::=%@@@+@++@$@X@@+@*=***=",
"%%===;:=%#%@$%*$@@%%%%%*=::==*====-,<<<<<<<<<<<<<33<<<333333334<=$@%===%%%==*%$$%%$@$$$$%%=,3<%$%$%=<:=*====%%=;;=;=%%=;;===*%=;:;;:%%%%*%%=;:;%$@%=:<:%@@@@@@@@@@@@%=;=%@@@@@@@@=:<::::::<<33333333333<<<<<3444433333444443<:=%%*%%%%%$%%%$$$$%=**%%%%$$$$%%%%%*===:<43333<<33333333333344444433333334<<<<<<<:=@@@@@@@@@%==%@@@@@@@@+@@@@%;<:=%@@@%;:=%%*%%%=,:=:==%%*=====%%*:;===%$%%%%%%==%$$%%$;<<=%%%$@@@@@%%$$*==%$@@@@@@@$*:<<<<<<4444333333333333<33333333<<<<<<<<:;=;:;%%%%%%%%*%%%%==*%%%$$%%%%%%%%%====;:<<<<,<<3<<<<<<<<33<<<<<<<<<<<<<33<<:,,,,<<*%$$$$$@$*;:=%@@@@@@@@@@$@*,<;%%@%*===%*%%@@%;====*%%%**===*%*====:%%***%%=:,=%%%$%:<,=%%%%#$%$%%%%%*;=&%%%*=%%@=:<<<<<<3<<<<<22<<<<<<<<<<<<333<:;==**=:,;*@+@@@@@@$*%@@@@@=;=%==",
"$%===;,=%@$%=,:*@@%%@+@%*;,<:;=;::<33<<<<<<<<<<<<33<<<333333334,=%%*=%%%%%=;%%$$$$@@$$@$%%=,33=%%$$%<,;%%***%%:::=:=%*%%====*%*=:=;,:*@$*=**=;=%%%*=:<=$@%%@@@@@@@@@*;;=$+@@@@@@@%=;**%@$=<<33333333333<<<::<44443333344444<:=%%%%%$$*%$$$$%%$@%==*%$$%%@@$$@$%%%%%%:<44333<<33333443<,,344444433333334<;*==;<:*@@@@@++@@$=;=%@@@@$#@+@@@$%=::;*@@@%=;:===$@%:<:=:;=%%%%===*%%%;;==:=%@$%%%*==*$$%%*:<:=%%$@@@@@@%$$%=:=%@@@@@$$$%*:,::==:<44433333333333<<<3333333<<<<<<343<=%%%%%%%%%%%%%%%%*==*%@@@@$$$$$@@%%%$%:<3<<<<3333<<<<<<<<<<33<<<<<<<<<<34<;%%===::*$@@@@@@@%;:;*@$$$$%%$$%=@%:<;=%$%%=*&*=*$+$=:*=:=%%%%%*=*%%%*=;=;<=%%*=*%;,:=%$$%=<<:=%%%%@@@@@%%%%%===%$@@%%$@$=<<<<<<3<<<<<33<<<<<<<<<<<<333<33<<<<<<,==*@@++++@=,>&@@@@=:=%=:",
"%*====;*%%$%:<<=@@@@@+$*=*=<<<<<<<<33<<<<<<<333<<33<<<3333333<<;%@$%%%$$$%=;%$@$$@@@$@@$%%=:<4:*%$@%::;===%$%=<:::,=**%*====***=,:;:,;%@%==*===%$%*=::*@%*%@$$@@@@@@*;=*%@@$%$%*===%@@@@@%=:<<33333333<<<,;=:<<<3333444443<:=%%%%%%%*==%%%%==%$%===%%%%%$@$$%%%%$$%%=:<<<33333333433<,;;<443444443333<,=%@$$%===%%%@%$@@$%===%+@@##@@@@@@@%=;:;=@@@$%===*%@%=<,;=:;=%*%%*==*=**;:=%::=@#%*%%*=%$$%%=,,:=%%@@@@$$$%@$*;;=*%%$%%%%%%===%%%%*:<3333333333333>;:<3333<<<<<<3343<:=%%%%%$$%%%%%%%%%*==*%$%%%$$$%*$@$%$%%=:,<<<<<33<<<<<<<,::<<<<333<<<<<<<,:*$$%%$=::==*%%%$$%;:=*@$$$$%%%$%=@$=,;=%$$%=*%*=%@@%=;*=,=*%=*%%%%%**==:==<:=$%*===:=%%$%*;,:;=%%%$$$$@@%%$%=;=*$$$$$%$@$=<<<<<<333<<333<<<<<<<<<<<<<<333333<3<,=%%%@@+XX@%:<<=%%%%===*=;",
";===*=====%=:3<=%@@++@$%=$%:33332233<<<<<<<<<<<3333<<<33333333<=%@@$$$$$$%=;=%@$$@@@$$@$%%*=:<:=%$$%======%@=:<;::,=*==**=*=====<::=,:=@%==**=*%$%*=;;%@==%@@$@@@@@%=::=*%%=;=::,:=@++@@@@%%;<33333333<<<,==;;:<333333333<:=%$$%%%%%=;=%%%=:=%$%==*%%%*%%%%%*=*%%$$%%*=:<333333334<<::==<3434444443<,:=%@+@++@%=;:==;==%=====%@@@@@@@@$%%$%*=;;=$@$$%%%**%@*:<:==,;**==%%%*===*=::%=:;#$%=%%%&%@$%=;::;*%$$$$$$$$$@%*;;;;=*====;;;=*$@@@@$*;:<333333333<<:=;:<<33<<<<33333<:=%%%%%**%%%%%%*%%%*==*%%=;=%%%%-*%$$%%%%*=<<<<<3<<<<3<,,:=;<<<<3333<<<<,:=%%@@@@@%=<<,:;;=%*=::;=$$$$$%%@$%;%$*:;=%@@%**%==%@$==*=:,=%*;=**%%=====:;=:<:%%*===**%$$%=;:;=*%%$$$%%$$%%$%;:=*$$$$$$$@$=<<<<<<<<<<<333<<<<<<<<<<<<<<3<333333<:%@@@@@++$%=:,:;**===%%%*=",
":=*%%%%:,:;;:<<;%%@@+@@%=@$;<<<<<233<<<<<<<<<<<333<<<<33333333<=%@@###@@$%=:;%$@$$$%%%@@$%%*;,:=*%%%%%===*%$:<<=:<:==;=*%*%=:;=*<<:=:::%%*===*%$@%==;=%$;=%@@@@@@@$*;,<,:==:<<<34:%@XXX@@@@@*:333333343<<:;==*=:34333333<<;%$@$$$%%%%==**=;,=%$%==%%%%==%%*=;===%%%%$@@=,333333334,:====,3444433333<=%@@@@@+X+%;<<333<:=;:,:=*%@@@@@@@%*=%%%====%$$$$%%*=*%=,<==:<=*=:=*%%*;:=%=::==;>%%%=%%%%$@$%=;:;=%%%%%%$@@$$$%*=:,<==:<<<22<:%@@@@@@$%=,<33333333<<:==;:,<3<<<<3333<;*%%%%%=;;=*%*%*=&%%*==*%%;,;%%%=:;=%%%%$@$%:,<<<<<<<<<:;===;<3333<<<<<<<:*$@@@@@@@$*,33<<<:=;:<<:=%$@@$$@@@*;%%%:==%@@%%**==%@===%;:,*%*:==***=:**=<:=;<<=*===%%%%%%%==:==%%%%%%%%%%$$%*=;==%@@$$@@$%=,,::::,<<<<33<<<<<<<<<<<<<<33<<3333<<;$@@@@@@$=::;===*%*;=%@$%%",
"%%%%$$%===%=;:===:=%$%%=;==:<<<<<233<<<<<<<<<<<333<<<<33<<<<<<<=%@@@@@@@%&===*$@$$$$$%$%%%%*=::=%%%%%%*====%:<:=:<:==::=***=::=%:<<==::*%*;===%%$%====%%;=%@@@@+@@$%:<3<:==:<3333-%@@@@@@@@$=<333333343<<:;====;<33<,<333<:%$@%%%%%$%==*%==;%$$%==%%%%;;=%%=;=%%%%%%%$$=:<4<<<<33<:=%===,<33433333<<=@@@@@@@++@=<<333<:*:<<<:=%%@@@@@@%==*%%====%$@$%**==*%:<:=;::=*=::=%%=:;=%=:,;==:=%%=*%%%$$$%=====%%*=%%%$$@@%*;,<33:=:<<343,=$@@@@@@$$%:<43333333<<:====:<333<<333<:*$$%%%%*=;:;====:*%%%==%%%*:;%%%==%%%$%%$@@%;,<<<<<<<<<:=*==:<34<<<<<<<<<,=%#@@$$%%@%:<3<3<:=:<<<:=$$@@@@@@%=:*%%====$@%==***%$==**:<:%%=:;=%%=::=*=::==,<:==:***%%%$%====*%%**%%%%%%$$$%==;;=%%*%%%%%*;=%%%%=<<<<33<<<<<<<<<<<<<<33333333<<:==;;;*%=;:;*%%**%%=%%@$%%",
"%%%%$$$%%%$%%*%%=:===::,<,,<<<<<3333333<<<<<<<<3333<<<3<:====;:=%%%%%*%%*=;==*$@@$%%%%%*=%%%=;:==%%%***=:;==<,;;,<;==:,:=*=;::=*;<<:==:=%%====%$%===*%%*;==%@@++@@%*:<3<<:=;:<333=$@%%$@@@$*:<333333333<,:=====;<3<:::<33<:=%%%%%%$$%==%%*==%$$%%%%%%%=;=%%*=*%%%%%%%$%=,34<:;<33<;=*===,<33333333<<:%@@@@$%$@@*:<33<:==:<33:=%%#@@@@@%=;=%*=%*==%@$%%%==%*:,==:<:**;:;=%*=::=*=:,:====%$=***%$@$*=====%*==%$$$@@@%*=<344:;=:<343:*$$%%$$$$%*,3433333433<:=====<<3<,:<33<:*$$%%%%%*=;-*==::=%%%*=%$$%===%%*=$@$$%%%@@%;,<3<,:<<<<;=*==;:<3<<<<<<<<3<:*$@@$%*=%%:<3<<:;;<333,=%%@+@@@%%=;=*%%===%@%==*%%$@***;<<:%*=::=%%=::=**:::*:,:==:===%%$$*====%$%==%%%%$@$%%=;::>===::;;:==*$$$$$%=:<<333333<<<<<<<<<<34333333<<<<<<<<:=**==%%%%%%%%$$$$%%",
"==%%%$$$#@@@$$@%%**=,<33333<<<<<33333<<<<<<<3333333<<<<:*$@@@%===;=;::===:::;*%$@$%%%%%===$%==::=%%%*===:==:<:=:,:=*=:,:=%=::;=*=<3<;===%%**==$@%=;=%%*=;;=*%@@@@%*=:<<<<<;==:<<<*$%**%@@@%:<3333333333<:=*%%==;,<<;==:<33<:=*%%$%$$%%%%%%%%%$@@@$@%%%===%%%=*%%%%%%%%%;<44,==:<<:;==;==:<3443343333<;$@@@%%%%@%:<3<,==;<<<3:=%%$#@@@@%*=====%%==%@@%%%=*%=::*;,<=%*;;=%%*=::===;,<;=*=%@*%*=%$@%======%=;=%$@@@@@%%=<344<:=;,<3<:%%%=*%$$$*:3433344444<,:=====:<3<;=,34<:*%$%%%%%%*==%%=::=%%$%%$@@$%=*$%%=$@$%%%%$$%:<<3<;=:<<<===*==;,<3<<<<<<<33<:%@@$%==%%=<<,:==:33<<<:*%%@@@$*==;==*%===%@$***%$@@%*=:<,=**=::=%%==;=%%=,,==:,==;===*%$%===*=%%=;=$@$%@@@%*=:<<<;=:<<<<3,=%@@@@@$%*;<333333<<<<<<<,,<<43333333344443<<;%$%%%$$%$@@$@@@@$%",
"==*%%$$$@@$$@@$$$$@%:<3<<<<<<<<<33333<::<<<<3333333<<,=%%$$$@@%;<3<<33:==<43<:*%@@@%%%$=::%*===::%%%**==:==<:;=<<:**=::=*%*=::==%:<4,;**$@$%==$$%%==*%=:,;===*%%%==;:<<<<3,=%=;:;%@$%%$@@%:<<3333333334<=*%%%*==;::=**=,3443<:=%$%$$%@@@$%$$@@+X+@+@$%%%%%%%%%%%%%%%=;:<<3<:=*=::=;;===**:<4433433333<=$+X@%%%@$=<<:=*=,<<<3,;=%%%$@$%%%=;;;=**=%$@@%%%%%%====<<:%*=:=%$@$%=:;=%=:<,;*%@@$%*=%@@%;:=====;;=%$@@@@@%=:<4443,;*;,3<=%%*=*@@@%:<3433344443,====;;;;,<:=*;<44<;*%%%%%%**=*%%===%%%@@@@@%%%%%%%%%$@@@$%%%=:<<<<:===,<<;==%*=%;<<<<<<<<<<33<:%@@%==%%*=====:<43<,,:==*%***=*=::=*%==%$@%%*%$@@@%=:<<:*%*;;*%@@$%;==%*:<:==:=*=;=%%$$%:;=%%*=;;=@@@@@@$%%=:<<<:==,<<<4:=@++@@@%%%%=<3333<<<<<<,,,=:<433<<<3334444<,;*%$%%@@%*%@@@$$@@@%",
"*=%%%%%$@@%$$%$$##@$*:,<<<<<<<<<33<<<:=:<3333333333<:=%%$$$@@@$=,3332<;=:344<;%%@@@$@@%=::======:%$%*======:;;:3,=*=::=%$$%%=:;=*;,43,==%$$%==$$%%=;=%=:<,:======*&*=:;:<3,=**===%%##@@@@*,33333<<<3334<:==*%*===;:=%%=:,<<,,,:=%=*%%$$%%$$%$@+@@@+@@$@$$$$@@%%%%%%=:::,<<<;**=;;===%**==:<4433443333<,=$++@@@@$*::=%=:<<<<3<:====%%%===:,:;=**=$@$$%%%%%%===:<,=%=;:*$@@@$%;:=%=;<<:=*$@@%*=%#@%=;===;:::==%%$%%%=:,<4443<,===:;=%$%%$@@%:<33444444443,===*==;=;:=%%=,<3<<::=*%%%%%%%%%**%%$@@@@+@@%%$@$@@@$$$%$%=:,<<<<,=**=::;==%%*==:<<<<<<<<<3334,=@@$%%%%*=====:33<;=;=%%*=====;:<:=*%==%$$%%==%$$%=:<3<:=%*==%@@@@$=:;*%:<<:=;%%%==*%$%%===**=::;=%$@@$$%%=;:<3<<;=:,<<4:%@$$%%$$%$%:<3<<<<<<<<<<,:==:,<<3<<343344<:=%%@$$$$%==%%%@%=*$$%",
"*=%%%%*%$$%%%=%%$#@@%%=:<<33333333<,:;%=,33333<<<<3<:%$$$$$@@@$*:<<2<:=;<344<;*%@@$@@$%=:::;=====%$%*==*&*===:<3:==:::%#@@@$*;;===:44<:==%%*==$$%%==*%=:<<<:;===*%$%%*%=,3<;*===*%%@@@@$%;<3334<::<3333<,==*%%**====%%=::::;;::==::==%%%*%%%%@@$$$@@@$@@$$$@@%*=*%*;:::::,<=%%===**&%%*==:<433222333333:=$@@+@@%%==*%:<33<<<,:===;====::<<:;=***@$%%%**%%%*=:<<:**=:;%@@@@@$=;=**=:<<:=%$@%*=%$%%==-==:<<::-=*%====::<<3333<;**==%%$@@@@%;<344433334443<:==%*==*===%%=:<<<<<<:=%*%%%$$%%%%$@@@++@+@@$%$@$@@@%%%%%%:,<<,,,:=%%==;==*%%*==,<<<<<<::<3334<:%%$@@$%*===;=:3<:*%*%$$%*===;:<3:=*%==%$$%%==%%*=:<<<:==*==%@@@@@@=::=%=:<,:=%%%%=*%$%%*====;,,:;=%%%%%*==:<33<<:;=:,<4;%@%**%$$%%=,<3<<<<<<<<<<,:====:,3<<333344<=%@@@$$#$%==%%%%=;=%$%",
":=%$$%;*%%%==;*%%$$$@@$=<33<<<<<3<,===*=:33333<<<<33:*$$$%%%%%$%;<<<:=;:33433:;=%%%%%===:,,:=====%%%%==%%%*=:<4<=*=::=%@@@@#&=;==*=,343,;=*===$$%%==%*=;<44<:=*%@@@%%$@%;3,=%:::=%%@@$%;><<<334,=*,<3333<=%%%%%%===*$%=::==%%=:::<<<;**=::;=%#@%=*@@$%%%%*%%%=:,:==;=***=::=%&***=%%%%*==<3433<,<<33333<,:=%@%%%%*=**:<<<<:=;;=*=;;==;<<3<:=*%%%$$%%%=*%%==:<<,=%=::=$@@@@@@*=;=%*;<<<:=%%*==%%%%*=-==;<33<:;==;;;;::;:,<33<:====*%%%%%=:<444443<<<44443:;=*%%%*==*%%*:,:;;:::=%=;;*%$%%$$$$$@@@@@@$%%%$%%%%*=;=*=::;===;=%%%*==*%%%%*=;<<<<<<:=-<<333<<:=%%%%%*;:::=:3<=$@%%$@@@%*;:<<<:=*%*=*%@$%==**=:,<<:=%*==*$@@@@@$%=:;%*;<<<:=%%%**%%%%%====;<3<::=====;::,343<<<:==;,<=%%==*@@@$=:33<<33<<<<<<<,:==*%*:<<<<<2333,=$@@$$$@#$%&&%%*==%$@$",
";*%$%%===%$==*%%%$%%%@$=:<3<:<<<3<;*%**=:33333<<3333<;%$@@$*==%%=<<:==:<33444,:;======;,<3<:====*%%%%==***=:<33:=*::=%$@@@@@$=::====<443<:*===$@$%==%==;<344<:*@%*%%$@@%=<:%@%=::%$%=:,<<<<3334<=%:<333<<=%%%%%%===%@@%;::======;<33<;;:<3<:%@@*==@@$%=::,===<3<>=*=***=;::%%%%%%=%%%$%*=:<333<;:<43333<<<<,:=%@%==%$=,<<:%%%%$@$%%=:<<33<:=*%%%%%$$%==%=;<<2<:=%=:=%@@@+@@@%=::=%%:<<<:=%*==%%%%%%*==;<343<:==;==%*=*=;<33<=*=:=%$=::,<<<<34443<:<4444<:==%%%%===%%%%:::=======,<<:*%%=*%%%%@@%*%$$%*==;=%*;:<,==;====;;=%@@%===%%%%%==<<<<<<;*=<<333<<<<,:=%$*::=%%=<,=@@@%%**%%=:<<<<;==*==%@@$%==*=:<<<:=%%*==%@@@@@@$@*;:*%=:<3<:=*%==%%%%%%***=,33<,;;;:::::><<<<<3<;%*=;%$@%%%@@%=:<33<<33<<<<<<<<:=****:<<<<:<<33,=$@@$%%$$$%=*%%==*$@@$",
"*%$$%%=;=%$*=%%%%$$%$@%=,<<<;:<3<:=**===:33333<<33333,=%$@@%**%$*::===<333<<<,:=;::;;::<44<:===*=%%%%==**=:<33<===::=$$@@@@@@*:::===:<443:%=;=$@$%*=**==,344<=%%::=*%@@%;<=$@@%=:%$%:<32,::<<34<=$*:<333<;=*=***=;;%@@$;::===%**=,33<;:<443<=$@%%%@@$%:<<3:;=<32,=&*%**=:::%#$%%**%%%$%==,<33<,=;,433<:::<<<,=@@$*%$@%=<,=$@@@@@@$@%;<<33<;*%%%%%@@$*==%=:<3<>=*=::=$@@@@@@@%=::=%%=,<3<:%*==%%%%%***=-,3443,:=*%$$%%%%=:<<:%%%==%@*:<3<<::<334<:;,4443<:==%%**==*%$@$:,:===*===,33<=*=:::=*%$$%=*$$%;:<<;==,<<,=**%*==::=%@@%=;-%%%%*=;<<<<<,*%=<333<::<33<=%$=:=%@@%;:=@@$%*;:=%=:<<<<;==*==%@@$%==%=,3<,;%%%=;=%@@@@@@$@%=:=**=<34<:=*==%%$$%%%*==:<33<::;=====-;;:<33<:**==%$@$$@@@*:<<33<<3333<33<<:=*%%==:<<<:=:<<<<:%%%%%$@@@%*%%%%%%@@@@",
"@@@@%%%;*%%%%%%%%%$$%%*:<<<:==:<<:======;<<3333333333<<;%@@@@@@$%==*=:<44<,:::;*==;;::<444<:==***%%%%===*:<44<:==;,:=@@@@@@@@*:,:;=*;<444:%=;=$$$$%*=%*=:<4<:*%:3<;=*%$=::%@$@@%==%%;<3<=**:<33<;%$=:<<<<>;=**=%=::*@+@;,:*%%%%*=:<<:=;,<333:%@@@@@@%=,343<;*:<<:=&&%%*=,<:%@@%==%**%%%=:<333<:*;,33<:*%*=,<<=@@$@@@@@%::=@+@$@%%%@$=:<3<,=%$%**@@@$*==*=:<3<=*==::=$@@@@@@@%=::=%$=:<3<:%===*%$$*=====:3444<:%%$@$$%$$%:,;%$@$%*%@%:33:===:<33<:=:<443<:;=%*=*===%@@@;,<==*%%*=:<3<;=:33<:=%@@%*%$$*:<33:==<3<:=%%%%==:,=@++*::=****=;:<<<<,=$%;333<:==:<4<=%%:=%@$$$%::=%%==:<<=%=,<<,==**==$$$$%==%=,4<:=$%*;:=%+@@@@@@@%=,;=**:<4<:====%%$@%==*==:<333<:*%%%$%%%%=:3<<:====%%%$@$%%:3333333<<333333,=%*%%==;,<:=%=:<<<<;=*%#@@@@@%$$%$$$$@@@",
"XX+@$$$%%%%%%%%$$%%%==:<<<<:**=<:====*=%*:<3333333333<<<=%@@@@%%*====:<44,;===%$$%%%:<3443,;====*$#%%=;==:<44,===:<:=@@@@@@@@*:,,:=%=:343:*;:=$$$$%%=%%=;<4<=%=<3<:==::,:=@$*%@@*:;=;<<:=**=:<3<:=$%%==;::;=*%***:<:$@@:<<==*%%%*=:;====:<34:%@@@@@%=:<<<::=%=::;*%%%%*=<<:$@@*;=%%%%%=;<<3<<:=*;,33:=%%%%:<<=%%%@@$%@@=:=@+$%%=::=%$=,3<:=%$$%%@@$$===*=:2<:*%=:,::*@@@@@@@*;::;%$%;<<<:%*=:*%@@%=;===:<443:*%%*==*%@@%::*@%%%@%**=:<<=*===:<3<:=;:<<33<:=*****==%@@@=,<==%%%%=:<<:=:<443<;%@@@@@@%:<433,;=;<<:=%%$%%%:,=@XX=::%%%%*=:<<<::=%@*:33<:====<<<==;:%@$=%$@:<<:;==:<<,*%:<<:=====*$$$%%=;=;,4<;*%%=::;%@@@@@@@@%:,:=*%=<4<:====%%$$*==**=:<333<=%@@@@@$$%*:3<:*%=;:%%%===:,<3333333<<<33333,=$%%%*===::=%%=,<<<<<:*$$%$$@@@@$@@@@+XX",
"@@@@@@@$@@$@@@$%%$%=:::,,<,=%%=:=*==%%**=:<43333433<<<23,:;===*%%;;=%*:<3:=%$%%$$%$$=:<342:=*%==%@#$%=;==:<7<:==;:<:=%@@@+@%%=::::=**=<44<=::=%$$$%*=====<3,%=:33<:==:<3,=@$%%@@%:<,,<<:::;*:<33<:%@$%%%%==*%%%%%=:<=%%:<<:===*%%*=;:;==%=:<:%@@@@@%=:<:=%**%====&%%%%*;<3,%%*::=%%%%%*===;;====:<33:=%*==;<<;===@@@$@@%::*%==%;,<,=%$;<<:=*%*%%@@$%==;=;,2,;*=;:::;=%$@@@%*=;:::=%%=:<<:===;*%$$%==*%=;<33:=%=:,,;==%%=<=%@%%%@%=:;,<,;=;==:<3<<===;;::::=*%%%*=;=$@@;<<;=%%%**=::===::<<4:=@@@@@@%:33<;====;:=%%%%%*=:<:@+$::=@%%$%======*%@%:<33<;=:::<3<,<<:%$%*%$$:<<<:=;,<<<;%=,<;=====*$$$%*;:=:<<:=%%*=:;=%%%@@@@@$=;::;=%=:3<:====%%%%%==%%*;<<<<=%$%*=%%%@@%;<:=%$%*=%@%:,<<<::<<<<<3<:,<<334<:%=%%%%**;=%$%=:::::,:;**=*%%@@$$@@@@@++",
"%@@@@@@@@$$@@%*==$%=:::;:,:*%%*=*%%%%%*==:<333<<<<<<<<<<<<<,::*@%;=%$%=:<:%@@$%%=*%$%=<33<:=%%=*%$$%%;:==:34,===::,:=*%@@+@%===;::;**=:34<=;:;%$$@%=;====,<:%=<443<==:44<=%@%%@@%:<<,<<<<<:%;<43<:%%%=%%%===*%***=;,:==:<<,;==*%%%=:,;=*$%*:=%@@@@@%=::*$$%%*-==%%%%%*=:<<:*%=:;=%%%%%%=%%%%%%%=,333:*&;::::,;:;=@@@@@@%:,::;=%;<33:=@=:<;=*===%@@$%==;=:<<:=*;:::;==%%@@$%====::=%%*;<<,==;;*%%%%*==**=,<<=%%:<3<;=:;;:<=%@$%$@%=:;:,:::,==;<33<:=*****===%%%%%=;:*%$:<<:=*%***==-====*=:<,=%@@@@@*:<,=%%=;===%%%%%*=:<<:%%=::*@$%$%==%%%%%%$*:<33,==,<<<<<<<<=%$%%%$%:<3<;=:<<<3:=*::====;=*$$$$*;:=:,<;*%%==;=%%*%%@@@%%*=:::=*=:<<:==;=%%%%%*=%%*=:<<:%%%=::=*%%@%:<=%$%$$*%@$:<<<:==:<<<<<<=:<3334<:=*%%%%%*==%@%=;:;==;::==::=*%%%*%%%$@@@",
"=%@@%%%%%%%%%=:,:%====***:;%%%%%*%$%%%*=:<3333<<<<<<<<<::<33<:%@%=%%%%%=:=%@@%=:<<:%$%:34<;=**==%%%%%;:;=,43;==::::==**%@@@%=**=::;***=<3:%=:;%%$@%=:;=%=::=%:<444<==:34<,%@@$$$$*=;;:,44<;%=<4<:%%=::==:<<<:::::===::=;,<<;*%%%$%:,:=*%%$@*=%@@@@@%*;%$$%%*=::=%%@@%=:34<=*=;==*=%$$%%%%@$%=%%=<444:*=,3<::===*$@$$@+@=:<43,=%;<33<;$*;:=*=;;=%@@%%===*:<<;==;:::=%%%%%%%%*%%*:;=$%*=,<:=;::=%%%%=::;==,<<%%;443<==:<344:%@@$$$$%====:<33:=;<344:=%==%$%*%$%%%%%*::;=:<4,:==*%%%*=<:=%$%*::=%@@@@@%=:=@@%=::;%@@%*==;<3<:=:,;=%%%%%====%%=:=%%;<44,=*,44<,:::=%$$%%$%=<42<:=:<<<<,=%;:====;=*$$$%=;;=;,<=*%%===%$$%%%%%%%%%%=:::==;<3,==;=%%%%%=:;=*=:<,=%%:<43;===$=:,%@%%$@$%%$:<<:=%*=:<<<<:%=,3334<:*%%%%@%==*%@$%=;==**===:<<,=%%=::=*$@@%",
"=%@@$%=:::=*=,<<:=**%**=;:;%$%%%*%%%$@%%=,<333<:=<<<<,;==;,3<:%%*%@$%%$%::=%===;<3<:=%*<<,===::=%%%%%;:;=<3,==-:,:;=******==*%*=;;===*=,<:%=:;%%$@@%**%%*==%=:<::::==:34<,%@@@@@@$%====::=**:<3:=*;,<,==,<333<<33<:;==%*===%%@@$%=:,:=*%*%%%=*$@@@@%*;$$%%%&*:::%%%@%*=:;=%%*==:<<,::::,:===::=*;,33:=%===%%*==%@@@@X+@=,<<<:=%:<333,%%*==%%%%$@@@$%===*;<,=*=;:;=*%****==**%%%===*%%*:,:%==;*%%%%=:::==::;%=<444<==:<344:=$@@$$@%====*=;;==:33<,==;::==::::;;;::====%=:,:;=%$$%%;::===%%$*==@@@@+@%=%$@%%*=::=%$%%%*;,::======::,,,<<<<:==,<:==:<3<:%=;:-====*$$@@$$%=<33<;=;===:,:%*==*%%*%$@@@%=;=%=::*%%*==**%%*=====*%***=:;===;<:=*==*%%%%=::===:,:%*:<34<==:<:,<:%@@%$#%;:=:<<=====:<<<<:%%;<3343:*%%%*%%==*%+@%;::==%%**;,<<:==:<<<;%@@%",
"%@@@@*:<3<:=;<3<:=%%%%*=:,=$@@%%**%%%$%*=,<344:==,<<<:=%%=:<<:%==%@$%%$%;<::,:=;<44<:*%:,:===::=%$$%*::==<3:==::::===========**===;;=**:<,*=::%%@@@@%%%%*=%%=::====*=:33<<*$@@@@@%=::==**%*;<<<;==,<<<==:<333<:,<<<:=**===;=%%$%%=::;*%*%%%%==%@@@@%=;@$%%%%%;::*%%@$%====*%=;:<<<:,<<3<<:=:<<,==;<3<;%%%%%%=;;=@@@@X+$=,<<<:=%;:<<3<=%%=*%%%@@@@@$%=;==:<:===;==***========*%%====*%%;::%==;=%%%%%=;;=====%;3443<==:<344>=@@@@$$%;:;=%%***;,4<,==:<<:;;<<<<<,,<<:;=*%*==;=%%@%%=:<;====%$%==@@@@@@%=%@@%%**:::%%$%$%=;==%%*=;:<<<<<343<:==<<<:==:<<,=*%**==:;=%$@@$@%:<33<;===**=::%%%=*%%%$@@@@%=;=*;::%%%===%*%%====;==*=**===-===,:;=--*%%%$*===*=;:=$=,334<==:<<<<:%@@%%$%=:;:,:=;:;*=<33<<%%*,<343<;=*&*%%=:=%X+%:,;=*%%%%=:<<:=:<34<:*@@@",
"@++@@=<34<<==:<,;%%%$%*=,<;@@@%==*%%%%*=:<333<;==,<<<=%%*==,<:=:;%$$%$$%:<333:=;<444,=%=:;**===%$$$%=::==<<;==::;=*============**=;:=**;<<=;::%$@@@@%%%*=*%@;::====%=:3<<<=%@$$$%;,<<:=%%*;<<<,==:<<<<:==,<<<=**=:<,;==:::,:=*****;:=%%=%%%$::=@@++*;:$$%%%%%;::=%%%%*=;::;==:<<:==:<443<:=:<43<==,3<:=*%%%=:<<:%@+++@%;<<<<:=%=::<3<:%$**%%%@@@@@$%=;=;:<;==;;=====**=:====*%%%==;=%%=::===;=%%%$%%****=*%%:443<:==;<<<4>=@@@@$%=<<:;*%%*=:<4<:=:<44,::<4443<<<<<<:=%***==%$%%==:<;=**=%$$==%@$$@%=;%$$****;::=%$$@%%==*%%%=,<<:::<333<;=:<<<<;==<3<:=%%*;,<<:=%$$$@%:<<<<;*%====::*%%;=*%%@@$$$%=;==::=%%=;;=%%%*=::;::====***=;===,,:=;;*%$$$%%%%%%==%$:<3<4<==;<33<,=$@%%%$*==;:::,<:%=<333<=$@=:<<3<:=*%%%%*::%XX%:<;%%$$%%=:<:=*;,<33<;$@+",
"@@@@=:<<:::=%%::=%%%%%%=<<;@X@=:=*%%%%=:<<2<<:=*=,<3,=*;:::::;==*%$$$@$=,3333:=;<444<:%%==*%%%$@@@$%=::=:<<==;:;=======:::::===***=:;=%=,<:==:%%$$@@$%%%==%$=;==::=%%*;:<<,=$$$%;<3<<<:=;:<<<<:==,<<<3<,:<<<=%@@@%===;:<<3<:=*==*%===***%%%$::=@+++=::$%*%%*==;=%%%%%=:<<<<:====&%%%=,33<;:<343<;=;<33<:=%=;:,<<:%@@@%=<<:::=%@%*=:<<:%%*%$@%$$$@@$%===:<<=*=;;=***=**=:=::==*%%%*;=*%%:<;==;=%%%$%%****=%$=<4<:==%*=:::<<:=$$%%=,<,::===:<<34:=;<444<:=<34<:=%*=::===:<,,:=%%*==:::==**%$$=:*@@@@=::%$$%**%=;=*%%%&-:,,::=*=;:=%$%=<33:::<<<<<:==<3<<<:=;:<<<<,*%$@%=<<<:;*%=;::=::=%=:=*%%$$$$$%;==-<<;%%=:=*%%*==:,,::=====*==;;=*:<<::;=%$$$%%%***=*%%:<<<<:=*;<<3<,*$@$$$@@%=**==::=%=<3333:=@@%*===;=*%%%%%:,;++%,<:=*%%%%%=;===*==,<<:%@X",
"@@@$=:<;*%*%%===*%%%%%=:<<:%@%::=%%%%%*=======*=:<<<,==:<,:=====%@$@@@$=<3443:==:<<43,%%*=%%%%$$$%%%=::;<<,==;:;========:;:;*==***=::===,<:=;:*%$%@@$=%%==%%;;=;::;%%%%=:<<=$@$*,<<::<,==:333<:*=<<,:<<<<<<:%%@@+$=::<<<33<:=%%**=;;****%%%$==%@@++%==$%**%%*===*%%%%=:<33<<:;=%$@@$%=:<<<<<<<33:==<333,;=====:,<=$@@%:<,:==*%$%*==:<:%%*%%%%%$$$@$*==*:<,=*=;;=***=*%*=;;=%**%%%=;==%=:<:==:;*%%%%%%%%%=*%=<3:===%%*===:<<;$@%*:<,-==;==,<334;=:3433<<:<<<;=%@$%===;:<32<:=***==;:===**%$@;:=@+@@=:;%$%%%%%===%%%%%=:<<<<:===*%@@$%:<3<<<3<<<3:==<333<:=:,,;:<<=%$@%:3<:==%%=:::=::;==:==*%$$%%$%;===<,=**=;=*%%==%=;:;==*===*==:;==:<<;:;=%%%%%%%%%%==%*<3<:;=**=:,<<<=$@@$$@%=:=*%*==*=:<3444<;$+$%%%%==%$@$$%=::=%=<<<:==*%%%%=;;=*%%*::=%@+",
"@@@$=::%$$%%=;=*%%%%%*=:<<:%%=:;*%%%%%%*%$$%%%%=<<3<,==;::====:=%@@@@@%=<3<<<;*%=;:<3<=%%=%%%*%%%%%%=;;;<<:==;:;=*===*%=;=;=%===*==::;==:<:==:=%$%@@%=*%==*%===;::;%$%%%=<,=%@$=<<:=:<,==:333<:==:,;=<<333<:%%$@+%:<<33<33<:=%%%*=::====%%%$%$@@@@+@%%@%=%%%&=;:=%%%%*:<3333<<,=%@@@$%-<433<,,<4:==,<33<:==;=*=:<:%@@%:<,;*=%%%*===;:=**=%%%=%$@$@$===%:,:**=;==****%%%=:==%%**%%*===**:,:==::=%%%%%*%%%==%=:<====%%%===:<<;$@%=<<:===:=;<3334;=:32<<33<3<:%%$@@$%=:<<344<:=*%%*=;:==***%$@==%+X+@%==%%%%%%*===*%%%%=,3333<::=%@X@$%=<44443,::<:==<333<:*:<,==:<:*@$%:3<;==%%=;:;=;:;==;*===%@%%%%;===,:=%==;=*%*==%*====*%====*=;===:<<=;::*%%%%%%%%%==**<<,===%%==;::<;%$@$$$=:,:=*%%%*;,33444<;%%==%%*===*%**&=;::==:<<:==*%$$%=::==%$@%==%@@",
"@@@@==%@@%===::=%%@@%=:<<:=%===*==%%%%%*%$$%*%%=<23<<:*%%%%%=:<,=$@@$$%;<<:;:=%%===:<<=%*=$%%*%%%%$%;===<<:==;:=====*%%=:::=%*=***=;:;*%:<:*=;=%$%@$%=%%==*%=======%%====::;=%%=4,==,<:==:333<<=*==*=<<333<<;%%$%;<443<<333:=%*==:<<:==;%%%%@@@@@@++@@$%=%==*;,,=*%%%=:34333344<=%@@$&:<334<:;:4:==,<33,;=;,<;=:<<=$%%=,,:=;%@%=:<===%==*%%%=%%@@@$===%;::%%=:==**%%%%=;;==%%%*%%==;;*%=::**;:=%%%%%===%====;:=:::*%%=;:,<:=%$%:<,;;:<:=;<3334;=:4<::<444<=$$$@@%:<3444433:=*%%%=::==*%*%%@$$@+@@@@$$$%%%***=::=%%%%=:<3333<<<;%@@$%=<44443:==,=*=<333<:=:<<:=:<,=@*=:<::;:=%====;;;;===%%*=%$%%%%:=*=,:*%=;;=%%==%%*=::==%%%===*====:,,=:::*%%%%%*=*%===%:,;====*===-;2<:%$$%*:<<<:=%*=:,<3333<=*=,<:=:<3<<<<<,>-==:=*=:<:=%$$$%*::;%**%@@%*$@@",
"@@@@==%@$%%%*=:;*%@@$*=;==*%*==:,,::::,,:===::==;<<33,=%%%%=:<<<,=%$$%=,<:;==*%%====,,=**=%*==%%%%%%;;==,,:==::===**%%*=;;;=%%==%%*;:;*&:<,==:=%$%@%==*%===**=;===:%%=:;;:=;:;=:3,;=::;=:<333<<:=*%=:333333<<:;=:<<333<<33<:=*===:<<:===****%$@$@@@@@%%**%***:<,==%%%=:<3333334<:=**=:<3333<:=*=**=<333<:==:<:=:<<:=;==:<:;:%@%=::;=%%*=*%%%==%@@@$=;=%:,:%*;:=*%%***%%%**%%*==%%%=;=*%=::**;:=%%%%%==*%=======:::%$%;::<<:=;==<<:=:<<==:<3334:==:==,<3<3<,-=%$%=<<3333433:=*%*==:<;==***%@@@+@@@@@@@$%%%===:::=*%%%=,<3333<<3,;%%%=<<44443,=*===:<333<:==::;=:<<;*:;;,,,,<=%=;==:-=====**==%$$%%%:;=:<:*%=;:*%%=;==**===*%*=====;;==;,,==::*%%%%%==%%===%=;=;::=%%==;;2<:%$$%;<,:=====:<<<333<:==:43,=;,4333<<<<<:=*%%%===%@@@@%=::=%%%%@@%=%@@",
"@@@$==$@%%%%*=:;*%$@@%====*%=;:<<<,,<334<:=:<<,;*:<33<,:=%*=:::<<:%$$%:<<:===%%*::;=:;=*==%*==%%%%%%:;==,<:==::===*==*%*===*==;;%%*=;=*%:<<:;;=%$$$%==%%===*%*;::::%*;,:::=;,<,<3<:=====:<33333<:==:<33333333<<<<<33333333<:====;,<<;=*===*%%%%%$@%$$%**%%%**;,<==*%*=:<33333333<<:,<<33333<<;*%%=:<333<,==;:;=;<<<:,==:<<,:%@%====%$%===*%===*@@@$=;;=,<:%*;:=****==*%%****=:;%%%=;=*%=:,==;:=%%%%*===*==;=%%==;;%%%:,<<:;=:,,<<:=-::==:<3334,=*===<<3<33<<:;=:,<<<33343<:==*===,<===*%*=%@@+@@@$@@@%%%%*==:,,=**&%=,<3333333<<:::,3433443<:===:<<333<,;====;:<<,:<:;:<<<<=%:::::=======*===%$%%%:::,<:%%==;*%%=::=**===*=======::=*;,<:;::*%%%%*-=**===%*==;::=%%=:::3<:%%%*,<:======:333333<==:<43<;=:343<>:::,::*%%====*%$@%%=;;=$%%%$@%;=%@",
"@+@%:=$$%%%%*;:=*%%$$*=:::=%=:<<:;=:<444<-=:334<*=:433<<:==;===:<<=$@%;<3:;;=%%=,<:==**===*%%=%%%%%%:;==<<:==;;=*===;=%%*=%*=::;=**===%%:<4::;=%$$%===%%====$%=<<<<=*;<<,:=;<333<<:=**=;<3333333<,,<33333333343<<<334443333:==;::<<<;**===*%%%**%$%%&%%%%%%*%=:<:=====:<333333333344433443333:=%=:<33333<:=====:<33<<:==,<<>*%*==%*$@%====*==;=%@@$=;::<<:%*=:====**===;===*::=*%*=;=*%=,<:;;:=*%%*=::===-:=%%=====%%:<<<;=;<333<:=====:<33333<:===:23333333<<<<3<<333343<:=====:<<=%%*%*==%@@$$$%%%%%%%%%%=:<<;=*==-:<2233333333333333333<<<,::<3<<3<<<:=**=;:<<<<<:=;<43,=%:<<<,=%=;;==**==*%$%*:::<<:%%*===**==:====:=========::=*;<<,:::*%%%*=:====;==%%==;;=%%=,:,3:;=%%=3,;=;::=;:433343:*:<4<<<<=:<4<:*%%*;::=*=::,:;=*%%%%==*@%%%%@%::*@",
"XX@*:=@$%%%%*=:=%%%%%=:<<<<:====%$$%=,43<;:<334<:*=<33<<:==::;=:<3;%%==:<:::=%%==;==%%*===*==:=%%%%%::::3<:==;:========;:::;========;==*:<<::;=%$$*=:=======$$*<3<<=*;<<,;=:<33333<;==:<33<<<333<,,<33443433343<<<334443333<::<<<<<<,==;=======%$$%**%%%%%=*%=,<,::=*=:3333333443334433443333<:;:<<33333<<;=%*=:<33<<:=*:<3<=%*::==%@%===*%%=;=*$@$=;::<<:**=:;===%%%=:<:::====*==;==%%;:<:;=:=%%%=::;===;;=%%*==:=%*:<<<==:<<<3<,;=*=:,<334443<,:,<4433333334333<<<33343<:===;;:<,=*==*%%%%%%%$$*%%%%%*==**:<<:;====<<<<3333<<<3333333333<<<<<<33<<<<<<<:===:<<<<<<:==<33,=*:<3<;%$==;;===;;=%@$%;==;::*%******====:,:<,:%%*====::==;<3<:::*%%$=:;===::;=%%*====%%;<<<3:=::;:3>;=<<:=:<443343:%:<3::<4<<<3:*$@+@%%==;:<<<<=%%%%%%==*%%%%%@%::=@",
"XX+%=%@%%%%%%*:=%%%%%=:<<3<<:;=%@@@$%=,<<,<<<<43,*=<3<<<:;=:<,=;,3:;=:=:<<<<;%%=====%$=====*=;:=%%%*:::<4<:==;:=====**:<<:<,====**==;===:::===*%$$*;:;=====*%$*,<<,==;<<:=;,3333343<:,<33<:;:,<<:==:,34444333333<<333333333<<<344333<<::=*=;==*%%%%==*==*%*==:<<<<<:=;,33344334443343333333<<:;=;:<<<,:,<<,:;::<<<<<<<:%;,<<=%%,<,:%@%===%%%===%@@$=;;;:::===:;=%*%%%=::=:,:=%%%%%===%%=::===:=&%&=,:=**=::=%%=::<=*=,2<:==:<333<<::;:<<<<,<34<,:;:,<3<3333333333<<<<<3333:==:,<<<<;======**==%$$****=**====:<<<<<:::<<333333<<<3333<3333<<<:;=:,<<:::,<4<:::<<<<<<<,:=:<<:=*:<3<=%%===;===::=%$%%;===:;=%*==%%%=**;<<:,<:*%*====::;=:<<,:::*%%%=::=%*::;=%$%=;::%%:<3<<;;,<,,3:;=,,:=:<443444:%=;:=:<4444<;%@@XX$=::,<<<<<=%%%%%*;=*%%%%%@$**%@",
"+XX@$@@%**%%%*:;=$$$%*:<<33<<<:=%@@$$%:<333<<,33<*=<<<<<,;=:<<==:3<<,,;;,34<;%%;:;=*$$=====%*;:=%%%*::::<<:==;:=====**:<<;<<:=**%%*=;=*=::====*%$%*;:;=*===*%%%:<<,**;<<:=:<33333443<3343<;==;<:=%*=;<34443333333333333334444444444443<:**=;=*%**%%*=====%*;<<<<<<<<:,<33344433444333333333<<;==*-><:===:<<<<<<<<<<<<<:*=:<>=%%,33:%@%===*%%==%@@@$=-===;:;==;==%%*%%==;=:,:=%%%%%===%%=;====:=*%%=,:=*%=::=%%:,<<=%*,<<;*=,<333<<<<<<3<,:=:,<,;===;<<<3334433333<<<<<<334<::<<3<<<,:====;====*%%%*==;=%=::,<<<343<<<<<3333333333332<3443<<,;*%=;<:===:<43<<<<<<<<<<<:=:<<:=*:<<,=%%===;===::=%%%*:==*=;=%*==%%%*%*;<<::::=*=====::==:,::;;;*%%%;::=%%;:;=%%%=:,:%%:<3<:=:<3<<2,;=:;;;,3444444<=%%*=:<3444<;%@@+X%:<<<<<<<<=%$%%%=:;*%%%%%$@$@@@",
"@+XX@@@=%%*%*=<:=%$$%=:<<333333<=%@@%*:<444<:=<3<==<<<<<<:==;;==,3333<;=:34<:**:<,:=$@=;:=%%*::=%$%*::;=:::===:==%%===:>:=,,;=***%*;;=*=:;%==;%%$%%=:=%%===*%%%;<<:%%=::;=:<3333333333343<<:=*=*==:;=,<4443333333333333334433444444443<:===:%%%=;;=%%====**:3<<<<<<333333344433444333333333<:===**=;=%%%=,<<<<3<<<333<,=*=:-&%%:<3:%@%*===%%==%@@@$%===%=::**;;=***%%%=:;,,;=*%%%*=;=%%=;=*=::=%%%=::;===;;=%%:<3<=%%;,,==;<<333<<<<<<3<:%%*=:==*===:<33334433333<<<<<<3443333433334<:==::===****%%*===%*:<33<<343333<<<333333344433334432<;==;======:<3443333333<<<<,;::,=%*;<<,=$@*==:===:;*%%%*::=%;:=%*=:=***%%=:<::;=**====;:;==<,;==:;*%$$=::=**=;;=%%=<3<:%%:<<<=;,44<<2<:=*=;:<44444443:=%*:<333444<=%@$%:<<<<<<<<<=%%%*=;<:=*=*%%%$@++@",
"@@@@@@%*%%*%*=<:==%%%=:<<<<<<<3<:;*=;:<3333<,*===*;<3<<<<,;====:<43333:==<3<:**:33<=%$====*%=:=&#$%%=:===::;==:;=======:,<<,==**===:==*=>:*=;;%%%%%=;=**====%$%=<<:*%*::==,<33333333333433<<:=%=:,:==,<4333333333333333333333334433443<<::,,===;;;=*%==::;;:3<<<<<<333333343333444333333333<:;;>:==*%=:,,<33<33<<<333<<;==:=%@$:<3;%@%*===%%==%@@$$%=;=*=::==;:=*%*=%%=,<<,;=***===;=%=;:===::=*%%*=:=*=;:;=%%=<3<=%%=::=;:<<3333<<<<<3<<,:=====:,:=:<333333<<333<<<<<333443333333343,==;;*%%%====%%=;===,<33<<333333<<<<3<33333443333333<<===::=%%=,<<<43<<<33<<<<<<<:=::==*=,<,=$@%*=;=-:::=%%%*;::=::;%*=:====*%%:343:=%*===-::;==<,=*;:;%%%%*=:**=;;==%%=<43:**;<<:=;<43<34<,;=;:<344334444<,::<<<34444<<:;;:<<<<<<<<<<=*%&%=:<,=%%%%%%%$@$$",
"@@@$$%%%%%%%%=<>-=*%%=:<<<<<<<33<<::,<333<<<<==**=:333<<<<:;===,3433<3:;=,<<:**:34<=%%=====*=:=%#%%%=:;==:,:==:;=====*=:<44<======;:===:<,=;:=%%%%%*=======*$@%=<<=*%=:;==<333333343<<343333<=$=<<:=;<3433333444333333333333333433344333<<<3:;=;:;;==;:,<,,<<<<<<<<<33333343333344333333333<:=-:::=%%;<3<<33333<<<<<<3<:==;-%$$=<3;%@$%*==%%*=%@@$%%=;==;:,==;:;=%*=%%;<33<;*%%*=====%=::==;,;=*%%*=:=*=::==%%=<<:=%%=;;=:<<33333<<<333<<3<:=%=;:::=:<333333<<333<<<<3333344333333334<:;::=*%*=;;=*=;::::<3333333333333<<3<343<<<33223333<<;==:,;%%:<43<33<<33<<<<<<<<,;;:====:<,=$@%*=;=;::=*%%%%=::;:::**=;====***:344,=%*===;::==:<,;=::=%%%%%=:=*=:;==%%=<3<:*%=,,:=:<433343<::,<44333333334<<<3<<4444333<<<<<<<<<<<<<<====*=:<,=%%%*%%%%%%%",
"X@$%%%%$%%%%%*<<:==**=:<<33333333333<<<<<<<<3<;==:<33<<<<<<,::,<333<<3<:=:::=%*;<3<=%%**===%=:=%%%%%*::=;,<:==;:=%==*%;<444<======;;=*=:<,=::=$$$$%*=%====*%@@%=<,=*==;==:<333333333<<343333<:%:<3:::344333334444433333333333444444443333344<:=;;;=;:<<<33<<<<<<<<<<<<333333333334333333333<:=**::;%=:33<<<3333<<<<<<<<<;==;=%$=,<;%@@%%*=*%$*=%@$%$*=;=:,<:==:;==*%%=:433<:*%%%*==*%*=::==::=*%&%*=:===:;==*%=<<;%%*;;==:<<33333<<<3333334<;%;::===:<33333333333<<<<33333443333333343<,<<:====;;==:<33<<<32233343<333333<<343<<<<<2233333<:==:<,==:3333333333<33<<<<3<:=;;==*:<,=%$%%=:;===;=%%%%*;:;:,,==**==*%%==,344<:*=====:;==<<,::::=%%%%%=;===:;==%%=:3<=%%%::;;<3433343<<<2443333<<<<<<<<<<<3333333<<<<<<<<<<<<<<<:==;::<3,=%%==%%%%%%*",
"X@%*%%%%%%=%%=<<,::=%=:<<3333333<<33<<<<<<<<3<:;:,<33<<<<<<<<<33333<<3<:==::*%%=<3<=%%**=;=*=;=*%%%%*;:::,<<=*=:=*%***:<444<-==*====**=<<,=:;*$$$$*==%*===%%@$*;,:=*=====::,<<333333<<343333<;%,33<<<3<<<33334444433333333333444444443333333<:=====:<3<<33<<<<<<<<<<<<3333333333343333333<<3<:==,<;*;<33<<<33333<<<<:========%$*:<;%@@$%%=*%$==*@@$$%=;=:<3:=%=;=%%%%*:433<:=%%%%*=*%*:::=;::=%%&%*:===:::==**:<,=%%========:<333<<<3333334<:%:<,==;<333333333333<<<<33334443443333333<<<<<<:==;===:343<<<322<<343<33<<33<<34<<<<<<2233333<<,,<<<;=:3344333<3<<33<<,,,,:==;==*:<<=%%$%======;=%%$%%=:;:<<;=**==%%%*=,<44<:=**==;:==:<3<:::;*%%%%*==*=::;==%%=,<<=%%=::;:<44334443<34444333<::<<<<,:;,<33<<<3<<<<<<<<<<<<<<<,::<<<<3<:====%%*=***",
"@$%==*%=*%===:<<<<,:=;,<<3222<<<<<<<<<<<<<<<<<;==;:<<,:;:<<<<<33333<<3<,;=;:=%%*<3<=%%%*===%%*=*%%%%%=:::,<3:==;==%%*=:<444<==========:<<:=:=%$$%%===%*==*%%@%*:::**===**====:<3<,<<<<<<<<<3<;*<33<<<,::,<3334444444443333333444444443344433<:=====:<33<<<<<<<<<<<<33333333<<33334333333<::,<,::<<:=:<33<<<3333<<<<:=*%*%%%=*%%%:<;&$@$%%==&%===%$$$%=;=;,3<;%===*%%**:<33<;=*%%*****=,,:=;::=%%%%=:===::;=*%%:<,&&%*=*****==:<3<<<<3<<<<34<:*:<<:::<<,,<34333333<<<<33<<444344333333333333<<;=;;=;,4433<<<<<<<333<33<33<<<44<<<<<33333<<,<<<<<3<:=:333<<<<<<<,<<<:-==;======*;,<=*%@%*=====::=%%%%=:::<4,-====%%**=:<33<:=**==;;*=:33<:::=%%%%%==**=::==*%%=:<,=%*=:;:,<4333344333444443<:==;:<:=*=;,33<<<3<<<<<<<<<<<<<<<<<<<3<<<<<::=*%*==%%%",
"%%%====;=%%;,<<<<<<<,,<333<<<<<<<<<<<<<<<<<<<:=%**=::=%%=:<<<<33333333<<:==:=*%%:<<=%%%*==;*%%==%%%%%=:::,<4,=*=;=*%*=;,343:====*=*%=;,4<:=:=$@%*=:;=%===%%$@%=::=%%*=*%%=**%=:<,;:<<<<::::<,;=<3<,,:;;;:<3333344333443333333444444333333344<:=*%%%:<<<<<<<<<<<<<<<3333333<<<33334333333<===:,<,<<:=:<3<<,<<<3<,:,:=%*==*%%%%%$%=,:=%@$%%*==&==;=%$$$%==;,3<:=*===****;,3<:=**====%*=;<<:=::=*%%%=;:===:;==%%%:,:&&%%%%%*===%=:<:,<<<<,,<33<:=:<<<,::;=:<4433<333<<<<3<<<3333333333333333333<:=====,3333<<<<<<<33<<33<33<<34433<<333443<:;;:,<<3<:=:<<:::,<<<:;:<:=*====**===%=:<;=%@%*=;===;::=*%$*=::<4<:====*%***=,3<:;====:;=*:<43<::;=%%%%*;;=*=;;=*%%%=:,:%*====;:,,<<3344333344443<:=%%=:=%*==;<3<<<<<<<<<<<<<<<<<<<<<<<<<<<<<<<=%*==*%%%",
"===%***=*%%:<<<<<<<<3<<333<<<<333<<<<<<<<<<<<===;=*==%%*=:<<<<333333<<,::=====*%:<<=%%$%==;=%%;:=%%%%*=:::<4<:&=::=%*==:34<:=****==%*:34<::=%@%=;::==*==*%$@@%=:;*$%%*%*=:<,:%=:;=:<<<;%$%%::;=<3,=====;:33333344333443333333444444333333344<;%%%%$=,<<<<<<<<<<<<<33333333<<3333344333333:==*===,<:=:<3:=%=:<43:=:=%%:<<:=%%%%$$=::=%@@#%&==*==:;=%%#%*=;:<<<:**===***=:<<:*%%===*%%=<3<:=::=*%%%=::===;===%%%:::*%%%%%*::,:**=:;:<<<:==:,3<:=<<,;==**=:<443<<333<<<<3<<<3333333333333333333<;%%*%=:3333<<<<<<<333<33<<33344433<<<33443,;====;:<<:=:<;%$%=:<<,;=:=*=<3<:=%%**%%=,;=%%%%=;;;=;:,::=$%=::,32:=*==***%%=:3<:==**=:;==,444<::=*%%%*:::======*$%*=,,:%=====*===;,<44433344444<<<<;*%%%=::==,<<<<<<<<<<<<<<<<<<<<<<<<<<<<<<<<;==;=%$%=",
"===%**=::=;,<<<<<<<<333333<<<<<33<<<<<<<<22<<==::;=*%*;<<<<<<<33333<:===*%***&%%=:,=*%$%*====*;::=%%%%=;;:<3<>=*=;=**==:<4,=%%%**====::::::%%$==;:;=*===%%$@%*=:=%%%%%=:<<<2,===;=:33<:%@@$*===,<:===:==:34344344444444443333443344433334444<:=%%*%:<3<333<<<<<<<<34333443333334443344334,;====*:::=:,<=$@$=<<<:===%=<3<<,;*%%%$%;::*%@@%%===*=;=*==%$$*=;:;:,=**==*%*=;<:=%%%*==*%=;:::;;;=%%%*=:::=;;;==*%%=<:=%%%%*;:<<<<:===;:<<,;$$%=<<:=,,;=====;,344333333<<<<3<<33333334433334443333,=%%%%*:3333<<<<<<<433333<3444444333<<<3443<;======:,:;;;%$@$=,<<,:=:==,3442,:=*%%%=::=*%%%*==:==;::::=%%=;:::::===*%%%%=:<,:==*==;==:,<<<,:;*%%%*=:::======%@%=;,:==*==***=====:<4333344443<<33<;%$=::=*=<<<<<<<<<<<<<<<<<<<<<<<<<<<<<<<<<,::,:=*==",
"=====;:<<,<<<<<<<<<<33333<<<<<<<3<<<<<<<<<<<<===::;*%=:433<<333<33<:=%***%%%%%%%=:>-=%$%%===;=;::==%%%%=;::::::====**==;:<:=%%%**===::==;;=%%*::====*==%%$@$%==:=%%%*=:<33<<,;==:=:<<<,=$@@%*==::====:==:<34444444444444444444433444333344443<:===:,<33333<<<<<<<33433344333344444334433<:=======::=-::%@X$;<<<:==**:<<<<<,;*%%$%=::=%@@$%*==*=====:%$@%*==*=:;=%==***==:;=%%%*=*%%=;===;:=%%*===::::;:===%%%=,;*%%%*=,<3<<<:===;,<<<:$@@%:::;::======;,233323333<<<<333333333344333334433<<,=%%%$=:23333<<33<<332<33334444443333<<3443,=======:::==*$@$%:<<<:;=:;=<<3443<:=%%%*=:=*%%%%*=:;==;;::;%%*===*;:===*%%%%=;::=========:::=::;*%%*===::;=;;==%%@%=:,;***%**=;:::==;,3<<34443<<33333:*%:<<==:<33333<<<<<<<<<<<<<<<<<<<<<<<<<<<<<<<<:==;",
"==;:,<33333<<<<<<3<<33333<<<<<<<3333<<<<<<<<<;*%*::*%=<33<<<333<<<<=%%=;;*%%%%%%*;>;=*$$%*==:==;:====%%%===*=:,;*%*=====:,;=*******=:=%%==%@%=:=======*%$@$%%=;==*%*=:3433:::;=;:==:<<,:*$@%%%*===;==*=-=:<3444333444444433334444443333334443<<;=:33333333<<<<<<<<333333433334443333334<:=*%%*====;==*=%@+*:3<<:====::::<<<<=%%%%%::;*%@@%*===*====:*$@@%**%*==*%%**=======%**==%%$==%%=;;*%%=:;=::::::==*%%=::=*%%%=,<3<::<:====:<<<,=@@%*===:;=======:,<22<<333<<<<333<<<3333443<223333<<<<:=*%%;<<<333<<<<<<<3<<3333443443<<3333344<:=*=====;;=*%%%$%=:<<,;=;::=,,<3344<:=%%*=:==*%%%%=;;====:::*%%*=*%==***=%%**==;=====**%*=:==*=;=$@%::==;::=:;==%$%*;::=%***%=:<<<<,==:<<<343<<<<33333:=*,<<::<33333322<<<<<<<<<<<<<<<<<<<<<<<<<<<<<<<;==",
"===:<<333<<<<<<<<3<<33333<<<<<<<3333<<<3<:;:<,;;:<:==:<3<<333333<<:==:<<<<:*%*%%%=::=*$@%%======;==;:=%$%*=*====*%%*===========***%%**%=*%%@$*==%%%*=*%$@$%*==;=*%*=:<343<==;=:,<=%%*%%%%%%=====*%%***=-=:<3444444444444333334444443333334443<<:;:3333333<<<<<<<<<<33333433334443333334<:=%%%%%%%*=%%%=*%@%;:,:==;=%====,<<<,;**%%*;:=*%@@%****%*===*%@@$%====%%*%*=====%%%%==*%%%$%**====%%%:::=::::;-==%%%=:;=*%*=:<<<<==::=====::::=%%==*%===%=%%%%%*:<4<<3333<<<<333<<<3333443<223333<<<<<:==;<<<<333<<<<<<<3<<3333443443<<3333343<;===%*=%===%=;=%%**=*%%=,<:=:::<3443<:=*%*=;;=*%%%%====*=::;*%%%%====****%%**========*%%%%===;;=*%%*::==::;;===%%$%=;::=%*%%=:<<<<3<==;<<<<<<<<<33333<:==,<3<<<<<<<3322<<<<<<<<<<<<<<<<<<<<<<<<<<<<<<<;=*",
"=*=:<<<<3<<<<<<<233333<<<<<<<<<<2333<<<3<:==:,::<<,;=:<3<<<<<34<<,:=;<3333<:=%%%%=;:;=%@$%===;=====;:=%%%%=====%%%%======****==***%%*=*%%$@@%%=*%%%*%%@@@%%====%%*=:<333<<=*==:<<=%%*==*%%%====*%%%%%==;;:<34333444444333333344334433<<3333333<:=:3333333<<<<<<<<<<33333333334444433334<,===*%%%%%*%&==%$@%*==***:;*%***:<33<,:=%%%=;:=%$@$%%**%%*==%%$@$%%===*===**====%%%%*==***%%==;===%%*;::=;;;;-==*%%=::=**=;:<<3<<====;::=%%*==%%%*==***%%**%%**=:<3<<<3333<333333333333343<33333<<<<<<<;=,<3<<3333<<<<333333333443443<33333343<;===%**%======*%%*===*%*:<,===:<34443<:=%%=;:-==%%%%*==*==;==%$$%%=====*****%*=====**%%*%%=;:;=*%%%*;:;=;=-:===%%%*=::=****=:<3<<,<<;=;<<<:::<<<<,:,<<:==<<<<<,:;:,33<<<<<<<<<<<<<<<<<<<<<<<<<<<<<<<<<;*%",
"%%%:<<<<3<<<<222233<<<<<<<<<<<<<<233<<<3<,===::::<<:=:<3<:::<<4<:;==:<<<<33<:=****=::=*%$%%*========;=%%%%*;:;=****===**=*%%%*****=*==%$$@@$%%%**%%%$@@@$*====*%%=,<<<<<<<=**=><:=*=:::=$@$%===*%**%%==;:<<<3333343333333333344333433<<<<333<<<:=;223333<<<<<<<<233333333333333444333343<:====%%%%%%==%$@$%%%%%%%::;%**=:<333<<;*%%%=::=%@@@%%*%%**%%%%%$$$%=;=====***=**%%%%*====*==:;=**%%*=;;;==;===%%%=::=**=:,<<<33<;=*=:,:=%%%%*%%$%===%%%%**====:<<33<<444333343333333333333333<<<<<<<<<;=,<222<<33<<<3333343333444333<33334443<:;==*%%%**%===%%%*::::===<<:==:<3444443:*%*=::;==%$$$%=*=====*%$$%%*======*%%%%===**&*====;::=%%%%%==;========&%%*=::;**===:<33<:-;,;=:<<,==:<<,:*%=:<:==<<,;;;===:33<<<<<<<<<<<<<<<<<<<<<<<<<<<<<<<<<=%%",
"%$%:<3<<33<<<222233<<<<<<<<<<<<<<233<<<33<:====%*,,:=:<<=%$%:<4<:**=:,;;,<33<:===*%=::=%%$%%==========%$$$%%=::;===%*=%*==*%%%%*;;;;=%@@%%$%%%%==%$@++@@%=;:=*%%=:<<<<<<<<<::,,:*=:<43:%@@$***=%%==*%*=:<<<33333343333333333344333433<<<<333<<<:=:223333<<<<<<<<2333333333333334443333443<:==*%%%%%%%$@@@@=::::=%=,<:==:<<333<<:=%%%%=::=%@@@%%%==*%%%%%&%%$%%;;;;=*%%%**%%%$%*;:;=;;;=*%*%%===;:;;;==*%%=::;=**=:<<<<333:==:<:=*=::,,=%@@@*=*%%&**===;,<333<34443333433333333333<<3<<<<<<<<33,;=:<222<<333333333343333444333<<33344433<:==%%%==*%%**%%$%;<3<:=*:<<::,<4444433,;*===;::=*%$@@%*===*==*=*%@$%;;::=%%%*===*%*%*;::;:;=%%%%%%*========*%$%*=::==**=:,<<33<:==:==:<<:%=:<<:=+X@%===;<,=**===;,43<<<<<<<<<<<<<<<<<<<<<<<<<<<<<<<<,*%%",
"%%=:<3<<33333333333<<<333<333<<<<<33<<<<<:;====**:::=:,:%@+%:<<<:*===:==:<<<<<:;*%%%=::=%%$%%*======*=*%%%%%%=;:;==*%%%%==*%%%*=::;=%%%*==%%%%%%%@+XX@$*=;;=***=:<<<<<<<<<<<<<:-%;,34<;@%=:,:=%%%*==*==:<3333433343333444443344333<<<<<<3333<<<:;:<<<333<<<<<<<<2333333344333333343333344<:***%%%%@$%===%$=:<<<:==:<<,:<<<33333,:==%%%=::=%$@@@$%**%%%$%*==%%$%*=::=%%%***%%%%=::;;=======**===;:;===*%%=;:==*==;,<3<<33<<,:<<:*=:<<<,*%%*==*%%%****%=:<333333444333343<<<<<333333<<<<3<<<<<<3,;=,<<22<<<<<33333333333344<333<333343333<:;***===%%*:,:=*%=:3<<:==:<<<<33444433<<:====;:::=%@@@@%*========%%%*=;:=*%$*===*%%*=::;==**%===%%===;;===*%$%*=::=*%**=:<<<33<:====:<<<:*=,<<<=$++@%*==::=====*=,33<<<<<<<<<<<<<<<<<<<<<<<<<<<<333<<=%%",
"==:<<<333<<<<<3333<<33333<333333<<333<<<,==*%****=;:*=-*@++%:<<,:*====*=:<<<33<:=%*%*=:;=%%$$%%%*===**%%*=*%%%*==;:=%%%%*=*%$%=::;=%%%*;;=%%%%$@@+XX+@*=;=====:::::,<<<<<<33<<:=*:<<<,=$=:<<:=%$%%%====:<3<<34433333333343333343<<:::<<3343333<:::<<<333<<<<<,,<23333333443333333433333443:==**%%@@@*:<<:**:334<:==<<<<33333<<3<<::;=%*=::=*@@@@@$%$%$$%*=;=%%$%%;:;%%%%%%%%%=:::==*%*=;:==*===;==****==;;====:::,<<<<<<<<<<3,==:<44<:%*=::;=%$%%*==%=,3333333333333343<<<<<3<<<3<<<<<3<<<<<<3,;;,<<33<<<<<<<<<<333333343<33333333433333,;*====%%%=:<<<:*=:<<<,==:<34333333<<,<<,::;==;::;*@@@@@$%**===;:=%%%*==;=%%*==*%%%=::;=*%%*=;;=%%======*%%%%*=::=*%%==;<<<<332<:==;,<<<:==:,,,;%@+@$%*=;===**=*=:<<3<<3<<<<<<<<<<<<<<<<<<<<<<<<333<<:=%",
"=:<3<<33<<<<<<<<<<<<<<333<<333333333333<,=%%%%%%=*==%%%&$@@=<<<:==:;=%%=:<<334<,=*=%%%=::=*%@$%%%===%%%$*;:=%$$%*=<:=$$%%%%%%*;:;%%%%==:==%%%%+XX+XX@%=====;::,:==%=:<<<<<33<<:=*:<<::;*,<<,;=%%$$%===:<33<,<3433333333343333343<;*%=:<3333333<,::33333<<<<<:=;:<<3333333333333333333<3333<:===%$@+$=<34<:*;<343<==:<3333333<<<<<,<<,;=**===$@++++@@@@@%%=;=**%$%=;;=%%$$%%%*=::=*%%*=:::=**====%%$$%=:::===;:,:::::,<<<<<<<<:==<33<,;%:<<<:=$@@%*===:<343<23333333<3433<<<33<<<<<<<<<<<<<<<<3,;=<<<333<<<<<::<<<3333334333333333343<<<3,;====%%%%=:<<4<:=;::<<==;<3433332<<:===:<<<:;====*$@@@@@@%*====:===%%%%;;=%==%%%%==:;=%$%*=::;=%*===*%%%$$%=:::=%%*=;::<<<34434<,:<<<<<,=%==;===@@$%$%*=*%=%%%===:<333<<<<<<<<<<<<<<<<<<<<<<<<<<<<<<<:=",
"=:<3<<33<<<<<<<<<<<<<<333<<3333333333333<:=*&%%%$$%*%%==%@@*=::=*=,<,;;:<<33343<:::==%%=;;;=%$@@@$%%%%%%%=;;*%%$$%=:=%$$%%%%*=;=%%%======%%$@@@$$@@@@@$%%=:<<<:%%@@%=:<<<<33<<:=%;::;:::<<:;==%%%%==::<<3<:=,<33334334444444334<:====:,3333333<,::3333<<<<<>====:<333<<33333333333333<<<33<<:;=%%@@@*;:,<<=:,:<<<==:<3433322<<<:=*=:<<,:;%$@@@@$%%**%@@%%*=****%%%*==%%%%$%%=::=%%%===::;=*%%%%%$@@+$%*==;:,<<:=%%%%=;<<<<<4<:==<<::::=<<:==&$@@%*=;:<<3<<<2443333<<<433<<<33<<<:==-,<<<<<<<<<,::<<<34433<<;===,<3333334333334433343,,<4<<:;==%%%$*=;:<<<:::=::==:<343333<:=%%$$%;<3<:=%%%$$$$%%%%%%%**======*%%%=;==*%%%%=;=*%%%===:;==%%*%%%%%$$$*=:====::,:::<<<333<443<<<<<<<:%$$%%%%@@%==*%*%%%%%*===:<<33<<<<<<<<<<<<<<<<<<<<<<<<<<<<<<<:=",
"%;<<<<<<<<<<<<<<<<<<<<<33333333333333333<,====%%$$%%%*=*$@@%%**%%=<<<<<<<<333<<::::,:;======*@@@@@$%%%%%%*=;*%*%$$%==*%%%%%*===%%%*=*%%%%$$@$%%%%%%$%%%$$%;<<:=@@@@@%*:<<<33<<,;%===:,<<<:===*%%%*=:<<<<<:=*:<3<<34333434443<<3<;=::=;,33333333<::3333<<<<<:==;:;,<33<<<3333334333333<::<<33<,:=%%$$%==;:<:,,==;:%=:<3333333<:=%$@@%;<<<:%@@$$%*=====%@@%%*%%%**%%%*=%%%%%%*===****===::==*****%%$@@$%%%=:<3<,*$@$@@$%:<<<<4<:==::=::::,:==%%%$$%=::<<<<,::2343333<<<333333333<:===*:<<<<<<<<<,::<<<34433<:====;,<33444433444444443<;;:343<,:;=*%%&=;;:<3<<,===*=:<33444<,=%$$@@@%:33:*%%%%%****==*%%%%%%%*===**%%====*%**===%%%%===;==*%%%*%%%%%$$%*==::<<<<===;;::<<<34433333<,;%%%==%$@@@%==%%%%%$%===:,<<33<<<<<32<<<<<<<<<<<33<<<<<<<<<<<:;",
"%;<<<<<<<<<<<<<<<333<<<33333333333333333<<:===*%%$$%**%@@@@%%%%%%*:<333333<<<:====:<<<:===*%%@@@@%%%%%$$%%*=*%*%%%$%**%**%*===%%===*%%%%@@@$%====*=====%@%=:,=%@@@@@@%=:<<33<<<:=**=<<33<:===*%**==,<3<<<=%%;<<<<3333333333<,,<:=:,:=;,33333333<::333<<<<<<:=;:,=:<<<<<<<<<<3443<3<<<,;=:<3443<:*%%%%*;==,<<<:=%%%=<<3333433:*@@@@@@%:<<=%$%======;::=%@@%*%%%%%*%%%*%%*%%*===**======:;=*%=;;;==*%*%%%%%;<3<=$@@$@@@%:<3<<33,=***=:<<<:===%%%%%*,<<<3<<:=:<33333<<<<33333<33<,;===%;,33<<3<<<,;:<<<33433<:=;;==:<3334444444444334<,=*=<3443<:==*%%=:=:,443<:=*=:<333444<:*%$$$$$%=,<=%%%=;;;=======%$#$%%****==%%%====**=*%%%==**=====%%%%=====%%%$%%=<344<:%%%%%%=:<3<4433333<:*%=:,:=@@+@@%=%%%%%$%==;,<<<433<<<<33<<<<<<<<33333<<<<<<<<<<<:;",
"%:<<<<<<<<<<<<<<<333<<<33<<333<<<333333333,=%*%%*%$$%@@@@@@;,<,:=%=<333333<:=%@+@$%:<33<:=$@@@$%%==;;*$@@%%=%%%%*=%%%%%**%===%%*:=%%%%%%@@@%=====;:,<<:*@@%==%$%%%%@@$%;<<<3<<<<:::<<<<3,;*==%%%*==:<33<:*%%=,<<<33333333<<;=====:::=:<3333333<<>,333<<<<<<:==,<::::;:<<<<<<<33<<3<<<:=*=:<443<:%%**%%=*=:<3<<:=%=,<<333343<=$@@@%@@$*::%$=,<,:========%$@%%%%%%%%%%%%%%%%%=*=========;=%*==;;=====::,:=%%=:;%@@%%$@$$=:3<<33<,===:<<<<;===**=**=<4333<:===<333333<<<33333<<<<:=:<:*:,33<333<<,::<<344433<:=;::=;:<,<44444444443343:*%*:<443<:=*%%%====:433<<,::<<333444<=%%%%*==%*=;%@$*:<3<:::=====*$#%=*=%%===%%===**%%***===*====*%$%%=========%%%*:444:=@@@@@@$;<3<3433333:=%=,34,*X@$%==%%%%=*%%%=:<<<3433<<<<33<<<<<<<<33333<<<<<<<<<<<,:",
"%;<3<<<<<<<<<<<<<333<<<33<<<<3<<<<<<333<<3<:*=*%%$@@@%=:=%@=,3<<,==:<<<<<<<;%@@+@@$=:<4<:%$%%=========%$@$%%%%*%*=%=*%%%*%%**%===*%%*%%@@%==;::,<<<<<:*%@@@%%%%=%%@@$*;:<<33<<<<<<<<<<<<:;===%%%===:<44<;%$%=,333333334332:=*=*%%*=;,<<333333<<:::<<3<<<<<<<,:::======:<33<<333<<3<<<:*%%=<333<=*%*%%%%=;,3433<,:,<33333343<=@@@$%%%%%=%@@%=;:<<,:;;;;==%$@$%****%*=*%%%%%%%==;======**%%==-;::::,<<<:%%@@%=%%%%*%$@@%=:333333<<,<<<<<<:=*%%%=***,<3<<:=%%=,<3<333<<<<<33<:;=;==:::=:<33333333<::<3344433<<;:::*====;<444344333444<:*%%=<344,===&%%*===:<<<<3<<<<33333443,=%%%%*==*%*%$$%=;<<<<<<,:::;=%$%*=***===%%=***%%*==*====***%%%==;::;;:::,:;=%=:4<;%@$$$@@@=:<<<34432<;%%:<<3:%+%;,<:*$@$%%***=:<<<343333<<<<<<<<<<<3333<<,,<<<<<<<<<,:",
"%;<3<<<<<<<<,::,<<<<<<<33<<<<3<<<<<<<<<<<<<:===*%@@+@=<3<:%*:334<:*;,<<<<<:=#@@@@@@%=<3:=%%=::::;;=====%%%$%%&*%***==%%%%%%%%**=%%&%**$@%=:,<<<3333<:*%@@@@$@%%=%@@$=:,<<<33<<<<<<<<<<<<:;:===%%=;=;,33,=$@%=<343333334332:;;:=%%%*=<<3<<33<<<:===:<<<<<<<<<<<:==%%**=:<33<<<33<<3<<<;%$$*:33<<===%%$$%=;:344443<<333333333<=%@@@%*=*%%$@@@%%;<3<<,,::::;*%%%=*==*==%%%%%%%%==;=====*%%*=:::::,,<33<,=@@@@@%%$%=*%$@$=:<333334443343<<<:==%%%%**=:<3<,;%$%=:<3<<3<<<<<<33<:=%**=;:::<<333333<<,::<<3444333<,:;=%%%%%=:343333333444<:%$$*:343,===*%*==;;:<<3<44433333334443,;=%$%==%%%%%%%%*;<34443<<<,:=%$%==*%%==%@%*%%%%*==%*===%%%%%=::::::,,<23<:=%%=<:=%%%%%@@@%;,<<3443<<=%%<<,<:%$:<<<:=@@@$%*==;:<<<<33333<<<<<<33333333<<:;::<<33<<<<,:",
"*:<<<<<<<<<<;&%=:<<<<<<<<<<33<<<<<<<<<<<<33<:==*%@++%=,<3<:=:<<3<:==:<<<<:=%$@@$%%%$*;,%@@=:<3<<<:::::::=%$$%%%=*%*==%%%%%%$@%%%%%%**%%=:<34444433<:*%@@@%%@@@$%@@$=,<<<<<<<<<<<<<<<<<<,;;:=:==%=::;:<<:%@@%=,3433<<<333<<<<<<:==:==:<<<<3<<<,;*%%=,<<<<<<<<<:=*=%%=;::<3<<<<<333433<;%@@%:33<:=:=%%%%%==;<34344<<<333333333<:%@XX$*=%@@@@@@@%=<3433333<<,;*%%*====%%%%%%%%%=======&%$%:<3<<<333343<=%@+@@@@@$%%%@@@%,<332<3333333<<<<:;==%%%%*===,33,=$@%*,<3333<<<<<<<3,;==%%%%=:<<<<3333<<,;==;,<44433344:=$%%%=:::333433333444<:%@@$:34<:=:=**===::::34343343<333344444<,=%$%%%$$%%%%%%%:<334434433<:*%*=*%%%*%@%%*%%%%=======*%$*;,<<<<<334443:*%%@%==*%==%%@@@@=:<<<443<<=%%,:;:;==<<:==%@@@@%*=;,<<<::<<333<<<<3334333333<:*%=;<<<<<<<<,:",
"*:<<<<<<<<<,-%===:<<<<<<<<<33<<<<<<<<<:::333<:;=%$@@@%=;:,<;::=:,:%=:<<<<,=%@@@@%%*%%*=$@@%*;<333<<<<<<<<:=$$%*%%%==*%%$$%%%%%%%%*==%%=<<3343<<<<3<=%%$$%%%@@@@@@@%:<<<<<<<<<<<<<<<<<<<,;==**===:<,::<<:%@@%=<3433<<<343<<<<<<:;:<:;,<3333<<<<:*%%=,<<<<<<<<3:;;;==,<,,<3<<<<<333433<:*$@%:34<::,:%****===,<4333<<<3333333333<,=@+@@$@@@%%$@@@%,33<:<<3<<<<:*%*===*%%%%$$@@%%======*%$=,33<<:;=;,3<:%@@+$%%@@@%$$$$%=<<<3<<33333333<<<:;==***%=::=:<3,=$@%=<<3333<<<<<<33<:::=*%*=;<<<<3333<<:=%%=:<4444333<;===*=,<<<4434<3333443<:%@@@;<4,::<:======;::<333334<<3333443344<;%$$$$$$%==*%%%=,3<<,<<3334<:=*===%%%%%%=*%%%%&===*==%%*,<4444<<44442:*%$@$%%%%%*%%%@@@*:<43344443;%$==*;:::<:===%$%%%=::<<<<:==<<33<<<<<3334333333:=*===:<<<<<<<<,",
"=:<<<<<<<<3<;*;::;,<<<<<<<<<<<<<<<<<<<:=;<<33<,:=%$$@%===:<:,:====%=,<<<<<:*%@@@$%%%%%%@@@@%*:<443<<<<<<3<:*%%***%=%%%%$$%%%*%%%*=;;%=:3444<,:=;:<:=@$@$%%%$@@$%%%=<<<3<<<<<2<<3<<<3<<<,;;;===:,<3<:;<<:%@@%:<4333<<<343<<::::;=:<,:<3<<<<<<<<;%$%=,<<<333<<3::::=;<>::<<3<<<33334333,=$@%:33>;:<<;;======:<43333<<33333333333<:%@@@@@@$%%%@@@%:<,;*=:<333<,=%*=:;=%%%%%@@@%%*====;*%$=:,<,:=%%*;<<;@@@@$%%@@%%%%*=;:<<<3<<33333333<<<:=======:,<=:<4,=$@%=<<333<<<<33333<:,<:==;=;<<<<33333<:=%%=:34444443<;=::==<<<<4444<<444333<:%@@@;<4:::<,:::==::::<333334<<33334433343<;=*%%%%%*=%%%$%:3,:=;:<3333<===:;=%%*==*%%%%%&====--**;<4444<::<<43<=%@@@%%%%%%%%$$@@%:<343344444:=$%%*:<<<:=*=*%%%%*=,<<<<<=%=:<<<<<<<<33333<<<<<:==:;=:<<<<<<<<<",
";:<3<<<<<<3<:=:,:=:,:,<<<<<<<<<<<<<<<<;*=:<3333<=%%%%%===:,<<<:=%%=:<<<<<<<:=%@@@@$$@@@%$@@@$%:34<:::,<343<:%%*==**%%%%%$$%*=%%%=:,:*=<<<<3<;%%%=<:%@@@@@@%*%%%==:<<<33<<<<333333333<<<,::,::,<333<:;,<,%@@*<<3333<<3333<,======;<<<3<<:::<<<,=@@%=:<<<<<<<<<<:::==:==;,<3<<<33334334<;%@%:4<:;<34<<:=;:;=:<43333<<333333333333<;*%%%$%%%%$@@@$=,;%$%*:<<,:::=%;,:=*%%%%@@@%%*=*=::*$@**=::=$%%%=<<=$@@@@%%%%%===:,<<<<<3<<333333<<<<<;====:::,<<;;,4,=@@%:33333<<<<33333,::,::;::;<<<<33333<:=%%=,34444333<::<<==<::<344433444333<:=@+@:<3::<3<<<,::<,::<3333333<33<344333444<,;=**=*%%%%%@%=<;=*=;:<<<<<:==<<:=%=:=*%%%%====;::=*=:<<34<;*==:4<:%@@@$%*%$$$@@$@$&;<<333333444<:*%*:<<<<:=%=%%%%%==,<<<<:%%%:<<<<<<<<3333<<::::==::;*:<<<<<<<<<",
";:<3<<<<<<3<,::::===*=,<<<<<<<<<<<<<<<=%%=:<33<>*%%%%%%==:<3333:==:<<<<<<<<<:=%@@@@$@@@%%$@@@%:<3:=%*=:<<:::=%=,:;***%*%$@%*=%%=<<<==::==:<:=*===,:%@@@@@@%:*$$*;,<<<<<<<<<3333333333<<<<342<,::,<3:;:<<=%=:333333<<3333<:====%%=<333<;%%*;<<;%@@@$%;<<,::<<<<<<:=%*===:<3<<<333343343,=@%:4<::34433<<,<<::<4344333333333333333<<<:;*%==%@@@@@@%::==%%=,:*%%==%=,<:=%**%@@$=*%%=:<:%@@%%%===*====::*@@@@@@*;=%=:<343<<<333<333333<<<<<;:,,:<<<<<<:::2,=X@=<44333<<<<3333<;=*====:::<<<<3333<,=%$$%:344<,:<34<<<<=*==;:<34443444433<<:%@$:3<;:<3<<<<44444333<3333<<33<<443334443,=%%=,=%@$%%@%=<:;;:::<:==:::*<33:**;=*$%*=====,<<=*====:<;====:3<:%@@$%%%%$%%$$%%=:<<<<<<<334443<,,<<<<<<:=*%%$@%%%=:<<<,=$$%;<<<<33<<3333<:*%%%%%=:::<<<<<<<<<<",
"==:<<233<<3<<<:;=%%%%*:<<<<33<<33<<<<<=%@%;,33<:%%%%%%%==:<<333<<<<<<<<<<<<<<<:=%%%%$@@%$@@@@$=<3;=*==;::=*=*%%:<<=%%*=%$@%*=%%=<<:====%*=<:;====;=%@@$%%*;<=$@@*:<<<<<<<<<<<<3333442<<33343,=====,::;<<;=:<4443333<3333<,=;:,;==,<43:=*==;::=@@@@@$=,:=*==:<<<<:=*=::=:<3<<<33<<33443<:%*:3:::4<,::,<<33<<333443333<<<33333333<<<;%$%;:=@@@++@$=======:;*%%*;**=:=*%%%%@@%=%%%=::=@@@%%=::====*&=*%@@+@@%;:*@%=:<33<<<33333333433<<2<<<<<<<:;:,<,::<<=@*:34443<<<<<333<<;===*%=,<<<<<:::<3,=%$@$%;<4<:==:<433<:*%=::::<444444444443<:*%<3<;:<,:;;:<4444443<<<<3<333<<33334444<:%%%=<,:==%%$%*===;:::<:===;;=:,<:*%*=*%%===**=,<:%%*=*=:<:====;,:=$@@$%$%=%%*=;::,<<<33<<33334443<33343<<:==*%%$%**=:<3<:%@@%;<<<<33<<3333<;===%$%%=;<<<<<<<<<,:",
"%%=:<2<<<<<3<<:=*%%%==:,<<<33<<33<<<<<=%@@=:33<:*=%%$%%==;,<333333<<<<<<33<<33<,:=**%%%%@@@@@@=:<=====;:=*%%%%%=,<;%%%=*%@%*%%*;,:=*==%*==::======%%%$%*=:<<*@@@$=<<<<<<<<<<<33333442<<33333:=%%%%;::=,<;:<<<33444333333<<;:<<,:=:<3<===<::;=%@@@@@#&:;=*===,<<,===:<:=:<3<<<<<<<334433<:=:<:;:4:=*=;,344443<<3333<<<<<33333333<<:%@@$;,:*%@++@$*****======%*;=%%==%%$%%$$%*$$%===%@@%*=::==*=*%&&%%%@@@%=::%@@%=,<3<<<333334444433<23333<<:=%*;<<:;<<;%:<44443<<<<<343<,;;::=%=,<3<<:===:<:*@@@$%=:3:==*=:344<;**:<,::<4444444444434<:=<<,;,<;=**=:344444433<<<<333<<33334444,=$%$%<3<:;=%%%*===;:::::::==;==;:;=%%==%%==*%*=::=%%*==;:,:;;=====%$@@@@$%:=%%=:<<<<<<333333334443<44444<,;==*=*%%=-=;,3<;%+@%;<<<32<<<33<3<::::%%%**=<<<<<<<<<:;",
"$$%;<<<<<<<33<;;=*%=,,,<<3333<<<33333<=$@@*:33,::;*$%%%===:<3333<<<<<<<<33<<<3443<:%%*;%@@@@@@%%======:,,;=%%%$*=;;%%$*%%$%*%%===*%====:::=*%%%%%%%**%*=,<3<%$$$@%,<<<<<<<<<3343334333333333,=*%$$*::=,,;:,::,<4443333443<,<<<<:==,<<==:43,;%@@@@@#$&-=:,,==:<<:*=:33,;,<3<<<<<<<3343333<::<;;,<=%%%*;<44333<<3333<<<<333333333<:=@@@$=<4:=%@$%%%$@%%%**==;====%$==*%@@%%%%$@@==*%@%%*::;=%%%=*%*==**%%%=:<;%$%%%:<3<<3333344444443<<3333<:=%@@%:<:=<,:=<444443<<<<3443<<=:<3:==,<<<:=%%%=:=%@@@@@%=:;:<:==<34<==:33,::<44444444443333<=<<::::%%%*=:344444433<<<<<33<<33334444;%$%$%:34<:=====;=======:,<:;=:**===*$%%%%*=%%=;;=%%&==::::=======%%$$@@@$=,=%@%;<42<<<34444333443<<23444<:===*==%%=:;;:<<=@+@%;<3442<<<3<<<<<<<<==;:==,<333<<<<:=",
"@$%:<<<<<<<2<<;::==:<::<<<<33<<<<<<<3<=%@@%:33:;:,:*=*&**=:<<<<<<<<<<<<<33<<<333<:*$@%:=%@@@$%%%***%*===;::=*%%$%=:=%$%%%%%%$====**;::::=*%=;:===:::=%%*=:::%%%%@%:<<<<<<<<<33333343333333<<<:==**==;=:;==*%%;<444333333322<,==*%%=:<==,33<=%@@@@@@@%;,<<<:=;<<;%%=:<<<<<3<<<343<<3<,=;::;:<;::;*%%%=,4433333<3333<<<<333333333<:%@@$$=:<=*%%%=::=%*;;=%%%==;::=%=;::%@@%$@@%=:==%@=:;==*%%=::==:,,:=**==;:=%$%$%=<3<<33333333443<<<<33333<:*$$%*::;,::;<<::<33<<<<<34<<<;:<3,=*=,<<;=;::::=%@@@@@$%=:<3<:=:<<;*;,<<<,<34444444443<;;::=:::::;=*==:<34444443333<<344334443444<=%*=%%:<,:====:<<:=;<<:===;:::,==;:,:*%%%**%%=;:;=%==;:;====;:;=;:;====%%*;<*%$$*:<33<<344433334443<23444<:===%%==:,<:=;<<=@+@%:<3332<<<33<<<,::<==:<;;<<333<<<<:=",
"@@%=,<<<<<2<<<:::-==:==:<<<33<<<<<<333:%@+%:3<:;<<<::=====;<<<<<<<<<<<333333333<:=%$@%::*@$%%*=========*=======$%=::=%$$%%$%%:,:;==:::;===%=::==;<<:*===*=;:%%%=$$=,<<<<<33333333333<<3333<<<<,::::====*%%%%%=:344334333334<:*===%=;:==<33<=%@@@@@@@%=<333:;=,:=%%==:<<333<<<333<<3<:%%====:=::=====:<4443333333333<<<333333344<=@@%%$=;;=*====:<:==:::%%==*=::;*=:<2:%+@@@@=,<:=%$===*==**;<:;=,<,:==;====%%%%%%*<3<<33333333333<<<3<<<33<:=*%%%;;;::==;=*=,33<<<<<<3<<<,,,:;*%*:<,==,<<,:*%@@@@@@$%:<44:=:<:*%===,<<444444444443,*%*=%=;==;::;;:<<4444443333223444434444444<*%==%%;::;:::=:<4,:;<<,==;;;::<:;:,<<:*%%%%*=:,::=*;:;-====;:<:;:<<,:;==*=::%%%%%=<33<344343<<34443333444<,:;;==:<<<3,==<<;@X@*<<3<<3333333<:;===*=:<::<<<,,<<<<:=",
"+@@*:<<<<<3<<<,,:====%*=,<<<<<<<<<3344<=@X%:3,;:<443<::::::<<<<<<<<<<333333<<<<<=%@%$%;:=%==*=::<:;;,:=%==*==::%%=:::;%@@$@%:<4<:=;<,;*=::*:::==:<:=*:::====%$%=$$*:,<<333333333<33<<<<33333333<<<<:=*%$@#$$%*;,<3334433<34<:&;::;==;=;<33<=%@@@@@@@@*,<<<,;=:=*====;<433<<<<<33<<3<=@@@@$%====::::<344444433333333<<<<33333333<=@%**$%=*%=::==:<,;=:,<==:;*%=:;==,<4<=@@+@*<44,=%%*%$%:,==:<==;<<:==:<:==*%%%*%%%:<<<<3433333333<<<3<<<333<,:======;=*%%$@%:3332<<<<33<<<<:=&%%%=::=:<<3<:*$@++@@@$%:<44:=::;%%%%%;<4444444444443:%%%%$%*=*=:<,,<34434444333<<23444333444444<*%==%%==;:<<<;;:3<:;:<,;:::==:<,::<444:%%%%=<44<:==::-=;::=:<3::,44<::::;;=;%%&%%*:<3<344344<<<44444444443<,<<,,<3<33<;=,<:%X$;333<<3333333<:*%%%%*:<<<<<:==:<3<;%",
"++@@%;<,:;:<<<<<,=%%====:<<<<<<<<<33332,=@*:<:;:43<,<<<<<<<<<<<<<<<<<333333<<<<<=%%%%%*==*====:<3<:;,<:=;:;*%==**=:<43;%@+$=<34<:==:=*=,<:*::;=:,<===:<<,==%$@$%@$=:,<<3<<33333<<<332<<33333333443<,;*$@@$@@$%%%:<33443<<<4<:=:<3<:=*%=:3<<;%@@@@@@@@*,<<<:=====><<:=,43<<<<<<33<<;*$@@@@@$%&=;<3334444444433333333<<<<33333333,*+%%%@$%*=,<<;==,<:==:<==:<=%$%**=,<43:%@+$:343:=%@%%%=,<==:<=;:<,;==,22:=%%$%%%%%,33333433333333<<<33<<3333<<<<<;=%*%$@$$$%=,332<<<<33<<<<:=;:;**=:=:<<<<:*$@@@@$$$%:<44:=====:::;;,44444444444<:=%%$@@@$%%:<444444433444433<<23443333334444<*%%%$$*=:,44<:;:,3<:;<<::,<;==;:::<344<=$@*:444<:=%====,<,=:<<::,3<:=:<<:;=%%%*=%%;<43334343<<344444444444433<<:;==;:<:=:<,=%:<333<<<333333,;*===%%=<<<<:=%%=;<<=+",
"+++@$=,=*%*:<33<:=*=::;=:<<<<<<<<<33443<:%=,<;:,3,;==:<33333<<3<<33<<343333<<3<:%%%*%$%*==:::=;,<<:;:<:=:,,=**=%%=:<44<=@+%:443<==*====<,:=::=::<:==:<,::=%%$@@$@$=,,,<<<<33333<<<33<<<3<<<<<<:<<33<:%$@$%$@$%%%:<33333<<<4<:==:<3<:=%%:<<<,=%@@@@@@%=<2<<:=%*=:<<:;=,43<<<<<<33<,*%@@@@$@$%%=:34444444443334443343<<<<<<<33333,*+$$@@$%%=:<3:==:<<:=;<;=:<;*%%%%=:<33,=@@%<33<:*$%==*:<<==;:=;:<:==:<<,;=%%$$%%%%,3333333344334<<3333<<3333<<<<3:=%%%@@$%$$%=:<<<<<<33333<:=:<<:====;<<3<:%$@@@$$$%%,443:=*==:<<<:;,4444444444<==%%@@$$@@%=,44443<34333444333333343333344444<*%%%$$===:,<<<:::<<,;,<::,3:=;:;=;<3474:%@=<444<;*%====<<,;:<,;:<3,::,<3,:=%%%*=*%=<43<33333<<344444444444433<<;*%%%=::=;<:=:<3333<<<3333<<<:=:,,-==,<<<===:;;:;%X",
"++@@@*:==*%=:<3<:*=:<<:=:<<<<<<<<<2333<3<;:,<=:,<=%%%=,33333<<3<<33<<333333<<3<:%%*=%@@%=;<<,==:<3,;;,:==<<;=*=%%=:<442=@@=<44<,*%%==;;<:;=::=::::;:,<:===%%%@@@@%:<<<<<33333333<<<<<<33<<<::=*;:<<<:%$$%=%@$$%*:<33333<<<33<;==:44<=$%=<<<<:=@@@@@@%:<<<,=%$=:<<:==;<33<<<<<<33<<=%@@@@%%%%*:<4444<<34433333344443<<<<<<<<<<33,*@@@@@$%%=;:<<:=:<<:==:==;<:===%$%=,33<;$$*<3<,=%$%::=:,:====*=::==;<<:===%%$$%$%&,3333333333333<<<<33<<<3<<<<<33<:=%$@$%%$$@%=<<<<<<33333<:=:<<<:=%%=,<3<,*$@@@$$$%=<44<=%%=:33<:;:<4444444444<=%%%@$%%$$%;<443<:::<<<3444333333333334444443<=%$%%%====;:<<,::,<:=:::=:<:::,=*=:<444<=%=<443,=%%=:::<<:-:::=:<<::><<<,;=*%%%=*%=<33<<3333<<344444444444333<<;%$@$%;:;=,:=:<<,<<3<<33333<<:;,<<:==;<<:==:<,:=%@X",
"++@@@%::,,;=;<3,=%=:<<::<<<<<<<<<<22<,,<<:::,=:::%%$%=:333333333333<<<33333<<3<:%%**$@%%=:<3<:==,4<;=::==,3:-;:*%=;<443;%%:344<:%$%:::;:;========;:<<:=*===%%%@@@%:<<<<3333433343<<<<<333<:&%$@$*;;::%$%==%@$$%:3433333<<<<33<::<43<=%$%:::<,;%@@@@%=<<:;;%@@;<<<=**:<333<<<<33334:=@@@%*=*%=:<443<=:<3333333344443<<<<<<<<<<33<=@@@@@$%%%%=,2<::::=%%%%%=<:;=;*$%=:33,=$@%:<<:%@$=::==:=%%%%%****=,<:==;:;%$@@$%=<3333333333333<<<<3333<<<,:,<333,=%%%%%%$$$%:<<<<<<33333<:=%=:<<;$$*:,<33=%@@@@@%=<343,=%%:34<;**:<44444444443:*%$@%=;*%%:<<<,;%$%==<44443333333333344444433;%@#%==;:::;:<<,:;;======;,:;:<=%%;<444<=%=<44<:=%=::,,<<;==;==:,,::<3<:;===%%%*%%=><3333344333444444444443333<:=%%$%=;:;::=:===:<33333333<<<<<,:;=**:<:==,<<:%@@@",
"XX+@@%:<<<<==,<:*@%=:<<<3<<<<<<<<<<3<;%=;==::=::*%%%=:<433<<<33<<33<<<3333<<<3<:%%%%@@%%%=:,<<:=;::==;==*:<:;::=%%=:<4<=@$;<33,;%%*::==;====;=;====;:===:,:*%%%@@*,<<<33333333<<3<<<<<<33<:%%$@$%%%=:=$@%%$@%$%:3433333,:=;:<<<<34<:==**===;=*$@@@@%*=====%$%=,<<,::<<<<::<<<33344<=$%@@%%%%=:<,:;*%%==,<3433344443<<<33<<33333<;%@+@@$=:;=*=;:;=======*%%=;;=:=%%%=<<:%@@$=<,=%%*=:;*=============;:;=;:::%%$@@%:<333333<<33333<<<<33<<<:;=%*;:<<,;%%%*%$$@%=<<<<<<<3<<33<<:=;,<<:%@$==::,-%@@@@@%:<::::%$%:<44,::<34<<<<4444443;%$$%%=%%%:::*=*%$$%=,44444333333343333344434:*$&===:,<,:;::;;;:::::;==;==:<:===>47<:*%*:43,====,:::::=======;::,3<:==;;=%%%%%%=,<33<<<33333444444444443333<<:==*=====;=%%%%%:<44333333<<33<;%%%%%=::=;<<<:%@++",
"XX+@@$=<333;=::=%%*==:<33<<<<<<<<<<<:=@%%%%=;=;:====:<3443<<<33<<3333333333<<3<:%$%$@$%====;:<:=========*=:;=:,=**%=,4:%@@*:<<:====:;=*===;::;=;;======::<,=%*=**=<<<<3<<<<<33<<<<<<<<<<<<:%$@@@@@@%==%@@$@@$%=:3433443<;*%=::<<33<:==;;====*%$@@@$%%*%***====:<<<<<<::==:<<333334<=%%@@@$$%=;:=*%$@$%%:<4433344343<<<33<<33333<:=$@@$%=<:;=%*=======:::======:;==%*,,=@@@$=:;%*===;=%===::::==;:===;:::,<,*%%%%=<<333333<<<23333<<<33<<,=%%$$%==::=%$%%@@@@%;<<3<<<<3,::<<,<:,<<<:%$%**====%@@@@@%=;====*%*:<44<<<<<,::,34444444:%$$%%%%%*:;=%%%$@@$=<44444443344343<33344444<:=====:<<::;==;::::;:,:::====,:;:=:<7<=%$%;3<:===:<:;=;;;;;::;;;;;:<,:;:::;*%$$$%:<333<<<333334443333444433<<<<<:::::=**%%@@@$%=:<3333333<334<=%===*==;=;<<<:%@++",
"@@@@@@*<333:=:===:::=;<33<<<<<<33<<,=%@@@@@%=*=:<<<<<443333333<<<333333<<33333<,*$@@@%*::===;,:=======;======;:;==%*:3;%@@%=<,=%=;::====::<<,==:,::====;:<,=%*=:::<<<<<<<<<<333<<<<<<<<<<<:%$@@@@@@$%=%$@$$@$=:<34443333,=$%=;:,<3<,=;:<:=%**%@@@$%%%*%%**:,:=:<<<<:;=%%=:<<<33334<;%%@@@@$%==&@@@$$@@%:<44334443333333333333333<:=%%%%:<:;==%%=;,,==:4<<:=%%=::;;%%::=@@@%===%;;;===*==:<<<,*=;,:===::;><<=**:::33333333<<<<3<<3<<<33<<,=$@@@@@$===%@@@@@@@%;<<<<<<<3:===;:<<<<<,;*=***%%%%%%@@@@$%%*=*==;=;,4443<:;=%=:44444443;%$$%%%#%===%%%%$@@$=<4444444444444<<33344443<<<:===,<,:::;;:<<:==:<3<:;;==;;::==:4:=%$%;<:==:::,:==;::,<<,::::;;:::::<<:=%$@$=,<3333<<<33<34443333444333<<<<<<<<<<=%%@@@@@@$%=:<334333<344,=*,<<:=*=*;<<3,*@@@",
"@@@@@$=<333;=**=:<<,;;<33<<<<<333<:*%$@@@@@@%%=:34444443333333<<<333333<<333333<=$+@@%=,<:;;;====;:::,<<,:==*=:=::=*=,;%@@%=<:=%:;======:,34:*$=<<:==;===::=%%=:,<<<<<<<<<<<33<<<<<<<<<<<<:%$@@$@@@@%%===%%%%:<444443333<,=%*==:,<<<:;:3<-%%%%@%%%&%*=%%=;<<,:><<<:==%%*:<<<<334443<::*%$%=:=%$@@@$$@@$:<44344443333333333333333<<<;*%=:<===:=*=,<<**:44<=*=*%=;;;%%=;=$@@%==%%;;=%*=====,<<:%%=<:=%;::=;:,=**:<<33333333<<<<3<<<<<<33<<,=$@@@@@@%%==*%@@@@%=:<<<<<<<3<:=%%*=:<<<:;=::;=%%%%%%%@@@$%%*%*:,:*:<44<<:==%%:344444443<:*%%%%%==*%%@@$%$@$=<4444444444444<<4444444333<:===,,:;:::=:<<:=%:34<:=::;==;:==:3:=%%*;:==;::::;=::<<343:=:<<:;;:,::<<:=%%%*;<33333<<<33334443334444333<<3<<333<<:=%@@@@@@$$$%:<34333<344,;*:<<<:=%%=,<3<=%@@",
"@@@@@%:<<<<=%%=:<,:;=:<3<<<<<<<33<:%#@@@@$@@%*:<4444<344433333<<3333333<<3333333:=%%%%=<,:;::===:,;==,34<:;;====::=%*:=%@@%=,;=*:====::**;<<:=%;<<=*=:;==::=%%=:<<<<<<22<<<<33<<<<<<<<<<<<<=%@@%%$@@$$=:,:==*:<3<34433333<:=*===;,<<<<<33:%$%@@%===*%%%%=:<<<,<<<:=%%%%=,<<<<3344443<<:;-:<<=%@@@@%%$@%:<44444443333333333343333<<<:**=;:===:=*%:<,%%;<<:%$=;=*=;:*%%==%@@%;=%*===%=;:-%%:::;%%=<;=&::;:;::=%*,<4333443333<<33<<<<<<<3<<,=$@$%$@@$%%=:;*%*=:<<33<<<<<3<,;%%%*=:<<<::<<,;*%%%%*%%%$%%%%=;<<:=:<43::;=*%;<4444444443<=%*=;::;%%%@%%%$$%:<4444444444444334444443<33<:===,,:::::==:<:=*:<,:=*:::;=;:==;<,=%$=;:===,:;=;:<:::34<;%=<3:=;:::;:<<=*=::,<<3333333343344444444443<<<<<::;,<<<:=%@@%%@@@@@%:<34333<333<:*=:<3<:%@%:<<<,=$+",
"@@@@$=<<,::%$%:<<>===:<<<<<<<<<33<:=%@@@$%%%%=:<43<<:,<3333333333332233333333333<:==%%:<:==::=*=,<=%%:<3,;=::=*%;:;**==%@@%;:===;=*=:::%%*;:==%;,:%%=:;==::=*%=:<<<<<222<<<<<<<<<<<<3<<<<<<=%@@%**$@@$=,<<:==::,,<3433333<<=*%**=:<344333:%@@@@%=::*$@@$=<<<<<<<,=%%%%*:<32<<3333<<<<,<<<33<=%@@@%*%%%*,3333444433333<3333343<<<<<<:**==:===:=%%;::%%=;;=$@=::===:=%%===@@*:=====**;,<=%$=*==$%=:=*=::=:;::=%*,<43333334433333<<<<<<<3<<,=%$%%%$@$$%=,<:;::<<<<<<<<<<<<<,=%%%%=,<<<<<3<:=%%%%===*%%%%%=,4<<:<44<;===*=<34444444433<;*=:<<,=%%%$%*%$$%,34444444444434334444433<<3<:===:<:::::===<:==;:==*%;<<>;;:;=-:,:%%=:;==;,:==:<<;==<,:=%=<3;*;,:;;::<===<<<<<3334333444344444444444<<,:==%%=::::;%@$*%@@@@%=<<34333<<<<<:=*;<33:*@%=,,,<:%@",
"@@++%;::===$$=,<<<:;:<222<<33333443:*@@@@*=%%=,33<:*@%-:<33334443332<<<33333333333<;%*:,:===;=%=:<=%%=::;%%:<,=%=:;%%=:=%@=:;======:<<;%%%%%%%*;:=%*=:;==::***=:<<<<<33<<<<<<<<<<<<<3<<<<<3:%@@$==%##%*=::;======:,33333333:=%%%*=,<44433;%@@@@$:<:%@@@$=<3<<<<<:==%%*=<<333333<,::;==;,44<:%@@%%*=%@%:<4333334433333<<333333<<<<<<:***=:===:=*$=::=%#@@$%%=:3,;=;==%%==%$%==;;;==:<<:*%*%@@@@%;:*%=::==;::*%=<<444333344333333<<<<<<<<<<:=%$%*%$$$%=>23<:;;:,:,<33<<<<<<:*%%%%=<<<333<:%@@@$====%@@@$=<344444<:=***=:344444444<:::;=:<62:%$%%===@@$*<344433444443343344444433343:;==:<,;:::===::=*%%%%*=;<4<:;;:::=<<=%;,::::,:;:44<*%*=*%%%-<<=&:::::::,=*=,<<<3333443333344444444444333:=@@@@$%%*:;%@$%$@@$$=<43343<<:,<<<<<:<34<:%$%*;==::=$",
"@@@@%%==*%%%%*:<<<<<<<,::=:<<<33343:*@$@@$%$$=:,==*%@$%=,3433333333223333443333333<;**:,:==;;=*=:<;%#%%%*%%=<<:==;===*-=%%=:======:<<:=**%@@@@*::=**=:::::;***=<<<<<<<3<<<<<<<<<<<<<3<<<<<<,=@@$%=%$%===;==;;;;=;;:<3333333,;%%%==:<4333<=%@@@@@=:=$@@@@*,<<<3<:==*%%=:3333<<<<,:====:;:,::;*%$*==*@@%:34333333333333333333333<<<<<:=*%=:===;=*%=::=@@@@@%=%=:,:====%%==%$$%*=;===;:;=%**@@@@@=>:*%==::;:;=%*=<344333334433333<<<<<<<<<<<<=%@%*=*%$%*;:<:;======:<<<<<<<<<=%%%%=:<<<<3<:%@@+@%::=@@@@@=:34444<,;=%%*;<4444444<,:;;:::::,::=%%%===%@%;3444333444443343333344333343<:==:,<,,::===:,:%%%%%===:<4<:=;::*:,;*=;;::::::<3<:===%%%%%:2:==::::::::**=<<<<3333443333444444444443<<<,=$@@@@@@$==*@@$$@@$@=<33333<<:===::<<<34<:*=======*%@",
"@@@@$%%%%**===;<33<<,:;=*=;<<<33343:=%$@@@@$%=;=%$$$@@$%,3433333333333334443333333<;=*=::=;:;=*==<:%@@@@%*=*:<,;=====%=%%%==%===*=:<:=%*%$@@@@=::==*%=:::;=***=<<<<<<<333<<<<<<<<3<<<<<<<<<:*@@@%%%%%===*%==;-==;;;:<<333<<:=%%%*=;,4333,=$$@@+@%=%@@++@%:<3<3<:==%%%=:<333<<,:;=;===:;=;====%%*==%@$*<3433333443<<3334333333333<<<:=*%%=;====*%=::=@@@@@$%%%*;======%*==%%%*=;===**%$$%%@@+@$:<:*%*==:;;=*%*;<344334444433333<<<<<<<<<<<<;%@$*==%%%==;:;=======;:<<<<<<<<:*%%*==:<<33<:%@@@@%::*@@@@@%:34443<:;=%%=:<4334443,:::::::;==;:;=%%==%%@%;<334333444443343333344333344<:==;:<,::;=*=:,:*%$$%%=*=;<<:=;::*:::====;::;:,,,:*==&@$$$%:3:==:::::::=*=;<<<<3333443334444444444443<<<,=$@@@@@@@%*=@@@@@@$%=<333333<<=%%*;:<<33<:=:::=***%%@",
"@@@%%%%%%=;<,;;<3<<:=*%%%;,<<333343<:=%@@@%%=*%$@@@$@@$*<33333333<<333333443333333<:=%*;;==::====<:=@@@@$==%==:;==%==%%%%===%=====;=%$@$@@@+@%;;===%%*===*%*%=:<<<<<<<333<<<<<<<<33<3<<<<<,=%@@@@@@%=;=%$@%*====;;==;:<33<:=*%%%%*=:344<:%@@@+X@@@@@@+X+@=<333,=**%%%=::<33<:=%*=:;;;:;=%%==:=%%%%@@%=<3333333443<<3334333333333<<<,=%%%%===%*%%=;:=%@@@@@@@@@$%%==;;=*=:=====;==%@@@@@@@@@@@%:,;*%%%*==*%%%=:<333333344433<<<<<<<<<<<<<<<:*$$%==%%=:==%=;:;;;;===:,<<<<<<;*%%===:,344<=$@@@@%==%@@@@@%=3344<,;==**=:<<33444<::::::::=*%=;::*%%%$@@$=:<333344444433433333333<<344<:;==;;;;==**==::;%$@$$$%%%=;:::::=;:<;===;;;;::==*%*%%@@@@*,3;==;;;;;;=**=;<3333333443334444444444443<<<>=$@@+@@@@@%*%%$@@@%;,<34443333,=%%*=:<33<:=;<<;*%**%$",
"%%*=%%%%=:,<<::<3<:=%%%%=<<<<33334443<<=**;::*%@@@@%$@@%:33333333<<333333433333333<:=%**=========<<=+@@@@$%@%%%*==%==**==:=*====;=%$$@@@@@$@@%*%%**%@%==%%%%%;,<<<<<<<33<<<<<<<<<<<<3<<<3<:$@@@+@@*=;=%@@@@$%%%%=;==**:<<<:=*%%%%%=;<44<=$@@@++@@@@@@+XX@=<3<<:=%%%%%*==:<<:=%**=:==%=*%@$%%==%%@@@@$%=:<333334433<3334333334433<<<<;%%%$%%%%$$%*%%%%$@%$@@@@@@@%==;==**===:;====%@@@@+@@$@@$%===%%%%*==%%%%=><<<3<<3344433<<<<<<<<<<<<<<:=%@@@%%%*==*%%%=;===;==%%=:<3<:==%%%*==;:343:%@@@@@@$@@@++@@$=<344<:==***==:<4443,;=::;==;=%$@%*=:=*%$@@@@%*,4333343344344433223<<<<<343,:====;;=%%*==**=%%%%%$$$%%%=:::::::<,:;::::::;%*%%%$@@%%%=:,;=========**=:<3333333443334444444444443<<<<:%@@@$@+@@$*;:;=%%*<3<44443333<:*%%==:,<3<::<3<=%%%$$",
"====%$$$%:<3<<<<<:=%%%%=:<<<<<<344333<<:::<<,%%@@@%*%@$=,333<<333<<333333333333334<:=%%%%========::=@@@###@@@@@%==*======:==;===;*%@@@@@@$$@@%%%%=*%@%%*%%%%=:<<<<<<<<<<<<<<<<<<<22<3<<<<:=@@@@@@%=:;=$@@@@@@%%%===:=%%;<<:==*=%%%*-<3<:%@@@@++@%%@@@+XX@%:<<<:=%%%%%*==,<,=%*=====%%%%$@@$%====%@+@@@$=,33333333<<<<3333<<34433<<<<:=%%$%%%%@$%*%$$%%@$%$@@@@@@$%=;::=%**=:;=*=%@@@@@@@@@@@@%%%=*%$%*==%%%=:<3<<3<<333343<<<3<<<3<<<<<<:=%$$@@$**===%%$@%==**===*%%=,3<:=*%%%%*==:44<:%@@X@@@@@@@+@@@@%<344<;==*%*==;<443:===::=***%%@@@%=::=*$@@@@$%:3433333344444443<<<<<<<<<33<,=======**=;=*%;*%$%%%%%%$%=::::::::::;<:;::==%%*%%%%%%%%*=;===*=;;==**==:<33332223443344444444444433<<<:%$@@%%@@@@%:,<:=*=:<<<<4433333<;*%**=:<<3<<<3<=%@@@@",
";;;=$@@@%:33333<,=*%%%*;<<<<<<<43<,,:::,<33<:%@@$%%=$@%:<333<<33333<333333333333344<;*%%%*===*%*=*%%$@$%%@@@@@@@%====;======:====%$$@@#@$%$@$*%%=:=%%%%%*%%=:<<<<<33<<<<<<<<<<<<<2333<<<<=%@@@$$$%;:=%@@@@@@@@%%%%=:=%@%;,,:====%%=-:<:*$@@@@+@$==%@@@++@$=,<,;=*==&%&==:,=@%=:;=%%%@@@@@@@%%=::*$@@@@+%;<<3<<<33<<<<<333<<33333<<<<<;=%%%%%$$%%=*%@%%@@%%@$%@$@@$%=::=%%%%===**$+@@@@$@++X+@$$%==*%%******=,44333<<33<333<<33<<<33<<<<<;%@@$$@$==;==%$@@$%%%%*====%%=<<:=%%%%%**=:33<;$@++@+@@@@@@@@@@%:<43:=**%%===:<3<:=*=;;=*%%%$$$$@$%;::=%$%%$@%=<443333344444443<<33<<<33333<:;=;======::=*:=%$**%**%%%%=:::,:==;;:<:;;==%%%%%%%%*%%%%%*==*%=::==*==:<333332<<3443344443444444433<<<<=$@@%*%@@@%=,<<:===:::,<433333<<=%%%%=:<34443<=$@@@@",
";::=@+@@%;33333<:=*&%%=:<<<<<<34<:=====;:<<:=$@$%*=*@@*<<333<<33333<<33333333333444<:=%%%%==*%$%=%@@$@@@$@@@$$@X@$**=:=*%%%=:===%@@$@@$@@@$@%==%=,:=%%%%**=:<<<<<<33<<<<<<<<<<<<<2333<<<:%++@$=%%%=:=%@X@@++@@$%%%=;:=@$%=::;===*==;:;*@$$$@@@@%;:=%$@@@@@%=::;=***&%%*===$@%::=%%%%@@@@@@@$@%;:=%@%@@@$%;<<<<<333<<<3333<<3333333<<<<;*%%%%%%%=:=====$@@@@%%@$@@@%=::=%%%*====*@+$@@@$@X@+@$$$%::;%%**====:<443333333<<3<<<<2<<<<<<<<<;*$@@@@@%=:;=*%%@@$$$%%%%*;:*$@;,:=*%%%***=:3<:%@+++@@+%%$+@@@X@@%:<<:=**%====:<<;%%=:;=%*%%$$@@@@@@=;:=%%=*%@@%;4333334443344433<33<<<4433333<:;;====:::==:=*%%%%=%%%%%$;::::=====<:::=%%****%%%%@@%%%*;==*=======;,3334443<<4443344433444444433<<<<:%@@%==$@$%==:;=======:<443333<<:=%%%=;<34444<=$@@@@",
"%==%@@+@$=<<333:;==&%%;,<33333<<::====;;;::;=*%%*==%@$=<3333<<33333<<<34443333334333,;*******%%=;%@@$@@@@@@%$$@@@@====*****=====%$$$@@%@@@%%%%%*=;::====;:<<<<<<<<33<<<<<<<<,,<<<<3<<<33:%@$%*=%$@===%@++@@++@@@%%*::=@@$%&-:=====;;=%%%%*%%@@%======$%%%%@$*====****===%%@@*,<;%%$@@@@@@@@@@%=:%%%*$@@@%=<<<<333<<<<<33333343<<33<<<<<:====*=;::=%%**%%%@$=*$%%$@=:=;==*====;:=$@%@@$%@@@@@@@@%=:,:====::,<3443333333<<3<<<<<<<<33<<<,=%$@@%*%%=:=%%%$@@@@@@$%%*;<=$@%*==*%%*%%==:<;%@@@@@@$%;=*@@@@@@$$*;,:======;:::=%@%=<=*%*%%$@@@@@@$=;;%$%==*%@%=<333<3343<<4444<<<<<<333334444<<,:::,:::======*%%==%%=*%:::;::::::::::=%%=%%=%%%%%%%%%=::=======;;<<3334443<<4443344433344444433<<<<:%@@$%%$$%======;;==;=;:<<3333<<:=%%%==:<3343:*@@@@@",
"$%%$@+X+@%,<3<<:===%%*=:<33<<<::==;;==:;======%%%*%$@%;<3333<<3333333333443333333333<:===*%***=;:=%@@@@@$@@*%$@@@$====***=====::%%%%%*=%$@%%$@$=;=::,:::,<3<<<<<<<<<<<<<<<<<,,<<<<<<<<<<=%@%%%%%@@*==@@@@@++@@@@%%%:<:%@@##=;:=*====%%*====*%%*====;=%%==*$@$%===*%*===%$@@$=<3;%$@@@@@@@@@@@%=;%%*=%$$@%=<<<<333<<<<333333443<<3<<<33<<::::::::;=*$$%%%$@%::*%%%$;:;===*=;==::*%@$@%==%@@@@@@@%=:,<::::<<<33333333333<<3<<<<<<<<33<<<,*$@@%==%%%:=%$$$@@@@@@@%%*:<;%@@$%*****%%====%$@$%%@$%=;==%$@@$%%%%%==;;====::=*%$@%:<=*%%$@$@@@$@@$=;=%@$*==%$$*,<3<<<333<<4443<<<<<<33<<<444444<<<<<,;::=%%*=*%=,:=*==*:,:=::::::;:,,=%*=*=:*%%*%%%%*=:::;;;::::,<4333444433444434433334334443<<<<,=%@@@@%@%==*%%%*=====;=;:,<333<:;=%%%*=;,333<:%@@+++",
"@@@@@+XX+%:<3<,;==*%%*==:<3<<;%%%=;;==;=*$%%==*%%%@@@%=<<<33<<433333<<333333333334443<:;=*****=::=%$@@@%%$%=%$@%@$;:=%========::%%%%=,<:%@@@@+@=:==:333<333<<<<<<<<<<<<<<<<<,,,<<<<<<<<:%@@%%$@@@$==*@@@@@+X@+@@$$%;<,=$@@@%=,=****%@%;<:===%%*=====*%%=:=*%@@%*%%%*===$@@@%:33:%@@@@@@@@@@$$*==%%***%$@%=,<333433<<<33333443<<<3<<<33<<3<43<<,;*=-#@@$@@$=<3:*%%%;,:===%====::%%$@%:<<=@@@@@@$%==:3333333333333333333<<3<<<<3<<<333<<,=%$%==;%%$;=*%%$@@@@@@@@%*:3:%@@$%%=;=*%*==*$@@@*=*%%=:====%$$%*==%%%==;===;:;%@@@@=<3=*%%@@@@@@$$@@%==$@@$%*=%@%;<3333333<<3433<<33<<33<<<34444444442,=::=%%%%%*;44<;===:<:=:::;:,=:,,%%%%=:<;*%%%%%%=::,<,::::<<334334444444444444443333333444<<<,=$@@++@@%===$@@@$%***=;==%=:<<<<=%%%%%%%=:<33<=$@@+XX",
"@@@@@+X++%:<3<:===*%%%%*=<<<=**====*%%%%$@@$%===*@@+@@%%:<33<344433<<<3333333333344433<<,:;==;<,;;=$@@@@@%=<,=%@@@=;=%;=%%===;;=%***:<3:%@@@@@@*=*%=<<<<333<<<<<<<<<<<<<<<<<<,<<<<<<<<<:%@@@@@@@@$=;=@+@@@@@@@@@$$%=:,:=%@@%=:==**%@@=:,===*%%%%*==*%%$=:===*@@%=%%%=:=%@@%=:<,=$@@@@X@@@@@$$%=:*%@@%%$@@@=:333433<<<<33334433<<3<<333<<<<33<<:%%=*@@@@@@$=<3:=========;====**=;==%=:<<;%@@@@@@$%%=<33<<<3333<<<333333<<3<<<<33<<333<,*%$$%***$$%==%%%$@@@@+@@@@%:3,=$@@$%=;=%%%**%@%%%==*%%*====*%%%===:;*$%*=**=:,=$@@@%:<<=%%%@@@@@@$$@@%=;%@@@@$%$@$=<3333333<<343334443<333<<3334474444<=%===%%%%$*:44<;:;;;::=::;=:,::::===*:24:=%%%%%%=:::<333<<<3334334444444444444443333334443333:*@@+XX@%=;=*@@+@@$$%%%====%%=<<<==**%%%%=:<3<:%@+@+++",
"%%%@@@+++@=,<<:=*==*%%%*=<<=%%=;==%%%$$$@@@@%*=;=%@+@@@@=:<3<<34333<<<33<<33333334443333<<<,,<<:=;*$@@@@@%=<<:%%&*==*%==**==========:<<:=%@@@@@%*%%=<3<<3<<33<<<<,<<<<<<<,<<<<<<<<<<<<<:%@@@@@@@@$=;=%@@$$@@@@@@@$%&;:,=%@$$%====*@@$:,:=;;=%%%%==*%%*%=::==;%$$**%%===%@$*=,<:%@$@@@@@@@@$$$*=:=%@@$$@@@@*:<<3443<<<<333344333333333<<<<<<<<<;%%%%@@@@$%%;<<:;;::==*==;;===%$%:;=*=;::;==%@@@@#$@%:23<<<3333<<33333<<<33<<<<33<3333<:%$@$%%%%@%===%%%%@@@@@@@@@%=<,;%$@@%===%%%%%$%===;=*%%%*=*%%%%%===::;$$%*===::=@@@%=,<:=%%$@@@$@@%$@@=;;%@@@@$$$@%=<3333343<<4444444443333<<3344474444,=%==%%%%**=:<3<:;:::===::::::;=;::;==:<4,=*%%%%%*===:343<<3444443444443344444444443333333<33<;%++@@@@%::=%@@@@@@@$%%%==:*%%;,<:===*%%%=:<<:=$@@@@+@",
"=;=$$@@@@@%=,<:=**=*%%*==:=%@*::=%%%%@@@@@+@%%=::%@@@@@@%=<<<<3333333333<<<3333333444333344334:=*=%@@@@$@%;,<:==;:=%%%=====*%%%*:;==::::;=%@@$%====:<3333<<3<<<<,<<<<<<<<,<<<<<<<::,,<,:%@@@@@@@@%=;;=$@$%$@@@@@@@$%=;:=%$$$%%*==%@@%,,;=::=%%%%%%&&==%=::=*;=%$%**%%**%$%*;:,=$@%%@@@$@@@@@%=;:*$@@$@@@$$=:<<3333333333334433333333<<<<<<<<<<:*==*%$$%====:::==;,=*%%====*%@@%==*%**%*=::=%$%%%&%=,<3333<<333333<<<<<<33<<<<33<<333<>%@@$$%%$@%=;=*%%%@@@@@@$%@@*:::=%@@%*==%%*%$$====:;=%%%%=*%%%%%;;=;,:*@@%===:=*@@@%:,:=*%$@@@$%$$%@@%;:=%$@@@@$@@%=<<<<,<<<<<4444344433443<<<334444444<:=;==***=::::,,:=;::=*==;:::;**=,,:==::::;==%%$%%***=333<<344444444443<<44444444433<<<<33<<3:%@@@@%$$%;;=$@@@@+@@@$%%%=,=%@%;::====*%==:::=$@@@@@@@",
"=::=*%@%%$@%=:;-=&&*=**==%$@@=,:=%%%@@@@@+@@@@=::%$$%$@#$%:<<33333333333<<<3333333444333344333;%%$@@@@%*======**=::%@@%%*==%@@%*=*%*==**;:=%%=:,<<<<<<333333<<<<,,<<<<<<<<<<<<<<;*%%%=:=$@@@@%$@%=;===$@@%@@@@@$%$@%==;=%$$$%%%*=%%%;<:==::%%%%%%%%===$*:<=**:=%%%%%%%*%$%%;::*@$=%%@@@@@@@@%=;;%@@$$$@@$$=:<<<<<<333333334433333333<<<<<<<<<<<,,,,:=*=::=%%%*%%%=%%%%*=**%%%%%**%%**%%=====;><,,::<<3333<<<33333<<<<<<33<<<<3<<<<333<=%$$$%%%@$*::=%%%@@@@@$%*%@%;::=%$@%%%%*=*%%%:===:;=*=*%***%%*%=:;=><;$@%====%%$@$*::;*%$@@@@$%%%%@@*;:=*%@@@@@@@$%::=====<<<<344334433443<<<334444444<<<<<<,:;;::===;;===;=*===;;;=%%=::===;;=;:::=%%*====:333<<444444444443<<44444444433<<<<33<<<=$@@$%=%$%;;=@++@@+++@@%%%=,;%@@%*;;===**;;;;*$@%%$@@@@",
"====;=%**%%$%*===***====*%@@$;<<;%$$@@@@@@@@@%===%%**%@@@%:<3344433333333333333333333333444433:====**%%=;======*===%%$%**%*%%%%%=*%%%%%%==%%=:<<3<<<<<<33<<3<<,::<<<<<<<<<<<<<<:*$$$$%**=====:;==:,::;%@@$$#$$$%=*$$*===%$$@$%%===%*,,:=:::%*==**%%=;=%*;<:=%;=%%**%%%%%$%*;::%$%;%%%$@@@@@@%==;*%%%$$$%%%=:,:=**;<333333344333333<<<<<<<<<<<<<<<<<<,;===%%%%%%%%%%%%%%===%$@@$%%%%%$$%%%%%=:<<<<<<33333<<<<<<<<3<<<<<<<<<<<33<:==:,<,%$@%$$$@@$*===%%$$@@@$$%=*%$=:;=%@@@$%%*=*$%====::=%*==%%%*%*%%=::=:<,%$%===%%%%#%=:;==$%%%%$%%%%%@$*;:::=%*========*%%%%%:<<33444433<<43<<:,<3444444433<343<:==================;:;=*===;======;;:===:,<<,<<44444444444444444334444444443<<<<<<<<<<=$@%%**$@$==*@+@@@@X+@@@$%=,:=@@@$%=;====;;=%%%*=*%$@$*",
"**===*%===*%%$%==*%%=;==%$@@%:3<;%@@@@@@@@@@@%===$%=*%%@@%=<333443333333<<33333333343333344433<,:::::===;=*%***%%%%%%%%&*%%%%%%%%%%%%%$%%%%%=:<<333<<<<33<<<<,:=:<<<<<<<<<<<<<:=$@@@@@$%;:,<<<<;;:<<<:*$@@@$$@@%;=%$*=*==%@@$**===*=<:==::=%=;:=*&*;:;**=<,;%==*%%*%%%%$$%=::=%%*:*%$$$$$@@%=;:::===*%=======%%@@*;,<<<<<33333433<::<3<<33<<<<<<<333<;%%%%%$%%%%%%%%%%%=:=%@$%%@$$$%$@$%%$%=:<<<<<333333<<<<<,:<3<<<<<3<<<<<<<:=%%%=;:=%*=%%%%%%;;;=*%$$$$@$$%==%$=;;=%%@@$%%%**$*=*=;,:=%*;;*%%*==*%=:,=;:<=%%==*%%%%$%=;===@%==%$%%%%$@%=:<<<:=:<<<<,:=%@@@@@@=:<<3334443<<3<<:=:<33444444433443<:=****%**%*===*====;:=======*%=========;,34444444444444433444444434444444433<<<<<<<<<:%@@%%%%@@$==%@@+@@X+@+@@$$&:<:$@@@@=::=*===&$%=:===%%%=",
"%*==%%%%=;==*$%*=%%%=:=*$@@%=,3<=@@@@++@@@@@$$%==%$%%%%$@$%:<334433333333<<3334443443<<<34433334443<<:=%=*%%%%%%%%%$@%%%==*%%%$$@$$$$@@@$%%%%=:<<33333<<3<<<<:==:,<<3<<<<<<::=%$@@@@++@@:<3343<;;,33<:=$@@@@@@@$;;=%==*==%@@$*%==%*;,==;<:=%=::;*%=:::=*=,<:=%**$%*%*%%@$%=:;=%*=;=%@$$$@@@%;,<4<:;,:::<<<;%@@@$$%%=:<<<<33333433<==:<<<33<<<<3<<33<:*%%%%%$%%%%%%%%%%%=:=%$%**%%$$=*$$$%%%%=;,<<<<333<<<<<<,:=,<<<<<<33<<<<:=%%$@@@%=::,<;;::=;<<,:=%$@%%%$$%==*%*===%%@@%%%**%%*=%=:<:*%=::;*%====%*:<==;<:=%;==*%$@$%====*$=:=$@%%%$@$*;3444:=:34444<=%@+@@@@$%;,<<<3444<<3<<:==:<344444443343<:====*%%%%%%*%%%%**=====**===%%***%%%%==;:<44444444444433<<<44444444444444433<<<<<<<<,;@@@$@@@@@%;=%X+@@+X++X@$$$%:<,*$@@@*:,=***%$@=:,*==%%*=",
"%==%%%%%=:=;;=%%*=%%=;==$@$*=,<:%@@+@@+@@@@$$$*=:%$@@$$@@@$=,334433333333<33334443<<<<<334333333433<:==%*%%$%%%%$$$%%%%%%%%%%%$$@@@$%%%$%%%$%%*;<33333<<3<<:====:<<<3<<<<<<::%@@@@@@@@@@=,333<:=:<<3<:=%@@@@@@@%=;====%==%@@$%%%*$%=;==:<;*%=;=%%$%*=;*%*=,<:=*%@$%%%%%@$*;;==*=;;=%@@@@@@$*:<443:=:<<<44<=%@@@$$$$%*:<<<3333343<,===::<33<<<<3<<<:=%%%%%%*==%%%%%**%%%*==%$=;:%%%%==*%%%%%%%%;<<<<333<<<<,:;==:<<<<<<<<<<<:=%$@@@@@@%:<43<<<:=:<43,=%$@@$$@$%;==%*====%@@%%%%%%%%*%;,<;*%=:::=%=;;=%%;,:==::=%==**%$@$=;=====::=%@%$@@@%*=<444,;=<444<:%@@@%$@@@$%:<3<3444<<3<,:==;;<3433444443:==**=****==&=**=*%**=====*=::==*=:;*%%%%*=;:<44444444444<<:;,3444444444444443<<<<<<<<<<;$@@@@@@@@%;;*@+@$@@@@@@@$%%=:,;%$@@%=:==**@@%:,:=;=%%%%",
"%*=%%%%*;:==;:*%%==**==*$@%=;,,=$@$@@@@@@@@@@%=::%$@@@@@@@%=,<3444433334333333444<,;:<<3333333<333<:=*%%%%%%===%%%%==%%%%%%%%%%=%%%*==*%%%%%%%%=:<<<<<<<3<:=*===:<<<<<<<<<<,:%@@@@@%%%$@=:4<<:=:<333<:=*%%@@@$%%=:::==%=%$@@$%%%%@%*==:<:=*===%@@@@%=:=%%*:<<:=%@@@%**%@$%===*=;:==*%@@@@%&=:<443<=:<4444<*%%%%%@$$%=,<<<<333343<>====;:<<<<<<333,=%$$%%%%*=========%%%%==%$*;:=%%&==%%%%%%@@%=:<<<3<<<<<,;====:<33<<<<<<<<:=%@@$%%@@%;<443<<;;:344<==%@@@$$%=;===**=;=%@@%%%%%@@%*=:<,=%*=;==%$%===*%=:<:=;:=%==*&%$@@=;===;:::=%%$$@@@%==<444<:=:<44<:@$%%=%@@@@%:<3333443<3<,;;===:<4433<344<:*%&*=**==;:;;==:;=%*=;;==%;::;===::==*%%%*==:3444444444<::;;:<4444444444433333<<<<<<<<,=$@@@@@@@@%=;=%@@$@@@@@@@@$%%;::=%@$%*===*%@@*,,;=:;%%%%",
"%**%==*%;::=->;%$%==%%*%$$%=;::%$%%%$@@@@@@@@%;::%@@$$@@$$%;<<3<<<333334333333344<:=;:,<333333<23<:*%$$$%%%%;:=%%*=:=$$%%*%$@%=:**=;;=**%%%%$$$*:<<<<,<<<<:*%===:<<<<<<<<<<<<=%@$@@%*=%@%:3<:==:<443<:;==*%%$%%*:,,:==*=%@@@$%*%$@$%*:<<=**==*@@@@@@*:=*%%;<3,:*@@@%=*%@@%==*%=::;==*%%%%*=;:<444<:=:<443<%%*=%%@$%*:<<<<<333344<>===*=:<3<<,<<33:*@@$%%%%%*;:===;:=%%%%=*%@%=:=%%**%@$%%%%@@$=:<<<<<<<3<:=*===:<33<<<<<<<<<:*$@$%**%%*<444<:=:<343<;=*%$$$%*=;;;;*%===%@@%%%%@@@%=:<<:%%=;=*@@@@@*==%%=<,;==*$%**&%$@@*====:,::==%%$$%%=;;<4444<==:<4<-@%===%$@@$=<<<<<344333<,;:===:<443<<<34<:*%%======;:,:;;<:=%*=;:=*%;:,;===:;==*%*%%%*:<443333443,===::<4444444444433333<<:::::,:=@@@@@@@@#%===*@@$$@@@@@@@@#%=;:=%@$$%%***%@%;<:=;::%%%%",
"%*%%===$=::==::=$%*%%%%%$$%=::;@$*=%$$#@@@$$@%===$@@@@@@@@@=<3,:=;<33334333333344<:====:<33333333<=%@@@$$$%%*==%%*=;=$$%**%@@%=:=%%==*$%%%$$$%%=:<<<:;,<<:=======:<<<<<<<<<<<<;%@@@%%%%@%=:=*=,<344<<,;=;:==%==:<4<:====%@@@@%*%%%%*;<<,*%=;=%@@@@@@%=:=%%*:<3<:%$%%=*$$@%==*%*:<<:;=;;;=;;;<34444<;;:<43,%%=;*$@@%;<<<<<<333344<,;==*=:<3<:=:<43:=$@$%%%%%%==%%%::=%%%%*%$@@%==%%%*%@@%%%%$@@=:<3<,;:<3<:=====:,<33<<<<<<<<<-%@@%===%%<44<:==<3444<:;===**===:::=%%*=%%$@%%%@@@$=:<<:=*=:<:*@@@@+%=;=*=<<,=*%@@%*&%$@@%====:33<:==%%*=;;::444444<===,:=@%%*=%@+@=><<<<<344333,;=;==;:,44<:;<44<:=******===;:**=,:=%**===*%=::=*===*%%%%**%%=:<44<,<<44<:*;:::<44444444443333<<3,=$$%@%=%$$$@%*%%*;::=*@@@%@@@@$%*$@%====%$$$$%%***%*<<:=::;%***",
"*%%*;;=%=:<;==:=%%*%%%%$$$%=;:=@%=;%%$$@@$@$%==::=*%%%%**%%=:;*%%%;,<<33333333333,;;==%;,333<<<33<;%@@@$@$$$%*=%%%==%$$%%%$@@%=:=%%%=*%%%%$$%%*;,3<:==;,<:=======;,<<<<<<<<<<<,;%@@@@@$@%*==*=<<43<::;=**===*=:<33<;=%%%%@@@@%**%*=:<<,=%*=:%@+@@+@@$=;==%%=,33<=%$%=%$$$%==%%%;<43<:;;;;==:<444443:;=:<,-$%*=%@@$=,<<<<<333334<:======;:<,;%=,34<;%%%%%%%%%**%%%;=*%%$$%@@$$%=%%%%%%@@$%%%%%=:<<<<;=;:3<:==*%==;,<<<<<<<<<<3>=@@%*=%%$;<<:==:<34443<:=;;===::<<:=%%*=%$$@%*=%$%=:<<,;**=::=%@@@@+$*==*=:<<:=*%%%**%$%$%*===:344<:==;;;;==:,<44443:=*==%$$$$%@@@=:<<<<<<333433:=====;;:<<,:;,<4<:====***=====*==:=*%%%*=*%*===***===*=%%*%%%=,344<;:<44,:;;;;;,34444433433<<<<<,=%@@@@$%*=;:;:,:=-><<:;%@@$@@$@$%=%$%*===%$@@%**==%%=<:==,:=%==;",
"=%%=::=%*:3:=*:=*%*%%=%$@$%==;=%%=:*%$$$$@@$%;:,<:;=;==::::=*%$$$$%=:<<33<3444333,======:<3<::,<3<:&@@@$$$%$$%&%$%=%%$$$$@@@@$*=%%$%*%%%%%%%*=;:<3<:=%=:,;==***===,<<<<<<<<<<<<,=%@@@@@%%*====,<3<:=**%%%%%%%=:<33<==%%%$@@@$%**%=:<4<:*%==;%@+@@++@$%====%*;<43:=%%=%$@@%==%%*=,443,:===%*=,<<<344<:==:;*@@$%$@@%:<<<<<<333344<;%==*====::*%=:<4<,===%%%%%%%%%%%=*%$@@@@@@@$%%$$$$$@@@$$$%=;:<<<<:=*=:<:;==%%**=,<<<<<<<<<<3<;$@$%%%$@=;:==;<33<<<<,===;;;:,<3<:=%%%=%$@@%*=%%=:<<<:=%*=:=%@@@@@@@%===*=,3<:==%%*=%$%$%%%*=:<484<:=;;==%*==:<3444:===*%$$@@@@$%:<<<<<<<<33333:===*&==::,:==:<43<:::=***========-=%%%%%%%%%***%%%*====%%****:<44<:==:<3:::====:<4444443433<<<,:=%@@@@+@$*:<<<3<,;:<<3<:%@@@@@$@@%;=%%***=*$@@%=%==%=:,==;<:=%=;:",
"*%%=;:;**=<<:*==%$%%%=%$@%=;===*==;=%@$$@@@@*:344<:;<<<344<=$@$$$@$%%:<3<<33333<<:======:<3:=*:<33:=%%$@%%%@@$$$$$$$@@@@@@@@+@$%%%%$%%%$$%%=:,<<<<,;%%*=-=**%%*==:<<<<<<<<<<<<<<<;=%%%%$$=::=*:<3<=%$%@@@@@@$:<44<:=*%%*%$@@$%%*=;<33<=%%=;=%@@@@++@@@*=;=%%=,34<=**=*$@@%===**=:4443<=%@@$%**%*,343:===*%$@@@@@$*:33<<<<344444<:*=%%%==%==%$%;<<33<<:=%%%$$$$%%%%%$@@+X+@@@@$$$$@@@@%%%%$=:<3<<<,;%%==:===%%*==;<<<<<<<:<<33<:%$@@@@$$%*===:44<,==;=%@$%=;,343<:=%%%=%$@@%&*$%:<3<,=%%===*#@@X@@@@$=;=*%:<43<;%%*=$@@@%%%*=;,4743:*%%%@@$%%==<44<==:<=%$%%$%%=;<3<<<<<<<<3333<:==*%====:=**;,3<<<<<:=***%***===*%%%$%%%%%%%%%%%%%%*=*%%*=::<344,;==:<<:;;====:<444444443<<<,;%$@@@@@+X@%:<<34<:;:<<4<-%@@@@@@@$%;====*%;=%@$%%%*=%=;;==:<;*%=::",
"$@@$*=;%%=:<,:=%%@@$%=%@@%=;========%@@@@@$%=:<44<:=<<4443,*$$$$@@$%%;<3<<33333<:===**==:,<;*%=:<3<:;=*%$%$@@@$$@@@@@+@@@@@@@@@$$%$@@@%*%%%-:::;;,:=%%%*==%%%%**=:<<<<<::,<3<<<<<<,,>:=@@%=%$#%:<<=@@$$%%%%@$=,44<:=%%&%%@@@$*==*=,33:=%=;::*@@@+++X@%====*%%:<4,=*==*$@@@%==%==:4443:%$%*=%%$$%;<4:==::=%$$%%==:,<43<<<<<<3444<,;;%%%%%%==%$%=,::::::=%%==%%$$%$@@@@@@+@@@@$%$$$%%$%*===%;:::::::=%%*=;=%%%%*==:33<<3<:=<<33<<:;=%$#@$%=:;==<3,=%%%%$$@@%;3443<:=***=%@@@%&=%*:<3<;*%*=;=%@@@+@@@@$=:=%%=,44<:====%@@@%=***=:3444,*%%%%$$%%%*,33:%$%:=%@%=:>,,,<<<<<<<::<3333<:==***%*===**=:<::::::=====*%**%%&%%%%%%%%%%%=*%**=%*=====:,<<<<<:;==;::=====;;:<444444443<<<,=@@@@@@$$@@@;<33<:=;,<<3<-*%$@@@@$%%=;;;=*%=*@+@%%%%*@*===:<:=%*==*",
"@@@@%=:=%&=,<<:=%@@$%=%@@$%;=**=;:;=*%$@@$%=;,<443,;:<444<:%%%%$@@$%=:<<<<<3333<:===**===;:=%%=:<<<:::=%%%*%$@%%@@@@@@@@@@@@@@$$%%%$@%=;=*%======,:=%%%%=*%%%%%%=:<<<<<==:<3<<,:::,<2,=@@%%$@@$=:<=@@%%*;:=*$%;<3,;=%%&%$@@@%===*=<<<=*%=:::=%@@++++$*=;-==%%=<4<===;*$#@$%==%==:343,=%%:::=%@@%=:,=%%=:=%$%=:,<<<<43<<3<,,3444<,==%%%%%*=%%%%=:::=====*=:,;*%%%%%%$%$@@%%$@$%%%=*%%=;::;*;;====;;=$$%=:=*%%%%==:3<<<3:=%:<33<<,<,:=&%@*-:=%%:<:*$@$%%==%%=<344,;=%*==$@@@%*=%*:<<,=%%=;:=*$@@@@@@@%;::=%=:<3<:====%@@@%==%&=:<44<:%%%==*%%$@%,<:*$@$**%@%:<3<,::<<<<<<==<3333,:=*****==***%=:<:;;:::==:::====*****%%%*=%%%==;======;::==:::::,,:=*==:;=====;;:<4443<<<43<<<<:%#@@@$%*%@@=<3<:;=:<333<;=*%%$@@%%=;:::=**=%@@@%%%%%$%**;,<;=*==*@",
"@@@@%=:;=&*:<3,;%@@$*=%$$@%==*%=:,:==**%%*==:<3444<:=:<44<:%%==%@@$*:<<<<<<3333<:;==**==**;=%%*;:::;::;=*=:=%%%%@@$%%@@@@@@$$%%%%%%%%=:<:=%==*==;<:*$$%%==*%%%%%=:3333<=*:<3<<:===:<3,=@$$@@%%@%;<=$$==;<4<:%%*:<,==%%%%$@$$%=;==:<<:*%==;::=%$+XX@@%=;;;;=*%*>4<:=;;=$$$%%**%*==<4<;%%;44<:%$@%=;=%$$$==%$*:343<:<44<<3<::<444<:=*%$%%%==%%%$*::;=%%*==:34<:%%=;=%%%$@$==%@$%=;:;%*=:<<:===**==:=*@@%=;=*%%%%%=:3<<33:=%:<33<<<344<;%@=:=$@@%::*$@%%;:,;=*;<44:==%%*%@@$$%=;%*:<<:*%%=;:;=%$@@@@@$=,,::=%=,<<:*===%$@@$%=%%=:<44,=$%;,<;=%@@%<,=@%%%$%%@*:44,;==:<<3<<*=:<444,;=****===%%%%*:<::;;;;==:3<:=====;===%%=;=%*=:::====:,<:;;;===;::;=%==::=**====:<444<::<4<<<<<,-%@@@%*==%@=<3,==:<3333<:====%%%%*=:<<:=*==%@@@$%%%$$%%*:<,===;=%@"
};
